;Generated by Cura LulzBot Edition GCodeWriter Version: 3.6.18
;FLAVOR:Marlin
;TIME:700
;Filament used: 0.112137m
;Layer height: 0.25
;Generated with Cura_SteamEngine 3.6.18
M82 ;absolute extrusion mode
;This G-Code has been generated specifically for the LulzBot TAZ 6 with standard extruder
M73 P0 ; clear GLCD progress bar
M75 ; start GLCD timer
G26 ; clear potential 'probe fail' condition
M107 ; disable fans
M420 S0 ; disable previous leveling matrix
G90 ; absolute positioning
M82 ; set extruder to absolute mode
G92 E0 ; set extruder position to 0
M140 S60.0 ; start bed heating up
M109 R140 ; soften filament before homing Z
G28 ; Home all axis
G1 E-30 F100 ; retract filament
M109 R140 ; wait for extruder to reach wiping temp
G1 X-15 Y100 F3000 ; move above wiper pad
G1 Z1 ; push nozzle into wiper
G1 X-17 Y95 F1000 ; slow wipe
G1 X-17 Y90 F1000 ; slow wipe
G1 X-17 Y85 F1000 ; slow wipe
G1 X-15 Y90 F1000 ; slow wipe
G1 X-17 Y80 F1000 ; slow wipe
G1 X-15 Y95 F1000 ; slow wipe
G1 X-17 Y75 F2000 ; fast wipe
G1 X-15 Y65 F2000 ; fast wipe
G1 X-17 Y70 F2000 ; fast wipe
G1 X-15 Y60 F2000 ; fast wipe
G1 X-17 Y55 F2000 ; fast wipe
G1 X-15 Y50 F2000 ; fast wipe
G1 X-17 Y40 F2000 ; fast wipe
G1 X-15 Y45 F2000 ; fast wipe
G1 X-17 Y35 F2000 ; fast wipe
G1 X-15 Y40 F2000 ; fast wipe
G1 X-17 Y70 F2000 ; fast wipe
G1 X-15 Y30 Z2 F2000 ; fast wipe
G1 X-17 Y35 F2000 ; fast wipe
G1 X-15 Y25 F2000 ; fast wipe
G1 X-17 Y30 F2000 ; fast wipe
G1 X-15 Y25 Z1.5 F1000 ; slow wipe
G1 X-17 Y23 F1000 ; slow wipe
G1 Z10 ; raise extruder
M109 R140 ; wait for extruder to reach probe temp
G1 X-9 Y-9 ; move above first probe point
M204 S100 ; set probing acceleration
G29 ; start auto-leveling sequence
M420 S1 ; activate bed level matrix
M425 Z			     ; use measured Z backlash for compensation
M425 Z F0		     ; turn off measured Z backlash compensation. (if activated in the quality settings, this command will automatically be ignored)
M204 S500 ; restore standard acceleration
G1 X0 Y0 Z15 F5000 ; move up off last probe point
G4 S1 ; pause
M400 ; wait for moves to finish
M117 Heating... ; progress indicator message on LCD
M109 R210 ; wait for extruder to reach printing temp
M190 R60.0 ; wait for bed to reach printing temp
G1 Z2 E0 F75 ; prime tiny bit of filament into the nozzle
M117 TAZ 6 Printing... ; progress indicator message on LCD

M221 S100 T0
G92 E0
G1 F600 E-1.75
;LAYER_COUNT:71
;LAYER:0
M107
G0 F2625 X131.69 Y132.402 Z0.425
;TYPE:SKIRT
G1 F600 E0
G1 F900 X132.156 Y131.952 E0.02158
G1 X132.673 Y131.563 E0.04313
G1 X133.235 Y131.24 E0.06472
G1 X133.832 Y130.989 E0.0863
G1 X134.456 Y130.813 E0.10789
G1 X135.096 Y130.716 E0.12945
G1 X135.565 Y130.695 E0.14509
G1 X144.437 Y130.696 E0.44062
G1 X145.083 Y130.736 E0.46218
G1 X145.72 Y130.855 E0.48377
G1 X146.337 Y131.052 E0.50534
G1 X146.925 Y131.324 E0.52692
G1 X147.475 Y131.665 E0.54848
G1 X147.979 Y132.072 E0.57006
G1 X148.43 Y132.538 E0.59166
G1 X148.819 Y133.056 E0.61324
G1 X149.141 Y133.618 E0.63481
G1 X149.392 Y134.215 E0.65639
G1 X149.568 Y134.838 E0.67795
G1 X149.665 Y135.479 E0.69955
G1 X149.686 Y135.946 E0.71512
G1 X149.686 Y144.055 E0.98523
G1 X149.646 Y144.702 E1.00682
G1 X149.527 Y145.338 E1.02838
G1 X149.33 Y145.955 E1.04995
G1 X149.059 Y146.544 E1.07155
G1 X148.717 Y147.094 E1.09312
G1 X148.31 Y147.598 E1.1147
G1 X147.844 Y148.048 E1.13628
G1 X147.327 Y148.437 E1.15783
G1 X146.765 Y148.76 E1.17942
G1 X146.168 Y149.011 E1.201
G1 X145.544 Y149.187 E1.22259
G1 X144.904 Y149.284 E1.24415
G1 X144.436 Y149.305 E1.25976
G1 X135.564 Y149.305 E1.55529
G1 X134.917 Y149.265 E1.57688
G1 X134.281 Y149.146 E1.59844
G1 X133.664 Y148.949 E1.62001
G1 X133.075 Y148.678 E1.64161
G1 X132.525 Y148.336 E1.66318
G1 X132.021 Y147.929 E1.68476
G1 X131.571 Y147.463 E1.70634
G1 X131.182 Y146.946 E1.72789
G1 X130.859 Y146.384 E1.74948
G1 X130.608 Y145.787 E1.77105
G1 X130.432 Y145.163 E1.79265
G1 X130.335 Y144.523 E1.81421
G1 X130.314 Y144.055 E1.82982
G1 X130.314 Y135.945 E2.09997
G1 X130.354 Y135.298 E2.12156
G1 X130.473 Y134.662 E2.14311
G1 X130.67 Y134.045 E2.16469
G1 X130.941 Y133.456 E2.18628
G1 X131.283 Y132.906 E2.20786
G1 X131.69 Y132.402 E2.22944
G0 F2625 X132.183 Y132.608
G1 F900 X132.643 Y132.199 E2.24994
G1 X133.153 Y131.852 E2.27049
G1 X133.703 Y131.575 E2.291
G1 X134.284 Y131.371 E2.31151
G1 X134.887 Y131.243 E2.33205
G1 X135.565 Y131.195 E2.35469
G1 X144.437 Y131.196 E2.65022
G1 X145.051 Y131.236 E2.67071
G1 X145.656 Y131.355 E2.69125
G1 X146.24 Y131.552 E2.71178
G1 X146.793 Y131.822 E2.73228
G1 X147.307 Y132.162 E2.75281
G1 X147.773 Y132.566 E2.77335
G1 X148.182 Y133.026 E2.79386
G1 X148.529 Y133.535 E2.81438
G1 X148.806 Y134.085 E2.83489
G1 X149.01 Y134.667 E2.85543
G1 X149.138 Y135.27 E2.87597
G1 X149.186 Y135.946 E2.89854
G1 X149.186 Y144.055 E3.16865
G1 X149.146 Y144.67 E3.18918
G1 X149.027 Y145.274 E3.20969
G1 X148.83 Y145.858 E3.23022
G1 X148.56 Y146.412 E3.25075
G1 X148.22 Y146.926 E3.27128
G1 X147.817 Y147.392 E3.2918
G1 X147.357 Y147.801 E3.3123
G1 X146.847 Y148.148 E3.33285
G1 X146.297 Y148.425 E3.35336
G1 X145.716 Y148.629 E3.37387
G1 X145.113 Y148.757 E3.39441
G1 X144.436 Y148.805 E3.41702
G1 X135.564 Y148.805 E3.71255
G1 X134.949 Y148.765 E3.73307
G1 X134.345 Y148.646 E3.75358
G1 X133.761 Y148.449 E3.77411
G1 X133.207 Y148.179 E3.79464
G1 X132.693 Y147.839 E3.81517
G1 X132.227 Y147.436 E3.83569
G1 X131.818 Y146.976 E3.85619
G1 X131.471 Y146.466 E3.87674
G1 X131.194 Y145.916 E3.89725
G1 X130.99 Y145.335 E3.91777
G1 X130.862 Y144.732 E3.9383
G1 X130.814 Y144.055 E3.96091
G1 X130.814 Y135.945 E4.23105
G1 X130.854 Y135.33 E4.25158
G1 X130.973 Y134.726 E4.27209
G1 X131.17 Y134.142 E4.29262
G1 X131.44 Y133.588 E4.31315
G1 X131.78 Y133.074 E4.33368
G1 X132.183 Y132.608 E4.3542
G0 F2625 X132.276 Y133.252
G1 F900 X132.675 Y132.828 E4.37359
G1 X133.129 Y132.462 E4.39302
G1 X133.628 Y132.162 E4.41241
G1 X134.164 Y131.932 E4.43184
G1 X134.726 Y131.778 E4.45125
G1 X135.564 Y131.695 E4.4793
G1 X144.436 Y131.696 E4.77483
G1 X145.018 Y131.736 E4.79427
G1 X145.588 Y131.855 E4.81366
G1 X146.137 Y132.051 E4.83308
G1 X146.654 Y132.321 E4.85251
G1 X147.129 Y132.658 E4.87191
G1 X147.553 Y133.057 E4.8913
G1 X147.919 Y133.511 E4.91073
G1 X148.22 Y134.01 E4.93014
G1 X148.449 Y134.546 E4.94955
G1 X148.603 Y135.108 E4.96897
G1 X148.686 Y135.946 E4.99702
G1 X148.686 Y144.055 E5.26713
G1 X148.646 Y144.636 E5.28653
G1 X148.527 Y145.207 E5.30596
G1 X148.331 Y145.756 E5.32538
G1 X148.062 Y146.272 E5.34476
G1 X147.724 Y146.748 E5.36421
G1 X147.325 Y147.172 E5.3836
G1 X146.871 Y147.538 E5.40302
G1 X146.372 Y147.838 E5.42242
G1 X145.836 Y148.068 E5.44185
G1 X145.274 Y148.222 E5.46126
G1 X144.436 Y148.305 E5.48931
G1 X135.564 Y148.305 E5.78484
G1 X134.983 Y148.265 E5.80424
G1 X134.412 Y148.146 E5.82367
G1 X133.863 Y147.95 E5.84308
G1 X133.347 Y147.681 E5.86247
G1 X132.871 Y147.343 E5.88191
G1 X132.447 Y146.944 E5.90131
G1 X132.081 Y146.49 E5.92073
G1 X131.781 Y145.991 E5.94013
G1 X131.551 Y145.455 E5.95956
G1 X131.397 Y144.893 E5.97897
G1 X131.314 Y144.055 E6.00702
G1 X131.314 Y135.945 E6.27716
G1 X131.354 Y135.364 E6.29656
G1 X131.473 Y134.793 E6.31599
G1 X131.669 Y134.244 E6.33541
G1 X131.938 Y133.728 E6.35479
G1 X132.276 Y133.252 E6.37424
G0 F2625 X132.771 Y133.443
G1 F900 X133.165 Y133.063 E6.39247
G1 X133.61 Y132.744 E6.41071
G1 X134.097 Y132.494 E6.42895
G1 X134.615 Y132.317 E6.44718
G1 X135.153 Y132.218 E6.4654
G1 X135.564 Y132.195 E6.47912
G1 X144.436 Y132.196 E6.77465
G1 X144.982 Y132.236 E6.79288
G1 X145.517 Y132.355 E6.81114
G1 X146.028 Y132.551 E6.82937
G1 X146.505 Y132.819 E6.84759
G1 X146.938 Y133.153 E6.86581
G1 X147.318 Y133.547 E6.88404
G1 X147.637 Y133.992 E6.90228
G1 X147.887 Y134.479 E6.92052
G1 X148.064 Y134.997 E6.93875
G1 X148.163 Y135.535 E6.95697
G1 X148.186 Y135.946 E6.97068
G1 X148.186 Y144.055 E7.2408
G1 X148.146 Y144.601 E7.25903
G1 X148.027 Y145.135 E7.27726
G1 X147.832 Y145.646 E7.29548
G1 X147.564 Y146.124 E7.31373
G1 X147.229 Y146.557 E7.33197
G1 X146.835 Y146.937 E7.3502
G1 X146.39 Y147.256 E7.36844
G1 X145.903 Y147.506 E7.38667
G1 X145.385 Y147.683 E7.40491
G1 X144.847 Y147.782 E7.42313
G1 X144.436 Y147.805 E7.43684
G1 X135.564 Y147.805 E7.73237
G1 X135.018 Y147.765 E7.75061
G1 X134.484 Y147.646 E7.76883
G1 X133.973 Y147.451 E7.78705
G1 X133.495 Y147.183 E7.80531
G1 X133.062 Y146.848 E7.82354
G1 X132.682 Y146.454 E7.84178
G1 X132.363 Y146.009 E7.86001
G1 X132.113 Y145.522 E7.87825
G1 X131.936 Y145.004 E7.89648
G1 X131.837 Y144.466 E7.9147
G1 X131.814 Y144.055 E7.92842
G1 X131.814 Y135.945 E8.19856
G1 X131.854 Y135.399 E8.2168
G1 X131.973 Y134.865 E8.23502
G1 X132.168 Y134.354 E8.25324
G1 X132.436 Y133.876 E8.2715
G1 X132.771 Y133.443 E8.28973
G0 F2625 X133.264 Y133.649
G1 F900 X133.651 Y133.317 E8.30672
G1 X134.086 Y133.051 E8.3237
G1 X134.556 Y132.855 E8.34067
G1 X135.051 Y132.736 E8.35762
G1 X135.564 Y132.695 E8.37477
G1 X144.436 Y132.696 E8.6703
G1 X144.944 Y132.736 E8.68727
G1 X145.44 Y132.855 E8.70426
G1 X145.911 Y133.05 E8.72124
G1 X146.345 Y133.316 E8.7382
G1 X146.733 Y133.646 E8.75516
G1 X147.064 Y134.034 E8.77215
G1 X147.33 Y134.468 E8.78911
G1 X147.526 Y134.938 E8.80607
G1 X147.645 Y135.434 E8.82306
G1 X147.686 Y135.946 E8.84017
G1 X147.686 Y144.055 E9.11029
G1 X147.646 Y144.563 E9.12726
G1 X147.527 Y145.058 E9.14422
G1 X147.332 Y145.529 E9.1612
G1 X147.066 Y145.964 E9.17818
G1 X146.736 Y146.351 E9.19512
G1 X146.349 Y146.683 E9.21211
G1 X145.914 Y146.949 E9.22909
G1 X145.444 Y147.145 E9.24606
G1 X144.949 Y147.264 E9.26301
G1 X144.436 Y147.305 E9.28016
G1 X135.564 Y147.305 E9.57569
G1 X135.056 Y147.265 E9.59266
G1 X134.561 Y147.146 E9.60962
G1 X134.09 Y146.951 E9.6266
G1 X133.655 Y146.685 E9.64358
G1 X133.268 Y146.355 E9.66053
G1 X132.936 Y145.968 E9.67751
G1 X132.67 Y145.533 E9.69449
G1 X132.474 Y145.063 E9.71146
G1 X132.355 Y144.568 E9.72842
G1 X132.314 Y144.055 E9.74556
G1 X132.314 Y135.945 E10.01571
G1 X132.354 Y135.437 E10.03268
G1 X132.473 Y134.942 E10.04964
G1 X132.668 Y134.471 E10.06662
G1 X132.934 Y134.036 E10.0836
G1 X133.264 Y133.649 E10.10054
G1 F600 E8.35054
;MESH:
G0 F2625 X136.319 Y135.271
G0 X136.319 Y136.7
G0 X143.625 Y143.244
G0 X143.695 Y143.314
;TYPE:WALL-INNER
G1 F600 E10.10054
G1 F900 X136.305 Y143.314 E10.34671
G1 X136.305 Y136.686 E10.56749
G1 X143.695 Y136.686 E10.81365
G1 X143.695 Y143.314 E11.03443
G0 F2625 X144.195 Y143.814
;TYPE:WALL-OUTER
G1 F900 X135.805 Y143.814 E11.31391
G1 X135.805 Y136.186 E11.568
G1 X144.195 Y136.186 E11.84747
G1 X144.195 Y143.814 E12.10156
G0 F2625 X143.945 Y143.814
G0 X143.625 Y143.244
G0 X143.205 Y142.824
;TYPE:SKIN
G1 F900 X136.795 Y142.824 E12.31508
G1 X136.795 Y137.176 E12.50322
G1 X143.205 Y137.176 E12.71674
G1 X143.205 Y142.824 E12.90488
G0 F2625 X142.979 Y138.029
G1 F900 X142.351 Y137.401 E12.93446
G0 F2625 X141.644 Y137.401
G1 F900 X142.979 Y138.736 E12.99735
G0 F2625 X142.979 Y139.443
G1 F900 X140.936 Y137.401 E13.09357
G0 F2625 X140.229 Y137.401
G1 F900 X142.979 Y140.15 E13.22309
G0 F2625 X142.979 Y140.857
G1 F900 X139.522 Y137.4 E13.38594
G0 F2625 X138.814 Y137.4
G1 F900 X142.979 Y141.564 E13.58212
G0 F2625 X142.979 Y142.272
G1 F900 X138.107 Y137.4 E13.81163
G0 F2625 X137.4 Y137.4
G1 F900 X142.597 Y142.597 E14.05646
G0 F2625 X141.89 Y142.597
G1 F900 X137.019 Y137.726 E14.28592
G0 F2625 X137.019 Y138.433
G1 F900 X141.183 Y142.597 E14.48208
G0 F2625 X140.476 Y142.597
M104 S205
G1 F900 X137.019 Y139.14 E14.64493
G0 F2625 X137.019 Y139.848
G1 F900 X139.769 Y142.597 E14.77445
G0 F2625 X139.062 Y142.597
G1 F900 X137.019 Y140.555 E14.87067
G0 F2625 X137.019 Y141.262
G1 F900 X138.355 Y142.597 E14.93358
G0 F2625 X137.648 Y142.597
G1 F900 X137.019 Y141.969 E14.96319
;MESH:NONMESH
G0 F2625 X143.625 Y143.244
G0 X143.695 Y143.314
;TIME_ELAPSED:45.489892
;LAYER:1
M140 S60
M221 S100 T0
M106 S36.4
;MESH:
G0 F6562.5 X143.695 Y143.314 Z0.675
;TYPE:WALL-INNER
G1 F654.5 X136.305 Y143.314 E15.10799
G1 X136.305 Y136.686 E15.23786
G1 X143.695 Y136.686 E15.38266
G1 X143.695 Y143.314 E15.51254
G0 F6562.5 X144.195 Y143.814
;TYPE:WALL-OUTER
G1 F600 X135.805 Y143.814 E15.67693
G1 X135.805 Y136.186 E15.8264
G1 X144.195 Y136.186 E15.99079
G1 X144.195 Y143.814 E16.14026
G0 F6562.5 X143.945 Y143.814
G0 X143.625 Y143.244
G0 X143.205 Y142.824
;TYPE:SKIN
G1 F600 X136.795 Y142.824 E16.26586
G1 X136.795 Y137.176 E16.37653
G1 X143.205 Y137.176 E16.50213
G1 X143.205 Y142.824 E16.6128
G0 F6562.5 X142.365 Y142.598
G1 F600 X142.979 Y141.984 E16.62981
G0 F6562.5 X142.979 Y141.277
G1 F600 X141.658 Y142.598 E16.66642
G0 F6562.5 X140.951 Y142.598
G1 F600 X142.979 Y140.57 E16.72261
G0 F6562.5 X142.979 Y139.863
G1 F600 X140.244 Y142.598 E16.7984
G0 F6562.5 X139.536 Y142.598
G1 F600 X142.979 Y139.156 E16.8938
G0 F6562.5 X142.979 Y138.449
G1 F600 X138.829 Y142.598 E17.00878
G0 F6562.5 X138.122 Y142.598
G1 F600 X142.979 Y137.742 E17.14336
G0 F6562.5 X142.613 Y137.4
G1 F600 X137.415 Y142.598 E17.2874
G0 F6562.5 X137.02 Y142.286
G1 F600 X141.906 Y137.4 E17.42279
G0 F6562.5 X141.199 Y137.4
G1 F600 X137.02 Y141.579 E17.53859
G0 F6562.5 X137.02 Y140.872
G1 F600 X140.492 Y137.4 E17.6348
G0 F6562.5 X139.785 Y137.4
G1 F600 X137.02 Y140.165 E17.71142
G0 F6562.5 X137.02 Y139.458
G1 F600 X139.078 Y137.4 E17.76845
G0 F6562.5 X138.371 Y137.4
G1 F600 X137.02 Y138.751 E17.80589
G0 F6562.5 X137.02 Y138.044
G1 F600 X137.664 Y137.4 E17.82373
;MESH:NONMESH
G0 F6562.5 X143.625 Y143.244
G0 X143.695 Y143.314
;TIME_ELAPSED:61.303118
;LAYER:2
M106 S72.9
;MESH:
G0 F10500 X143.695 Y143.314 Z0.925
;TYPE:WALL-INNER
G1 F675 X136.305 Y143.314 E17.96854
G1 X136.305 Y136.686 E18.09841
G1 X143.695 Y136.686 E18.24321
G1 X143.695 Y143.314 E18.37308
G0 F10500 X144.195 Y143.814
;TYPE:WALL-OUTER
G1 F600 X135.805 Y143.814 E18.53748
G1 X135.805 Y136.186 E18.68694
G1 X144.195 Y136.186 E18.85134
G1 X144.195 Y143.814 E19.00081
G0 F10500 X143.945 Y143.814
G0 X143.625 Y143.244
G0 X143.205 Y142.824
;TYPE:SKIN
G1 F600 X136.795 Y142.824 E19.1264
G1 X136.795 Y137.176 E19.23707
G1 X143.205 Y137.176 E19.36267
G1 X143.205 Y142.824 E19.47334
G0 F10500 X142.979 Y138.029
G1 F600 X142.351 Y137.401 E19.49074
G0 F10500 X141.644 Y137.401
G1 F600 X142.979 Y138.736 E19.52774
G0 F10500 X142.979 Y139.443
G1 F600 X140.936 Y137.401 E19.58434
G0 F10500 X140.229 Y137.401
G1 F600 X142.979 Y140.15 E19.66053
G0 F10500 X142.979 Y140.857
G1 F600 X139.522 Y137.4 E19.75632
G0 F10500 X138.814 Y137.4
G1 F600 X142.979 Y141.564 E19.87172
G0 F10500 X142.979 Y142.272
G1 F600 X138.107 Y137.4 E20.00673
G0 F10500 X137.4 Y137.4
G1 F600 X142.597 Y142.597 E20.15074
G0 F10500 X141.89 Y142.597
G1 F600 X137.019 Y137.726 E20.28572
G0 F10500 X137.019 Y138.433
G1 F600 X141.183 Y142.597 E20.40111
G0 F10500 X140.476 Y142.597
G1 F600 X137.019 Y139.14 E20.4969
G0 F10500 X137.019 Y139.848
G1 F600 X139.769 Y142.597 E20.57309
G0 F10500 X139.062 Y142.597
G1 F600 X137.019 Y140.555 E20.62969
G0 F10500 X137.019 Y141.262
G1 F600 X138.355 Y142.597 E20.6667
G0 F10500 X137.648 Y142.597
G1 F600 X137.019 Y141.969 E20.68411
;MESH:NONMESH
G0 F10500 X143.625 Y143.244
G0 X143.695 Y143.314
;TIME_ELAPSED:77.184079
;LAYER:3
M106 S109.3
;MESH:
G0 X143.695 Y143.314 Z1.175
;TYPE:WALL-INNER
G1 F675 X136.305 Y143.314 E20.82892
G1 X136.305 Y136.686 E20.95879
G1 X143.695 Y136.686 E21.10359
G1 X143.695 Y143.314 E21.23346
G0 F10500 X144.195 Y143.814
;TYPE:WALL-OUTER
G1 F600 X135.805 Y143.814 E21.39786
G1 X135.805 Y136.186 E21.54732
G1 X144.195 Y136.186 E21.71172
G1 X144.195 Y143.814 E21.86118
G0 F10500 X143.945 Y143.814
G0 X143.625 Y143.244
G0 X143.205 Y142.824
;TYPE:SKIN
G1 F600 X136.795 Y142.824 E21.98678
G1 X136.795 Y137.176 E22.09745
G1 X143.205 Y137.176 E22.22305
G1 X143.205 Y142.824 E22.33372
G0 F10500 X142.365 Y142.598
G1 F600 X142.979 Y141.984 E22.35074
G0 F10500 X142.979 Y141.277
G1 F600 X141.658 Y142.598 E22.38734
G0 F10500 X140.951 Y142.598
G1 F600 X142.979 Y140.57 E22.44354
G0 F10500 X142.979 Y139.863
G1 F600 X140.244 Y142.598 E22.51933
G0 F10500 X139.536 Y142.598
G1 F600 X142.979 Y139.156 E22.61472
G0 F10500 X142.979 Y138.449
G1 F600 X138.829 Y142.598 E22.72971
G0 F10500 X138.122 Y142.598
G1 F600 X142.979 Y137.742 E22.86428
