;Generated by Cura LulzBot Edition GCodeWriter Version: 3.6.18
;FLAVOR:Marlin
;TIME:3067
;Filament used: 0.826974m
;Layer height: 0.25
;Generated with Cura_SteamEngine 3.6.18
M82 ;absolute extrusion mode
;This G-Code has been generated specifically for the LulzBot TAZ 6 with standard extruder
M73 P0 ; clear GLCD progress bar
M75 ; start GLCD timer
G26 ; clear potential 'probe fail' condition
M107 ; disable fans
M420 S0 ; disable previous leveling matrix
G90 ; absolute positioning
M82 ; set extruder to absolute mode
G92 E0 ; set extruder position to 0
M140 S60.0 ; start bed heating up
M109 R140 ; soften filament before homing Z
G28 ; Home all axis
G1 E-30 F100 ; retract filament
M109 R140 ; wait for extruder to reach wiping temp
G1 X-15 Y100 F3000 ; move above wiper pad
G1 Z1 ; push nozzle into wiper
G1 X-17 Y95 F1000 ; slow wipe
G1 X-17 Y90 F1000 ; slow wipe
G1 X-17 Y85 F1000 ; slow wipe
G1 X-15 Y90 F1000 ; slow wipe
G1 X-17 Y80 F1000 ; slow wipe
G1 X-15 Y95 F1000 ; slow wipe
G1 X-17 Y75 F2000 ; fast wipe
G1 X-15 Y65 F2000 ; fast wipe
G1 X-17 Y70 F2000 ; fast wipe
G1 X-15 Y60 F2000 ; fast wipe
G1 X-17 Y55 F2000 ; fast wipe
G1 X-15 Y50 F2000 ; fast wipe
G1 X-17 Y40 F2000 ; fast wipe
G1 X-15 Y45 F2000 ; fast wipe
G1 X-17 Y35 F2000 ; fast wipe
G1 X-15 Y40 F2000 ; fast wipe
G1 X-17 Y70 F2000 ; fast wipe
G1 X-15 Y30 Z2 F2000 ; fast wipe
G1 X-17 Y35 F2000 ; fast wipe
G1 X-15 Y25 F2000 ; fast wipe
G1 X-17 Y30 F2000 ; fast wipe
G1 X-15 Y25 Z1.5 F1000 ; slow wipe
G1 X-17 Y23 F1000 ; slow wipe
G1 Z10 ; raise extruder
M109 R140 ; wait for extruder to reach probe temp
G1 X-9 Y-9 ; move above first probe point
M204 S100 ; set probing acceleration
G29 ; start auto-leveling sequence
M420 S1 ; activate bed level matrix
M425 Z			     ; use measured Z backlash for compensation
M425 Z F0		     ; turn off measured Z backlash compensation. (if activated in the quality settings, this command will automatically be ignored)
M204 S500 ; restore standard acceleration
G1 X0 Y0 Z15 F5000 ; move up off last probe point
G4 S1 ; pause
M400 ; wait for moves to finish
M117 Heating... ; progress indicator message on LCD
M109 R210 ; wait for extruder to reach printing temp
M190 R60.0 ; wait for bed to reach printing temp
G1 Z2 E0 F75 ; prime tiny bit of filament into the nozzle
M117 TAZ 6 Printing... ; progress indicator message on LCD

M221 S100 T0
G92 E0
G1 F600 E-1.75
;LAYER_COUNT:71
;LAYER:0
M107
G0 F2625 X118.76 Y117.456 Z0.425
;TYPE:SKIRT
G1 F600 E0
G1 F900 X119.152 Y117.074 E0.01823
G1 X119.596 Y116.754 E0.03646
G1 X120.081 Y116.501 E0.05468
G1 X120.598 Y116.322 E0.07291
G1 X121.136 Y116.22 E0.09115
G1 X121.565 Y116.195 E0.10546
G1 X144.441 Y116.197 E0.86747
G1 X144.987 Y116.237 E0.88571
G1 X145.521 Y116.356 E0.90393
G1 X146.033 Y116.552 E0.92219
G1 X146.51 Y116.819 E0.9404
G1 X146.943 Y117.154 E0.95864
G1 X147.463 Y117.727 E0.98441
G1 X149.761 Y120.856 E1.11373
G1 X153.198 Y125.104 E1.29575
G1 X156.847 Y129.128 E1.47669
G1 X161.062 Y133.264 E1.6734
G1 X161.423 Y133.675 E1.69162
G1 X161.721 Y134.134 E1.70985
G1 X161.949 Y134.632 E1.7281
G1 X162.102 Y135.158 E1.74634
G1 X162.185 Y135.936 E1.77241
G1 X162.195 Y143.333 E2.0188
G1 X162.194 Y143.425 E2.02187
G1 X162.121 Y146.56 E2.12632
G1 X162.185 Y160.037 E2.57525
G1 X162.148 Y160.583 E2.59348
G1 X162.031 Y161.118 E2.61173
G1 X161.838 Y161.63 E2.62995
G1 X161.572 Y162.109 E2.6482
G1 X161.24 Y162.544 E2.66643
G1 X160.848 Y162.926 E2.68466
G1 X160.404 Y163.246 E2.70289
G1 X159.919 Y163.499 E2.72111
G1 X159.402 Y163.678 E2.73934
G1 X158.864 Y163.78 E2.75758
G1 X158.435 Y163.805 E2.77189
G1 X121.564 Y163.805 E4.00008
G1 X121.018 Y163.765 E4.01832
G1 X120.484 Y163.646 E4.03654
G1 X119.973 Y163.451 E4.05476
G1 X119.495 Y163.183 E4.07301
G1 X119.062 Y162.848 E4.09125
G1 X118.682 Y162.454 E4.10948
G1 X118.363 Y162.009 E4.12772
G1 X118.113 Y161.522 E4.14596
G1 X117.936 Y161.004 E4.16419
G1 X117.837 Y160.466 E4.18241
G1 X117.814 Y160.06 E4.19596
G1 X117.805 Y152.648 E4.44286
G1 X117.806 Y152.555 E4.44595
G1 X117.879 Y149.441 E4.54971
G1 X117.805 Y136.665 E4.97529
G1 X117.806 Y136.555 E4.97895
G1 X117.879 Y133.438 E5.08281
G1 X117.815 Y119.963 E5.53167
G1 X117.852 Y119.417 E5.5499
G1 X117.969 Y118.882 E5.56815
G1 X118.162 Y118.37 E5.58637
G1 X118.428 Y117.891 E5.60462
G1 X118.76 Y117.456 E5.62285
G0 F2625 X119.254 Y117.659
G1 F900 X119.64 Y117.326 E5.63983
G1 X120.073 Y117.058 E5.65679
G1 X120.542 Y116.86 E5.67375
G1 X121.037 Y116.738 E5.69073
G1 X121.565 Y116.695 E5.70838
G1 X144.441 Y116.697 E6.47039
G1 X144.949 Y116.737 E6.48736
G1 X145.445 Y116.856 E6.50435
G1 X145.915 Y117.051 E6.5213
G1 X146.35 Y117.317 E6.53829
G1 X146.738 Y117.647 E6.55525
G1 X147.06 Y118.023 E6.57174
G1 X149.362 Y121.157 E6.70127
G1 X152.827 Y125.44 E6.88478
G1 X156.487 Y129.476 E7.06627
G1 X160.711 Y133.621 E7.2634
G1 X161.046 Y134.006 E7.2804
G1 X161.316 Y134.437 E7.29735
G1 X161.516 Y134.906 E7.31433
G1 X161.64 Y135.4 E7.33129
G1 X161.685 Y135.937 E7.34925
G1 X161.695 Y143.334 E7.59564
G1 X161.694 Y143.413 E7.59827
G1 X161.621 Y146.551 E7.70283
G1 X161.685 Y160.04 E8.15216
G1 X161.647 Y160.548 E8.16913
G1 X161.531 Y161.044 E8.1861
G1 X161.338 Y161.515 E8.20305
G1 X161.074 Y161.951 E8.22003
G1 X160.746 Y162.341 E8.237
G1 X160.36 Y162.674 E8.25398
G1 X159.927 Y162.942 E8.27095
G1 X159.458 Y163.14 E8.2879
G1 X158.963 Y163.262 E8.30489
G1 X158.435 Y163.305 E8.32253
G1 X121.564 Y163.305 E9.55072
G1 X121.056 Y163.265 E9.56769
G1 X120.561 Y163.146 E9.58465
G1 X120.09 Y162.951 E9.60163
G1 X119.655 Y162.685 E9.61862
G1 X119.268 Y162.355 E9.63556
G1 X118.936 Y161.968 E9.65254
G1 X118.67 Y161.533 E9.66953
G1 X118.474 Y161.063 E9.68649
G1 X118.355 Y160.568 E9.70345
G1 X118.314 Y160.059 E9.72046
G1 X118.305 Y152.647 E9.96736
G1 X118.306 Y152.567 E9.97002
G1 X118.379 Y149.45 E10.07388
G1 X118.305 Y136.662 E10.49986
G1 X118.306 Y136.567 E10.50302
G1 X118.379 Y133.448 E10.60695
G1 X118.315 Y119.96 E11.05624
G1 X118.353 Y119.452 E11.07321
G1 X118.469 Y118.956 E11.09018
G1 X118.662 Y118.485 E11.10713
G1 X118.926 Y118.049 E11.12411
G1 X119.254 Y117.659 E11.14109
G1 F600 E9.39109
;MESH:
G0 F2625 X120.89 Y120.7
G0 X122.319 Y120.7
G0 X129.625 Y127.244
G0 X129.695 Y127.314
;TYPE:WALL-INNER
G1 F600 E11.14109
G1 F900 X122.305 Y127.314 E11.38725
G1 X122.305 Y120.686 E11.60803
G1 X129.695 Y120.686 E11.85419
G1 X129.695 Y127.314 E12.07497
G0 F2625 X130.195 Y127.814
;TYPE:WALL-OUTER
G1 F900 X121.805 Y127.814 E12.35445
G1 X121.805 Y120.186 E12.60854
G1 X130.195 Y120.186 E12.88801
G1 X130.195 Y127.814 E13.14211
G0 F2625 X129.945 Y127.814
G0 X129.625 Y127.244
G0 X129.205 Y126.824
;TYPE:SKIN
G1 F900 X122.795 Y126.824 E13.35562
G1 X122.795 Y121.176 E13.54376
G1 X129.205 Y121.176 E13.75728
G1 X129.205 Y126.824 E13.94542
G0 F2625 X128.979 Y121.908
G1 F900 X128.472 Y121.401 E13.9693
G0 F2625 X127.765 Y121.401
G1 F900 X128.979 Y122.615 E14.02649
G0 F2625 X128.979 Y123.322
G1 F900 X127.057 Y121.401 E14.11701
G0 F2625 X126.35 Y121.401
G1 F900 X128.979 Y124.03 E14.24086
G0 F2625 X128.979 Y124.737
G1 F900 X125.643 Y121.401 E14.39801
G0 F2625 X124.936 Y121.401
G1 F900 X128.979 Y125.444 E14.58847
G0 F2625 X128.979 Y126.151
G1 F900 X124.229 Y121.401 E14.81223
G0 F2625 X123.522 Y121.401
G1 F900 X128.719 Y126.598 E15.05705
G0 F2625 X128.012 Y126.598
G1 F900 X123.018 Y121.604 E15.29231
G0 F2625 X123.018 Y122.311
G1 F900 X127.305 Y126.598 E15.49426
G0 F2625 X126.598 Y126.598
G1 F900 X123.018 Y123.018 E15.6629
G0 F2625 X123.018 Y123.726
G1 F900 X125.891 Y126.598 E15.79822
G0 F2625 X125.184 Y126.598
G1 F900 X123.019 Y124.433 E15.90021
G0 F2625 X123.019 Y125.14
G1 F900 X124.476 Y126.598 E15.96887
G0 F2625 X123.769 Y126.598
G1 F900 X123.019 Y125.848 E16.0042
G1 X122.931 Y125.76
G1 F600 E14.2542
G0 F2625 X129.675 Y127.244
G0 X131.11 Y127.244
G0 X134.89 Y127.244
G0 X136.325 Y127.244
G0 X143.625 Y127.244
G0 X143.695 Y127.314
;TYPE:WALL-INNER
G1 F600 E16.0042
G1 F900 X136.305 Y127.314 E16.25036
G1 X136.305 Y120.686 E16.47115
G1 X143.695 Y120.686 E16.71731
G1 X143.695 Y127.314 E16.93809
G0 F2625 X144.195 Y127.814
;TYPE:WALL-OUTER
G1 F900 X135.805 Y127.814 E17.21756
G1 X135.805 Y120.186 E17.47166
G1 X144.195 Y120.186 E17.75113
G1 X144.195 Y127.814 E18.00522
G0 F2625 X143.945 Y127.814
G0 X143.625 Y127.244
G0 X143.205 Y126.824
;TYPE:SKIN
G1 F900 X136.795 Y126.824 E18.21874
G1 X136.795 Y121.176 E18.40688
G1 X143.205 Y121.176 E18.6204
G1 X143.205 Y126.824 E18.80853
G0 F2625 X142.979 Y121.766
G1 F900 X142.614 Y121.401 E18.82573
G0 F2625 X141.907 Y121.401
G1 F900 X142.979 Y122.473 E18.87623
G0 F2625 X142.979 Y123.18
G1 F900 X141.2 Y121.401 E18.96003
G0 F2625 X140.492 Y121.401
G1 F900 X142.979 Y123.887 E19.07717
G0 F2625 X142.979 Y124.595
G1 F900 X139.785 Y121.401 E19.22763
G0 F2625 X139.078 Y121.401
G1 F900 X142.979 Y125.302 E19.4114
G0 F2625 X142.979 Y126.009
G1 F900 X138.371 Y121.401 E19.62847
G0 F2625 X137.664 Y121.401
G1 F900 X142.862 Y126.598 E19.87331
G0 F2625 X142.155 Y126.598
G1 F900 X137.018 Y121.462 E20.11528
G0 F2625 X137.018 Y122.169
G1 F900 X141.448 Y126.598 E20.32395
G0 F2625 X140.741 Y126.598
G1 F900 X137.018 Y122.876 E20.49931
G0 F2625 X137.018 Y123.583
G1 F900 X140.034 Y126.598 E20.64136
G0 F2625 X139.326 Y126.598
G1 F900 X137.018 Y124.29 E20.75009
G0 F2625 X137.018 Y124.998
G1 F900 X138.619 Y126.598 E20.82548
G0 F2625 X137.912 Y126.598
G1 F900 X137.018 Y125.705 E20.86758
G0 F2625 X137.018 Y126.412
G1 F900 X137.205 Y126.598 E20.87636
G1 F600 E19.12636
G0 F2625 X143.625 Y127.294
G0 X143.625 Y128.729
G0 X143.625 Y135.271
G0 X143.625 Y136.706
G0 X143.625 Y143.244
G0 X143.695 Y143.314
;TYPE:WALL-INNER
G1 F600 E20.87636
G1 F900 X136.305 Y143.314 E21.12252
G1 X136.305 Y136.686 E21.34331
G1 X143.695 Y136.686 E21.58947
G1 X143.695 Y143.314 E21.81025
G0 F2625 X144.195 Y143.814
;TYPE:WALL-OUTER
G1 F900 X135.805 Y143.814 E22.08972
G1 X135.805 Y136.186 E22.34382
G1 X144.195 Y136.186 E22.62329
G1 X144.195 Y143.814 E22.87738
G0 F2625 X143.945 Y143.814
G0 X143.625 Y143.244
G0 X143.205 Y142.824
;TYPE:SKIN
G1 F900 X136.795 Y142.824 E23.0909
G1 X136.795 Y137.176 E23.27904
G1 X143.205 Y137.176 E23.49256
G1 X143.205 Y142.824 E23.68069
G0 F2625 X142.979 Y138.029
G1 F900 X142.351 Y137.401 E23.71028
G0 F2625 X141.644 Y137.401
G1 F900 X142.979 Y138.736 E23.77317
G0 F2625 X142.979 Y139.443
G1 F900 X140.936 Y137.401 E23.86938
G0 F2625 X140.229 Y137.401
G1 F900 X142.979 Y140.15 E23.99891
G0 F2625 X142.979 Y140.857
G1 F900 X139.522 Y137.4 E24.16176
G0 F2625 X138.814 Y137.4
G1 F900 X142.979 Y141.564 E24.35794
G0 F2625 X142.979 Y142.272
G1 F900 X138.107 Y137.4 E24.58745
G0 F2625 X137.4 Y137.4
G1 F900 X142.597 Y142.597 E24.83227
G0 F2625 X141.89 Y142.597
G1 F900 X137.019 Y137.726 E25.06173
G0 F2625 X137.019 Y138.433
G1 F900 X141.183 Y142.597 E25.25789
G0 F2625 X140.476 Y142.597
G1 F900 X137.019 Y139.14 E25.42074
G0 F2625 X137.019 Y139.848
G1 F900 X139.769 Y142.597 E25.55027
G0 F2625 X139.062 Y142.597
G1 F900 X137.019 Y140.555 E25.64649
G0 F2625 X137.019 Y141.262
G1 F900 X138.355 Y142.597 E25.7094
G0 F2625 X137.648 Y142.597
G1 F900 X137.019 Y141.969 E25.73901
G1 F600 E23.98901
G0 F2625 X136.325 Y143.244
G0 X134.89 Y143.244
G0 X131.11 Y143.244
G0 X129.675 Y143.244
G0 X129.625 Y143.244
G0 X129.695 Y143.314
;TYPE:WALL-INNER
G1 F600 E25.73901
G1 F900 X122.305 Y143.314 E25.98517
G1 X122.305 Y136.686 E26.20595
G1 X129.695 Y136.686 E26.45211
G1 X129.695 Y143.314 E26.67289
G0 F2625 X130.195 Y143.814
;TYPE:WALL-OUTER
G1 F900 X121.805 Y143.814 E26.95237
G1 X121.805 Y136.186 E27.20646
G1 X130.195 Y136.186 E27.48593
G1 X130.195 Y143.814 E27.74003
G0 F2625 X129.945 Y143.814
G0 X129.625 Y143.244
G0 X129.205 Y142.824
;TYPE:SKIN
G1 F900 X122.795 Y142.824 E27.95354
G1 X122.795 Y137.176 E28.14168
G1 X129.205 Y137.176 E28.3552
G1 X129.205 Y142.824 E28.54334
G0 F2625 X128.979 Y138.172
G1 F900 X128.207 Y137.4 E28.57971
G0 F2625 X127.5 Y137.4
G1 F900 X128.979 Y138.879 E28.64938
G0 F2625 X128.979 Y139.586
G1 F900 X126.793 Y137.4 E28.75236
G0 F2625 X126.086 Y137.4
G1 F900 X128.979 Y140.293 E28.88864
G0 F2625 X128.979 Y141
G1 F900 X125.379 Y137.4 E29.05823
G0 F2625 X124.672 Y137.4
G1 F900 X128.979 Y141.707 E29.26112
G0 F2625 X128.979 Y142.414
G1 F900 X123.965 Y137.4 E29.49732
G0 F2625 X123.257 Y137.4
G1 F900 X128.455 Y142.597 E29.74217
G0 F2625 X127.748 Y142.597
G1 F900 X123.019 Y137.868 E29.96494
G0 F2625 X123.019 Y138.575
G1 F900 X127.041 Y142.597 E30.15441
G0 F2625 X126.334 Y142.597
G1 F900 X123.019 Y139.283 E30.31055
G0 F2625 X123.019 Y139.99
G1 F900 X125.627 Y142.597 E30.43338
G0 F2625 X124.92 Y142.597
G1 F900 X123.019 Y140.697 E30.52291
G0 F2625 X123.019 Y141.404
G1 F900 X124.213 Y142.597 E30.57913
G0 F2625 X123.506 Y142.597
G1 F900 X123.019 Y142.111 E30.60205
G1 F600 E28.85205
G0 F2625 X129.625 Y143.294
G0 X129.625 Y144.729
G0 X129.625 Y151.271
G0 X129.625 Y152.706
G0 X129.625 Y159.244
G0 X129.695 Y159.314
;TYPE:WALL-INNER
G1 F600 E30.60205
G1 F900 X122.305 Y159.314 E30.84821
G1 X122.305 Y152.686 E31.06899
G1 X129.695 Y152.686 E31.31516
G1 X129.695 Y159.314 E31.53594
G0 F2625 X130.195 Y159.814
;TYPE:WALL-OUTER
G1 F900 X121.805 Y159.814 E31.81541
G1 X121.805 Y152.186 E32.0695
G1 X130.195 Y152.186 E32.34898
G1 X130.195 Y159.814 E32.60307
G0 F2625 X129.945 Y159.814
G0 X129.625 Y159.244
G0 X129.205 Y158.824
;TYPE:SKIN
G1 F900 X122.795 Y158.824 E32.81659
G1 X122.795 Y153.176 E33.00473
G1 X129.205 Y153.176 E33.21825
G1 X129.205 Y158.824 E33.40638
G0 F2625 X128.98 Y153.729
G1 F900 X128.651 Y153.4 E33.42188
G0 F2625 X127.944 Y153.4
G1 F900 X128.98 Y154.436 E33.47069
G0 F2625 X128.98 Y155.143
G1 F900 X127.237 Y153.4 E33.55279
G0 F2625 X126.53 Y153.4
G1 F900 X128.98 Y155.85 E33.66821
G0 F2625 X128.98 Y156.557
G1 F900 X125.823 Y153.4 E33.81693
G0 F2625 X125.116 Y153.4
G1 F900 X128.98 Y157.264 E33.99895
G0 F2625 X128.98 Y157.971
G1 F900 X124.409 Y153.4 E34.21428
G0 F2625 X123.701 Y153.4
G1 F900 X128.899 Y158.598 E34.45915
G0 F2625 X128.192 Y158.598
G1 F900 X123.019 Y153.425 E34.70284
G0 F2625 X123.019 Y154.132
G1 F900 X127.485 Y158.598 E34.91323
G0 F2625 X126.778 Y158.598
G1 F900 X123.019 Y154.839 E35.0903
G0 F2625 X123.019 Y155.546
G1 F900 X126.071 Y158.598 E35.23408
G0 F2625 X125.364 Y158.598
G1 F900 X123.019 Y156.253 E35.34455
G0 F2625 X123.019 Y156.96
G1 F900 X124.657 Y158.598 E35.42171
G0 F2625 X123.95 Y158.598
G1 F900 X123.019 Y157.667 E35.46557
G0 F2625 X123.019 Y158.374
G1 F900 X123.243 Y158.598 E35.47612
G1 F600 E33.72612
G0 F2625 X129.675 Y159.244
G0 X131.11 Y159.244
G0 X134.89 Y159.244
G0 X136.325 Y159.244
G0 X143.625 Y159.244
G0 X143.695 Y159.314
;TYPE:WALL-INNER
G1 F600 E35.47612
G1 F900 X136.305 Y159.314 E35.72228
G1 X136.305 Y152.686 E35.94306
G1 X143.695 Y152.686 E36.18923
G1 X143.695 Y159.314 E36.41001
G0 F2625 X144.195 Y159.814
;TYPE:WALL-OUTER
G1 F900 X135.805 Y159.814 E36.68948
G1 X135.805 Y152.186 E36.94357
G1 X144.195 Y152.186 E37.22305
G1 X144.195 Y159.814 E37.47714
G0 F2625 X143.945 Y159.814
G0 X143.625 Y159.244
G0 X143.205 Y158.824
;TYPE:SKIN
G1 F900 X136.795 Y158.824 E37.69066
G1 X136.795 Y153.176 E37.87879
G1 X143.205 Y153.176 E38.09231
G1 X143.205 Y158.824 E38.28045
G0 F2625 X142.98 Y153.587
G1 F900 X142.793 Y153.4 E38.28926
G0 F2625 X142.086 Y153.4
G1 F900 X142.98 Y154.294 E38.33137
G0 F2625 X142.98 Y155.001
G1 F900 X141.379 Y153.4 E38.40679
G0 F2625 X140.672 Y153.4
G1 F900 X142.98 Y155.708 E38.51552
G0 F2625 X142.98 Y156.415
G1 F900 X139.965 Y153.4 E38.65755
G0 F2625 X139.258 Y153.4
G1 F900 X142.98 Y157.122 E38.83289
G0 F2625 X142.98 Y157.829
G1 F900 X138.551 Y153.4 E39.04153
G0 F2625 X137.844 Y153.4
G1 F900 X142.98 Y158.536 E39.28347
G0 F2625 X142.334 Y158.598
G1 F900 X137.136 Y153.4 E39.52834
G0 F2625 X137.019 Y153.99
G1 F900 X141.627 Y158.598 E39.74541
G0 F2625 X140.92 Y158.598
G1 F900 X137.019 Y154.697 E39.92918
G0 F2625 X137.019 Y155.404
G1 F900 X140.213 Y158.598 E40.07965
G0 F2625 X139.506 Y158.598
G1 F900 X137.019 Y156.111 E40.1968
G0 F2625 X137.019 Y156.818
G1 F900 X138.799 Y158.598 E40.28066
G0 F2625 X138.092 Y158.598
G1 F900 X137.019 Y157.525 E40.3312
G0 F2625 X137.019 Y158.232
G1 F900 X137.385 Y158.598 E40.34844
G1 F600 E38.59844
G0 F2625 X143.675 Y159.244
