;Generated by Cura LulzBot Edition GCodeWriter Version: 3.6.18
;FLAVOR:Marlin
;TIME:2353
;Filament used: 0.956781m
;Layer height: 0.25
;Generated with Cura_SteamEngine 3.6.18
M82 ;absolute extrusion mode
;This G-Code has been generated specifically for the LulzBot TAZ 6 with standard extruder
M73 P0 ; clear GLCD progress bar
M75 ; start GLCD timer
G26 ; clear potential 'probe fail' condition
M107 ; disable fans
M420 S0 ; disable previous leveling matrix
G90 ; absolute positioning
M82 ; set extruder to absolute mode
G92 E0 ; set extruder position to 0
M140 S60.0 ; start bed heating up
M109 R140 ; soften filament before homing Z
G28 ; Home all axis
G1 E-30 F100 ; retract filament
M109 R140 ; wait for extruder to reach wiping temp
G1 X-15 Y100 F3000 ; move above wiper pad
G1 Z1 ; push nozzle into wiper
G1 X-17 Y95 F1000 ; slow wipe
G1 X-17 Y90 F1000 ; slow wipe
G1 X-17 Y85 F1000 ; slow wipe
G1 X-15 Y90 F1000 ; slow wipe
G1 X-17 Y80 F1000 ; slow wipe
G1 X-15 Y95 F1000 ; slow wipe
G1 X-17 Y75 F2000 ; fast wipe
G1 X-15 Y65 F2000 ; fast wipe
G1 X-17 Y70 F2000 ; fast wipe
G1 X-15 Y60 F2000 ; fast wipe
G1 X-17 Y55 F2000 ; fast wipe
G1 X-15 Y50 F2000 ; fast wipe
G1 X-17 Y40 F2000 ; fast wipe
G1 X-15 Y45 F2000 ; fast wipe
G1 X-17 Y35 F2000 ; fast wipe
G1 X-15 Y40 F2000 ; fast wipe
G1 X-17 Y70 F2000 ; fast wipe
G1 X-15 Y30 Z2 F2000 ; fast wipe
G1 X-17 Y35 F2000 ; fast wipe
G1 X-15 Y25 F2000 ; fast wipe
G1 X-17 Y30 F2000 ; fast wipe
G1 X-15 Y25 Z1.5 F1000 ; slow wipe
G1 X-17 Y23 F1000 ; slow wipe
G1 Z10 ; raise extruder
M109 R140 ; wait for extruder to reach probe temp
G1 X-9 Y-9 ; move above first probe point
M204 S100 ; set probing acceleration
G29 ; start auto-leveling sequence
M420 S1 ; activate bed level matrix
M425 Z			     ; use measured Z backlash for compensation
M425 Z F0		     ; turn off measured Z backlash compensation. (if activated in the quality settings, this command will automatically be ignored)
M204 S500 ; restore standard acceleration
G1 X0 Y0 Z15 F5000 ; move up off last probe point
G4 S1 ; pause
M400 ; wait for moves to finish
M117 Heating... ; progress indicator message on LCD
M109 R210 ; wait for extruder to reach printing temp
M190 R60.0 ; wait for bed to reach printing temp
G1 Z2 E0 F75 ; prime tiny bit of filament into the nozzle
M117 TAZ 6 Printing... ; progress indicator message on LCD

M221 S100 T0
G92 E0
G1 F600 E-1.75
;LAYER_COUNT:32
;LAYER:0
M107
G0 F2625 X118.772 Y104.617 Z0.425
;TYPE:SKIRT
G1 F600 E0
G1 F900 X119.166 Y104.237 E0.01823
G1 X119.611 Y103.918 E0.03647
G1 X120.098 Y103.668 E0.05471
G1 X120.616 Y103.491 E0.07294
G1 X121.154 Y103.392 E0.09116
G1 X121.565 Y103.369 E0.10487
G1 X158.436 Y103.37 E1.33306
G1 X158.982 Y103.41 E1.3513
G1 X159.516 Y103.529 E1.36952
G1 X160.028 Y103.724 E1.38777
G1 X160.505 Y103.992 E1.406
G1 X160.938 Y104.327 E1.42423
G1 X161.318 Y104.721 E1.44247
G1 X161.637 Y105.166 E1.4607
G1 X161.887 Y105.653 E1.47894
G1 X162.064 Y106.171 E1.49717
G1 X162.163 Y106.709 E1.5154
G1 X162.186 Y107.12 E1.52911
G1 X162.186 Y172.881 E3.71963
G1 X162.146 Y173.427 E3.73787
G1 X162.027 Y173.961 E3.75609
G1 X161.832 Y174.472 E3.77431
G1 X161.564 Y174.95 E3.79256
G1 X161.229 Y175.383 E3.8108
G1 X160.835 Y175.763 E3.82903
G1 X160.39 Y176.082 E3.84727
G1 X159.903 Y176.332 E3.86551
G1 X159.385 Y176.509 E3.88374
G1 X158.847 Y176.608 E3.90196
G1 X158.436 Y176.631 E3.91567
G1 X121.564 Y176.631 E5.14389
G1 X121.018 Y176.591 E5.16213
G1 X120.484 Y176.472 E5.18035
G1 X119.973 Y176.277 E5.19857
G1 X119.495 Y176.009 E5.21683
G1 X119.062 Y175.674 E5.23506
G1 X118.682 Y175.28 E5.2533
G1 X118.363 Y174.835 E5.27154
G1 X118.113 Y174.348 E5.28977
G1 X117.936 Y173.83 E5.30801
G1 X117.837 Y173.292 E5.32623
G1 X117.814 Y172.881 E5.33994
G1 X117.815 Y107.119 E7.53049
G1 X117.855 Y106.573 E7.54873
G1 X117.974 Y106.039 E7.56696
G1 X118.169 Y105.528 E7.58517
G1 X118.437 Y105.05 E7.60343
G1 X118.772 Y104.617 E7.62166
G0 F2625 X119.265 Y104.823
G1 F900 X119.652 Y104.491 E7.63865
G1 X120.087 Y104.225 E7.65563
G1 X120.557 Y104.029 E7.6726
G1 X121.052 Y103.91 E7.68955
G1 X121.565 Y103.869 E7.7067
G1 X158.436 Y103.87 E8.93488
G1 X158.944 Y103.91 E8.95186
G1 X159.439 Y104.029 E8.96882
G1 X159.91 Y104.224 E8.9858
G1 X160.345 Y104.49 E9.00278
G1 X160.732 Y104.82 E9.01972
G1 X161.064 Y105.207 E9.03671
G1 X161.33 Y105.642 E9.05369
G1 X161.526 Y106.112 E9.07065
G1 X161.645 Y106.607 E9.08761
G1 X161.686 Y107.12 E9.10476
G1 X161.686 Y172.881 E11.29528
G1 X161.646 Y173.389 E11.31225
G1 X161.527 Y173.884 E11.32921
G1 X161.332 Y174.355 E11.34619
G1 X161.066 Y174.79 E11.36318
G1 X160.736 Y175.177 E11.38012
G1 X160.349 Y175.509 E11.3971
G1 X159.914 Y175.775 E11.41409
G1 X159.444 Y175.971 E11.43105
G1 X158.949 Y176.09 E11.44801
G1 X158.436 Y176.131 E11.46515
G1 X121.564 Y176.131 E12.69337
G1 X121.056 Y176.091 E12.71034
G1 X120.561 Y175.972 E12.7273
G1 X120.09 Y175.777 E12.74428
G1 X119.655 Y175.511 E12.76127
G1 X119.268 Y175.181 E12.77821
G1 X118.936 Y174.794 E12.79519
G1 X118.67 Y174.359 E12.81218
G1 X118.474 Y173.889 E12.82914
G1 X118.355 Y173.394 E12.8461
G1 X118.314 Y172.881 E12.86324
G1 X118.315 Y107.119 E15.0538
G1 X118.355 Y106.611 E15.07077
G1 X118.474 Y106.116 E15.08773
G1 X118.669 Y105.645 E15.10471
G1 X118.935 Y105.21 E15.12169
G1 X119.265 Y104.823 E15.13864
G1 F600 E13.38864
;MESH:
G0 F2625 X122.319 Y106.445
G0 X122.319 Y107.874
G0 X129.233 Y108.576
G0 X129.163 Y108.646
;TYPE:WALL-INNER
G1 F600 E15.13864
G1 F900 X122.837 Y108.646 E15.34936
G1 X122.837 Y124.14 E15.86547
G1 X122.305 Y124.14 E15.88319
G1 X122.305 Y107.86 E16.42548
G1 X129.695 Y107.86 E16.67165
G1 X129.695 Y124.14 E17.21394
G1 X129.163 Y124.14 E17.23166
G1 X129.163 Y108.646 E17.74777
G0 F2625 X128.663 Y109.146
;TYPE:WALL-OUTER
G1 F900 X123.337 Y109.146 E17.92518
G1 X123.337 Y124.64 E18.44129
G1 X121.805 Y124.64 E18.49232
G1 X121.805 Y107.36 E19.06793
G1 X130.195 Y107.36 E19.3474
G1 X130.195 Y124.64 E19.923
G1 X128.663 Y124.64 E19.97403
G1 X128.663 Y109.146 E20.49015
G0 F2625 X128.413 Y109.146
G0 X128.413 Y108.546
G0 X129.469 Y108.255
G0 X129.383 Y108.169
;TYPE:SKIN
G1 F900 X128.758 Y108.252 E20.49703
G1 X123.102 Y108.252 E20.55884
G1 X122.57 Y108.428 E20.56496
G1 X122.57 Y123.277 E20.72721
G0 F2625 X122.611 Y123.318
G0 X122.809 Y108.618
G0 X129.191 Y108.618
G0 X129.387 Y123.023
G0 X129.428 Y123.064
G1 F900 X129.428 Y123.771 E20.73104
G1 X129.428 Y108.922 E20.81159
G0 F2625 X129.195 Y108.881
G1 F600 E19.06159
G0 F2625 X129.263 Y108.881
G0 X129.675 Y108.576
G0 X131.11 Y108.576
G0 X134.89 Y108.576
G0 X136.325 Y108.576
G0 X143.233 Y108.576
G0 X143.163 Y108.646
;TYPE:WALL-INNER
G1 F600 E20.81159
G1 F900 X136.837 Y108.646 E21.02231
G1 X136.837 Y124.14 E21.53842
G1 X136.305 Y124.14 E21.55614
G1 X136.305 Y107.86 E22.09843
G1 X143.695 Y107.86 E22.3446
G1 X143.695 Y124.14 E22.88689
G1 X143.163 Y124.14 E22.90461
G1 X143.163 Y108.646 E23.42072
G0 F2625 X142.663 Y109.146
;TYPE:WALL-OUTER
G1 F900 X137.337 Y109.146 E23.59813
G1 X137.337 Y124.64 E24.11424
G1 X135.805 Y124.64 E24.16527
G1 X135.805 Y107.36 E24.74088
G1 X144.195 Y107.36 E25.02035
G1 X144.195 Y124.64 E25.59595
G1 X142.663 Y124.64 E25.64698
G1 X142.663 Y109.146 E26.1631
G0 F2625 X142.413 Y109.146
G0 X142.9 Y108.252
;TYPE:SKIN
G1 F900 X142.193 Y108.252 E26.16823
G1 X143.428 Y108.779 E26.17797
G1 X143.428 Y123.629 E26.28572
G0 F2625 X143.469 Y123.67
G0 X143.191 Y108.618
G0 X136.809 Y108.618
G0 X136.611 Y123.883
G0 X136.569 Y123.841
G1 F900 X136.569 Y123.134 E26.2928
G1 X136.569 Y108.992 E26.4344
G1 X136.616 Y108.332 E26.44103
G1 X141.486 Y108.252 E26.4898
G0 F2625 X141.654 Y108.36
G1 F600 E24.7398
G0 F2625 X143.675 Y108.576
G0 X145.11 Y108.576
G0 X148.89 Y108.576
G0 X150.325 Y108.576
G0 X157.233 Y108.576
G0 X157.163 Y108.646
;TYPE:WALL-INNER
G1 F600 E26.4898
G1 F900 X150.837 Y108.646 E26.70052
G1 X150.837 Y124.14 E27.21663
G1 X150.305 Y124.14 E27.23435
G1 X150.305 Y107.86 E27.77664
G1 X157.695 Y107.86 E28.02281
G1 X157.695 Y124.14 E28.5651
G1 X157.163 Y124.14 E28.58282
G1 X157.163 Y108.646 E29.09893
G0 F2625 X156.663 Y109.146
;TYPE:WALL-OUTER
G1 F900 X151.337 Y109.146 E29.27634
G1 X151.337 Y124.64 E29.79245
G1 X149.805 Y124.64 E29.84348
G1 X149.805 Y107.36 E30.41909
G1 X158.195 Y107.36 E30.69856
G1 X158.195 Y124.64 E31.27416
G1 X156.663 Y124.64 E31.32519
G1 X156.663 Y109.146 E31.84131
G0 F2625 X156.413 Y109.146
G0 X156.413 Y108.546
G0 X157.211 Y108.42
G0 X157.043 Y108.252
;TYPE:SKIN
G1 F900 X156.335 Y108.252 E31.8465
G1 X157.428 Y108.637 E31.85501
G1 X157.428 Y123.486 E31.96398
G0 F2625 X157.469 Y123.528
G0 X157.191 Y108.618
G0 X150.809 Y108.618
G0 X150.61 Y123.74
G0 X150.569 Y123.699
G1 F900 X150.569 Y122.992 E31.97127
G1 X150.569 Y108.85 E32.11696
G1 X150.687 Y108.261 E32.12314
G1 X155.628 Y108.252 E32.17405
G0 F2625 X155.796 Y108.36
G1 F600 E30.42405
G0 F2625 X157.177 Y108.632
G0 X155.76 Y110.049
G0 X155.752 Y125.018
G0 X157.177 Y130.445
G0 X157.177 Y131.88
G0 X157.233 Y132.576
G0 X157.163 Y132.646
;TYPE:WALL-INNER
G1 F600 E32.17405
G1 F900 X150.837 Y132.646 E32.38477
G1 X150.837 Y148.14 E32.90088
G1 X150.305 Y148.14 E32.9186
G1 X150.305 Y131.86 E33.46089
G1 X157.695 Y131.86 E33.70705
G1 X157.695 Y148.14 E34.24935
G1 X157.163 Y148.14 E34.26707
G1 X157.163 Y132.646 E34.78318
G0 F2625 X156.663 Y133.146
;TYPE:WALL-OUTER
G1 F900 X151.337 Y133.146 E34.96059
G1 X151.337 Y148.64 E35.4767
G1 X149.805 Y148.64 E35.52773
G1 X149.805 Y131.36 E36.10334
G1 X158.195 Y131.36 E36.38281
G1 X158.195 Y148.64 E36.95841
G1 X156.663 Y148.64 E37.00944
G1 X156.663 Y133.146 E37.52555
G0 F2625 X156.413 Y133.146
G0 X156.413 Y132.546
G0 X157.169 Y132.42
G0 X157.001 Y132.252
;TYPE:SKIN
G1 F900 X156.294 Y132.252 E37.53072
G1 X157.428 Y132.679 E37.53958
G1 X157.428 Y147.528 E37.6481
G0 F2625 X157.469 Y147.569
G0 X157.191 Y132.618
G0 X150.809 Y132.618
G0 X150.611 Y147.783
G0 X150.569 Y147.741
G1 F900 X150.569 Y147.034 E37.65535
G1 X150.569 Y132.892 E37.80029
G1 X150.666 Y132.282 E37.80662
G1 X155.587 Y132.252 E37.85706
G0 F2625 X155.755 Y132.36
G1 F600 E36.10706
G0 F2625 X150.325 Y132.576
G0 X148.89 Y132.576
G0 X145.11 Y132.576
G0 X143.675 Y132.576
G0 X143.233 Y132.576
G0 X143.163 Y132.646
;TYPE:WALL-INNER
G1 F600 E37.85706
G1 F900 X136.837 Y132.646 E38.06778
G1 X136.837 Y148.14 E38.58389
G1 X136.305 Y148.14 E38.60161
G1 X136.305 Y131.86 E39.14391
G1 X143.695 Y131.86 E39.39007
G1 X143.695 Y148.14 E39.93236
G1 X143.163 Y148.14 E39.95008
G1 X143.163 Y132.646 E40.46619
G0 F2625 X142.663 Y133.146
;TYPE:WALL-OUTER
G1 F900 X137.337 Y133.146 E40.6436
G1 X137.337 Y148.64 E41.15972
G1 X135.805 Y148.64 E41.21075
G1 X135.805 Y131.36 E41.78635
G1 X144.195 Y131.36 E42.06582
G1 X144.195 Y148.64 E42.64143
G1 X142.663 Y148.64 E42.69246
G1 X142.663 Y133.146 E43.20857
G0 F2625 X142.413 Y133.146
G0 X142.413 Y132.546
G0 X143.469 Y132.156
G0 X143.433 Y132.12
;TYPE:SKIN
G1 F900 X142.859 Y132.252 E43.2148
G1 X137.202 Y132.252 E43.2746
G1 X136.596 Y132.353 E43.28109
G1 X136.57 Y147.177 E43.4378
G1 X136.564 Y147.878 E43.44521
G0 F2625 X136.6 Y147.914
G0 X136.809 Y132.618
G0 X143.191 Y132.618
G0 X143.387 Y147.629
G0 X143.428 Y147.67
G1 F900 X143.428 Y146.963 E43.44924
G1 X143.428 Y132.821 E43.52975
G0 F2625 X143.195 Y132.78
G1 F600 E41.77975
G0 F2625 X143.263 Y132.78
G0 X143.199 Y132.635
G0 X136.325 Y132.576
G0 X134.89 Y132.576
G0 X131.11 Y132.576
G0 X129.675 Y132.576
G0 X129.233 Y132.576
G0 X129.163 Y132.646
;TYPE:WALL-INNER
G1 F600 E43.52975
G1 F900 X122.837 Y132.646 E43.74047
G1 X122.837 Y148.14 E44.25658
G1 X122.305 Y148.14 E44.2743
G1 X122.305 Y131.86 E44.8166
G1 X129.695 Y131.86 E45.06276
G1 X129.695 Y148.14 E45.60505
G1 X129.163 Y148.14 E45.62277
G1 X129.163 Y132.646 E46.13888
G0 F2625 X128.663 Y133.146
;TYPE:WALL-OUTER
G1 F900 X123.337 Y133.146 E46.3163
G1 X123.337 Y148.64 E46.83241
G1 X121.805 Y148.64 E46.88344
G1 X121.805 Y131.36 E47.45904
G1 X130.195 Y131.36 E47.73851
G1 X130.195 Y148.64 E48.31412
G1 X128.663 Y148.64 E48.36515
G1 X128.663 Y133.146 E48.88126
G0 F2625 X128.413 Y133.146
G0 X128.413 Y132.546
G0 X129.469 Y132.298
G0 X129.362 Y132.191
;TYPE:SKIN
G1 F900 X128.716 Y132.251 E48.88845
G1 X123.059 Y132.251 E48.95114
G1 X122.57 Y132.47 E48.95708
G1 X122.57 Y147.319 E49.12164
G0 F2625 X122.612 Y147.361
G0 X122.809 Y132.618
G0 X129.191 Y132.618
G0 X129.387 Y147.065
G0 X129.428 Y147.106
G1 F900 X129.428 Y147.813 E49.12548
G1 X129.428 Y132.964 E49.20612
G0 F2625 X129.195 Y132.923
G1 F600 E47.45612
G0 F2625 X129.263 Y132.923
G0 X129.233 Y148.12
G0 X129.233 Y149.555
G0 X129.233 Y154.445
G0 X129.233 Y155.88
G0 X129.233 Y156.576
G0 X129.163 Y156.646
;TYPE:WALL-INNER
G1 F600 E49.20612
G1 F900 X122.837 Y156.646 E49.41684
G1 X122.837 Y172.14 E49.93295
G1 X122.305 Y172.14 E49.95067
G1 X122.305 Y155.86 E50.49296
G1 X129.695 Y155.86 E50.73913
G1 X129.695 Y172.14 E51.28142
G1 X129.163 Y172.14 E51.29914
G1 X129.163 Y156.646 E51.81525
G0 F2625 X128.663 Y157.146
;TYPE:WALL-OUTER
G1 F900 X123.337 Y157.146 E51.99266
G1 X123.337 Y172.64 E52.50877
G1 X121.805 Y172.64 E52.5598
G1 X121.805 Y155.36 E53.13541
G1 X130.195 Y155.36 E53.41488
G1 X130.195 Y172.64 E53.99048
G1 X128.663 Y172.64 E54.04151
G1 X128.663 Y157.146 E54.55763
G0 F2625 X128.413 Y157.146
G0 X128.413 Y156.546
G0 X129.469 Y156.339
G0 X129.341 Y156.211
;TYPE:SKIN
G1 F900 X128.674 Y156.251 E54.56511
G1 X123.017 Y156.251 E54.62846
G1 X122.571 Y156.512 E54.63425
G1 X122.571 Y171.361 E54.80053
G0 F2625 X122.612 Y171.402
G0 X122.809 Y156.618
G0 X129.191 Y156.618
G0 X129.387 Y171.107
G0 X129.428 Y171.148
G1 F900 X129.428 Y171.855 E54.80437
G1 X129.428 Y157.005 E54.88495
G0 F2625 X129.195 Y156.964
G1 F600 E53.13495
G0 F2625 X129.263 Y156.964
G0 X129.675 Y156.576
G0 X131.11 Y156.576
G0 X134.89 Y156.576
G0 X136.325 Y156.576
G0 X143.233 Y156.576
G0 X143.163 Y156.646
;TYPE:WALL-INNER
G1 F600 E54.88495
G1 F900 X136.837 Y156.646 E55.09567
G1 X136.837 Y172.14 E55.61178
G1 X136.305 Y172.14 E55.6295
G1 X136.305 Y155.86 E56.17179
G1 X143.695 Y155.86 E56.41796
G1 X143.695 Y172.14 E56.96025
G1 X143.163 Y172.14 E56.97797
G1 X143.163 Y156.646 E57.49408
G0 F2625 X142.663 Y157.146
;TYPE:WALL-OUTER
G1 F900 X137.337 Y157.146 E57.67149
G1 X137.337 Y172.64 E58.1876
G1 X135.805 Y172.64 E58.23863
G1 X135.805 Y155.36 E58.81424
G1 X144.195 Y155.36 E59.09371
G1 X144.195 Y172.64 E59.66931
G1 X142.663 Y172.64 E59.72035
G1 X142.663 Y157.146 E60.23646
G0 F2625 X142.413 Y157.146
G0 X142.413 Y156.546
G0 X143.469 Y156.197
G0 X143.412 Y156.14
;TYPE:SKIN
G1 F900 X142.816 Y156.251 E60.24297
G1 X137.159 Y156.251 E60.30371
G1 X136.575 Y156.374 E60.31012
G1 X136.571 Y171.219 E60.46951
G0 F2625 X136.612 Y171.26
G0 X136.809 Y156.618
G0 X143.191 Y156.618
G0 X143.387 Y170.964
G0 X143.428 Y171.005
G1 F900 X143.428 Y171.713 E60.47336
G1 X143.428 Y156.863 E60.55399
G0 F2625 X143.195 Y156.822
G1 F600 E58.80399
G0 F2625 X143.263 Y156.822
G0 X143.675 Y156.576
G0 X145.11 Y156.576
G0 X148.89 Y156.576
G0 X150.325 Y156.576
G0 X157.233 Y156.576
G0 X157.163 Y156.646
;TYPE:WALL-INNER
G1 F600 E60.55399
G1 F900 X150.837 Y156.646 E60.76472
G1 X150.837 Y172.14 E61.28083
G1 X150.305 Y172.14 E61.29855
G1 X150.305 Y155.86 E61.84084
G1 X157.695 Y155.86 E62.087
G1 X157.695 Y172.14 E62.6293
G1 X157.163 Y172.14 E62.64702
G1 X157.163 Y156.646 E63.16313
G0 F2625 X156.663 Y157.146
;TYPE:WALL-OUTER
G1 F900 X151.337 Y157.146 E63.34054
G1 X151.337 Y172.64 E63.85665
G1 X149.805 Y172.64 E63.90768
G1 X149.805 Y155.36 E64.48328
G1 X158.195 Y155.36 E64.76276
G1 X158.195 Y172.64 E65.33836
G1 X156.663 Y172.64 E65.38939
G1 X156.663 Y157.146 E65.9055
G0 F2625 X156.413 Y157.146
G0 X156.413 Y156.546
G0 X157.127 Y156.42
G0 X156.959 Y156.252
;TYPE:SKIN
G1 F900 X156.252 Y156.252 E65.91068
G1 X157.428 Y156.721 E65.91995
G1 X157.428 Y171.57 E66.02868
G0 F2625 X157.469 Y171.611
G0 X157.191 Y156.618
G0 X150.809 Y156.618
G0 X150.612 Y171.825
G0 X150.571 Y171.784
M104 S205
G1 F900 X150.571 Y171.077 E66.03582
G1 X150.571 Y156.935 E66.17869
G1 X150.646 Y156.303 E66.18512
G1 X155.545 Y156.252 E66.23462
G0 F2625 X155.713 Y156.36
G1 F600 E64.48462
;MESH:NONMESH
G0 F2625 X150.319 Y155.874
G0 X150.319 Y154.445
G0 X145.103 Y135.558
G0 X145.106 Y130.982
G0 X144.627 Y130.503
