;Generated by Cura LulzBot Edition GCodeWriter Version: 3.6.18
;FLAVOR:Marlin
;TIME:3938
;Filament used: 1.43344m
;Layer height: 0.18
;Generated with Cura_SteamEngine 3.6.18
M82 ;absolute extrusion mode
;This G-Code has been generated specifically for the LulzBot Mini with standard extruder
M73 P0 ; clear GLCD progress bar
M75 ; Start GLCD Timer
G26 ; clear potential 'probe fail' condition
M107 ; disable fans
M420 S0 ; disable leveling matrix
G90 ; absolute positioning
M82 ; set extruder to absolute mode
G92 E0 ; set extruder position to 0
M140 S60.0 ; start bed heating up
G28 ; home all axes
G0 X0 Y187 Z156 F200 ; move away from endstops
M109 R140 ;
G1 E-30 F75 ; retract filament
M109 R140 ; wait for extruder to reach wiping temp
G1 X45 Y173 F11520 ; move above wiper pad
G1 Z0 F1200 ; push nozzle into wiper
G1 X42 Y173 Z-.5 F4000             ; wiping
G1 X52 Y171 Z-.5 F4000             ; wiping
G1 X42 Y173 Z0 F4000               ; wiping
G1 X52 Y171 F4000                  ; wiping
G1 X42 Y173 F4000                  ; wiping
G1 X52 Y171 F4000                  ; wiping
G1 X42 Y173 F4000                  ; wiping
G1 X52 Y171 F4000                  ; wiping
G1 X57 Y173 F4000                  ; wiping
G1 X77 Y171 F4000                  ; wiping
G1 X57 Y173 F4000                  ; wiping
G1 X77 Y171 F4000                  ; wiping
G1 X57 Y173 F4000                  ; wiping
G1 X87 Y171 F4000                  ; wiping
G1 X77 Y173 F4000                  ; wiping
G1 X97 Y171 F4000                  ; wiping
G1 X77 Y173 F4000                  ; wiping
G1 X97 Y171 F4000                  ; wiping
G1 X77 Y173 F4000                  ; wiping
G1 X97 Y171 F4000                  ; wiping
G1 X107 Y173 F4000                 ; wiping
G1 X97 Y171 F4000                  ; wiping
G1 X107 Y173 F4000                 ; wiping
G1 X97 Y171 F4000                  ; wiping
G1 X107 Y173 F4000                 ; wiping
G1 X112 Y171 Z-0.5 F1000           ; wiping
G1 Z10 ; raise extruder
G28 X0 Y0 ; home X and Y
G0 X0 Y187 F200 ; move away from endstops
M109 R140 ; wait for extruder to reach probe temp
M204 S300 ; set probing acceleration
G29       ; start auto-leveling sequence
M420 S1   ; enable leveling matrix
M425 Z	  ; use measured Z backlash for compensation
M425 Z F0 ; turn off measured Z backlash compensation. (if activated in the quality settings, this command will automatically be ignored)
M204 S2000 ; restore standard acceleration
G28 X0 Y0 ; re-home to account for build variance of earlier mini builds
G0 X0 Y187 F200 ; move away from endstops
G0 Y152 F4000 ; move in front of wiper pad
G4 S1 ; pause
M400 ; wait for moves to finish
M117 Heating... ; progress indicator message on LCD
M109 R210  ; wait for extruder to reach printing temp
M190 R60.0 ; wait for bed to reach printing temp
G1 Z2 E0 F75 ; prime tiny bit of filament into the nozzle
M117 Mini Printing... ; progress indicator message on LCD

M221 S100 T0
G92 E0
G1 F600 E-1.75
;LAYER_COUNT:27
;LAYER:0
M107
G0 F2625 X51.3 Y51.482 Z0.425
;TYPE:SKIRT
G1 F600 E0
G1 F900 X51.56 Y51.222 E0.01225
G1 X53.813 Y49.182 E0.11349
G1 X54.006 Y49.019 E0.1219
G1 X55.203 Y48.074 E0.17271
G1 X55.432 Y47.907 E0.18215
G1 X58.154 Y46.073 E0.29148
G1 X58.471 Y45.881 E0.30382
G1 X61.152 Y44.437 E0.40526
G1 X61.38 Y44.324 E0.41373
G1 X62.779 Y43.689 E0.46491
G1 X63.041 Y43.582 E0.47434
G1 X66.115 Y42.458 E0.58336
G1 X66.511 Y42.338 E0.59715
G1 X70.308 Y41.408 E0.72737
G1 X70.707 Y41.333 E0.74089
G1 X73.632 Y40.945 E0.83918
G1 X73.91 Y40.918 E0.84848
G1 X75.739 Y40.813 E0.9095
G1 X75.997 Y40.807 E0.9181
G1 X79.065 Y40.842 E1.0203
G1 X79.435 Y40.865 E1.03265
G1 X82.452 Y41.199 E1.13376
G1 X82.724 Y41.239 E1.14292
G1 X84.356 Y41.542 E1.19821
G1 X84.562 Y41.586 E1.20523
G1 X86.745 Y42.12 E1.28009
G1 X86.98 Y42.186 E1.28822
G1 X88.588 Y42.692 E1.34437
G1 X88.785 Y42.76 E1.35132
G1 X90.873 Y43.547 E1.42564
G1 X91.077 Y43.631 E1.43299
G1 X92.501 Y44.266 E1.48493
G1 X92.755 Y44.391 E1.49436
G1 X95.639 Y45.948 E1.60353
G1 X95.952 Y46.137 E1.61571
G1 X98.342 Y47.746 E1.71168
G1 X98.541 Y47.89 E1.71987
G1 X99.893 Y48.935 E1.77679
G1 X100.119 Y49.124 E1.7866
G1 X102.517 Y51.299 E1.89444
G1 X102.777 Y51.56 E1.90671
G1 X104.815 Y53.81 E2.00783
G1 X104.98 Y54.004 E2.01632
G1 X105.927 Y55.204 E2.06724
G1 X106.093 Y55.432 E2.07663
G1 X107.927 Y58.154 E2.18596
G1 X108.119 Y58.471 E2.19831
G1 X109.563 Y61.152 E2.29974
G1 X109.676 Y61.38 E2.30822
G1 X110.311 Y62.779 E2.3594
G1 X110.418 Y63.041 E2.36882
G1 X111.542 Y66.114 E2.47782
G1 X111.662 Y66.51 E2.4916
G1 X112.592 Y70.308 E2.62185
G1 X112.667 Y70.707 E2.63538
G1 X113.053 Y73.615 E2.73309
G1 X113.08 Y73.891 E2.74233
G1 X113.187 Y75.737 E2.80392
G1 X113.193 Y75.945 E2.81086
G1 X113.198 Y78.125 E2.88347
G1 X113.192 Y78.349 E2.89094
G1 X113.105 Y79.866 E2.94155
G1 X113.073 Y80.184 E2.9522
G1 X112.513 Y84.086 E3.08351
G1 X112.443 Y84.446 E3.09572
G1 X111.879 Y86.747 E3.17464
G1 X111.814 Y86.98 E3.1827
G1 X111.308 Y88.588 E3.23885
G1 X111.24 Y88.785 E3.24579
G1 X110.453 Y90.873 E3.32012
G1 X110.369 Y91.077 E3.32747
G1 X109.734 Y92.501 E3.3794
G1 X109.609 Y92.755 E3.38883
G1 X108.052 Y95.639 E3.49801
G1 X107.863 Y95.952 E3.51019
G1 X106.254 Y98.343 E3.60619
G1 X106.11 Y98.542 E3.61437
G1 X105.082 Y99.872 E3.67036
G1 X104.926 Y100.061 E3.67853
G1 X103.419 Y101.768 E3.75438
G1 X103.255 Y101.943 E3.76236
G1 X101.95 Y103.243 E3.82372
G1 X101.795 Y103.388 E3.83079
G1 X100.162 Y104.84 E3.90358
G1 X99.994 Y104.981 E3.91089
G1 X98.797 Y105.926 E3.96169
G1 X98.568 Y106.093 E3.97113
G1 X95.846 Y107.927 E4.08046
G1 X95.529 Y108.119 E4.09281
G1 X92.848 Y109.563 E4.19424
G1 X92.62 Y109.676 E4.20272
G1 X91.221 Y110.311 E4.25389
G1 X90.959 Y110.418 E4.26332
G1 X87.885 Y111.542 E4.37235
G1 X87.489 Y111.662 E4.38613
G1 X83.692 Y112.592 E4.51635
G1 X83.291 Y112.668 E4.52994
G1 X80.299 Y113.063 E4.63047
G1 X80.049 Y113.087 E4.63884
G1 X78.494 Y113.187 E4.69074
G1 X78.211 Y113.195 E4.70017
G1 X74.936 Y113.158 E4.80927
G1 X74.565 Y113.135 E4.82165
G1 X71.548 Y112.801 E4.92277
G1 X71.276 Y112.761 E4.93192
G1 X69.644 Y112.458 E4.98722
G1 X69.438 Y112.414 E4.99423
G1 X67.255 Y111.88 E5.06909
G1 X67.02 Y111.814 E5.07722
G1 X65.412 Y111.308 E5.13338
G1 X65.215 Y111.24 E5.14032
G1 X63.127 Y110.453 E5.21465
G1 X62.923 Y110.369 E5.22199
G1 X61.499 Y109.734 E5.27393
G1 X61.245 Y109.609 E5.28336
G1 X58.359 Y108.051 E5.39261
G1 X58.045 Y107.862 E5.40482
G1 X55.657 Y106.254 E5.50071
G1 X55.459 Y106.11 E5.50887
G1 X54.107 Y105.065 E5.56579
G1 X53.881 Y104.876 E5.5756
G1 X51.483 Y102.701 E5.68344
G1 X51.222 Y102.44 E5.69574
G1 X49.182 Y100.187 E5.79698
G1 X49.019 Y99.993 E5.80542
G1 X48.071 Y98.792 E5.85639
G1 X47.904 Y98.564 E5.8658
G1 X46.073 Y95.846 E5.97497
G1 X45.881 Y95.529 E5.98731
G1 X44.437 Y92.848 E6.08875
G1 X44.324 Y92.62 E6.09722
G1 X43.689 Y91.221 E6.1484
G1 X43.582 Y90.959 E6.15783
G1 X42.458 Y87.885 E6.26685
G1 X42.338 Y87.489 E6.28064
G1 X41.408 Y83.692 E6.41086
G1 X41.332 Y83.291 E6.42445
G1 X40.937 Y80.299 E6.52498
G1 X40.913 Y80.048 E6.53338
G1 X40.813 Y78.49 E6.58538
G1 X40.805 Y78.208 E6.59478
G1 X40.842 Y74.936 E6.70378
G1 X40.865 Y74.565 E6.71616
G1 X41.199 Y71.548 E6.81727
G1 X41.241 Y71.267 E6.82674
G1 X41.559 Y69.578 E6.88399
G1 X41.601 Y69.383 E6.89063
G1 X42.12 Y67.257 E6.96353
G1 X42.186 Y67.02 E6.97172
G1 X42.692 Y65.412 E7.02788
G1 X42.76 Y65.215 E7.03482
G1 X43.547 Y63.127 E7.10915
G1 X43.631 Y62.923 E7.1165
G1 X44.266 Y61.499 E7.16843
G1 X44.391 Y61.245 E7.17786
G1 X45.948 Y58.361 E7.28703
G1 X46.137 Y58.048 E7.29921
G1 X47.746 Y55.658 E7.39519
G1 X47.891 Y55.457 E7.40344
G1 X48.948 Y54.091 E7.46098
G1 X49.137 Y53.866 E7.47076
G1 X51.3 Y51.482 E7.57799
G0 F2625 X51.67 Y51.818
G1 F900 X51.896 Y51.593 E7.58861
G1 X54.149 Y49.553 E7.68985
G1 X54.316 Y49.411 E7.69716
G1 X55.513 Y48.466 E7.74796
G1 X55.711 Y48.322 E7.75611
G1 X58.433 Y46.488 E7.86544
G1 X58.708 Y46.322 E7.87614
G1 X61.389 Y44.878 E7.97758
G1 X61.587 Y44.78 E7.98494
G1 X62.986 Y44.145 E8.03611
G1 X63.213 Y44.052 E8.04429
G1 X66.287 Y42.928 E8.15331
G1 X66.63 Y42.823 E8.16526
G1 X70.427 Y41.893 E8.29548
G1 X70.773 Y41.828 E8.30721
G1 X73.698 Y41.44 E8.40549
G1 X73.939 Y41.417 E8.41356
G1 X75.768 Y41.312 E8.47458
G1 X75.991 Y41.307 E8.48201
G1 X79.059 Y41.342 E8.58421
G1 X79.38 Y41.362 E8.59493
G1 X82.397 Y41.696 E8.69604
G1 X82.632 Y41.731 E8.70395
G1 X84.264 Y42.034 E8.75924
G1 X84.443 Y42.072 E8.76534
G1 X86.626 Y42.606 E8.8402
G1 X86.83 Y42.663 E8.84726
G1 X88.438 Y43.169 E8.90341
G1 X88.608 Y43.228 E8.9094
G1 X90.696 Y44.015 E8.98373
G1 X90.874 Y44.088 E8.99014
G1 X92.298 Y44.723 E9.04208
G1 X92.518 Y44.831 E9.05024
G1 X95.402 Y46.388 E9.15941
G1 X95.673 Y46.552 E9.16996
G1 X98.063 Y48.161 E9.26594
G1 X98.236 Y48.286 E9.27305
G1 X99.588 Y49.331 E9.32997
G1 X99.783 Y49.495 E9.33845
G1 X102.181 Y51.67 E9.44629
G1 X102.407 Y51.895 E9.45692
G1 X104.445 Y54.145 E9.55804
G1 X104.587 Y54.314 E9.56539
G1 X105.534 Y55.514 E9.61631
G1 X105.678 Y55.711 E9.62444
G1 X107.512 Y58.433 E9.73377
G1 X107.678 Y58.708 E9.74447
G1 X109.122 Y61.389 E9.84591
G1 X109.22 Y61.587 E9.85327
G1 X109.855 Y62.986 E9.90444
G1 X109.948 Y63.213 E9.91261
G1 X111.072 Y66.286 E10.02161
G1 X111.177 Y66.629 E10.03356
G1 X112.107 Y70.427 E10.16381
G1 X112.172 Y70.772 E10.1755
G1 X112.558 Y73.68 E10.27322
G1 X112.581 Y73.92 E10.28125
G1 X112.688 Y75.766 E10.34284
G1 X112.693 Y75.947 E10.34888
G1 X112.698 Y78.127 E10.42149
G1 X112.693 Y78.32 E10.42792
G1 X112.606 Y79.837 E10.47854
G1 X112.578 Y80.113 E10.48778
G1 X112.018 Y84.015 E10.61909
G1 X111.958 Y84.327 E10.62967
G1 X111.394 Y86.628 E10.70859
G1 X111.337 Y86.83 E10.71558
G1 X110.831 Y88.438 E10.77173
G1 X110.772 Y88.608 E10.77773
G1 X109.985 Y90.696 E10.85205
G1 X109.912 Y90.874 E10.85846
G1 X109.277 Y92.298 E10.9104
G1 X109.169 Y92.518 E10.91856
G1 X107.612 Y95.402 E11.02774
G1 X107.448 Y95.672 E11.03826
G1 X105.839 Y98.063 E11.13426
G1 X105.714 Y98.237 E11.14139
G1 X104.686 Y99.567 E11.19739
G1 X104.551 Y99.73 E11.20444
G1 X103.044 Y101.437 E11.28029
G1 X102.902 Y101.589 E11.28722
G1 X101.597 Y102.889 E11.34857
G1 X101.463 Y103.015 E11.3547
G1 X99.83 Y104.467 E11.42749
G1 X99.684 Y104.589 E11.43383
G1 X98.487 Y105.534 E11.48463
G1 X98.289 Y105.678 E11.49278
G1 X95.567 Y107.512 E11.60212
G1 X95.292 Y107.678 E11.61282
G1 X92.611 Y109.122 E11.71425
G1 X92.413 Y109.22 E11.72161
G1 X91.014 Y109.855 E11.77279
G1 X90.787 Y109.948 E11.78096
G1 X87.713 Y111.072 E11.88998
G1 X87.37 Y111.177 E11.90193
G1 X83.573 Y112.107 E12.03215
G1 X83.225 Y112.172 E12.04394
G1 X80.233 Y112.567 E12.14447
G1 X80.017 Y112.588 E12.1517
G1 X78.462 Y112.688 E12.20361
G1 X78.216 Y112.695 E12.2118
G1 X74.941 Y112.658 E12.3209
G1 X74.62 Y112.638 E12.33162
G1 X71.603 Y112.304 E12.43273
G1 X71.368 Y112.269 E12.44064
G1 X69.736 Y111.966 E12.49593
G1 X69.557 Y111.928 E12.50203
G1 X67.374 Y111.394 E12.57689
G1 X67.17 Y111.337 E12.58394
G1 X65.562 Y110.831 E12.6401
G1 X65.392 Y110.772 E12.64609
G1 X63.304 Y109.985 E12.72042
G1 X63.126 Y109.912 E12.72683
G1 X61.702 Y109.277 E12.77876
G1 X61.482 Y109.169 E12.78693
G1 X58.596 Y107.611 E12.89618
G1 X58.325 Y107.447 E12.90673
G1 X55.937 Y105.839 E13.00263
G1 X55.764 Y105.714 E13.00973
G1 X54.412 Y104.669 E13.06665
G1 X54.217 Y104.505 E13.07514
G1 X51.819 Y102.33 E13.18298
G1 X51.593 Y102.104 E13.19363
G1 X49.553 Y99.851 E13.29487
G1 X49.411 Y99.684 E13.30217
G1 X48.463 Y98.483 E13.35314
G1 X48.319 Y98.285 E13.36129
G1 X46.488 Y95.567 E13.47046
G1 X46.322 Y95.292 E13.48116
G1 X44.878 Y92.611 E13.58259
G1 X44.78 Y92.413 E13.58995
G1 X44.145 Y91.014 E13.64113
G1 X44.052 Y90.787 E13.6493
G1 X42.928 Y87.713 E13.75833
G1 X42.823 Y87.37 E13.77028
G1 X41.893 Y83.573 E13.9005
G1 X41.828 Y83.225 E13.91229
G1 X41.433 Y80.233 E14.01282
G1 X41.412 Y80.016 E14.02008
G1 X41.312 Y78.458 E14.07208
G1 X41.305 Y78.213 E14.08025
G1 X41.342 Y74.941 E14.18925
G1 X41.362 Y74.62 E14.19996
G1 X41.696 Y71.603 E14.30107
G1 X41.732 Y71.36 E14.30925
G1 X42.05 Y69.671 E14.3665
G1 X42.087 Y69.501 E14.3723
G1 X42.606 Y67.375 E14.4452
G1 X42.663 Y67.17 E14.45228
G1 X43.169 Y65.562 E14.50844
G1 X43.228 Y65.392 E14.51443
G1 X44.015 Y63.304 E14.58876
G1 X44.088 Y63.126 E14.59517
G1 X44.723 Y61.702 E14.6471
G1 X44.831 Y61.482 E14.65527
G1 X46.388 Y58.598 E14.76444
G1 X46.552 Y58.327 E14.77499
G1 X48.161 Y55.937 E14.87096
G1 X48.287 Y55.763 E14.87812
G1 X49.344 Y54.397 E14.93565
G1 X49.507 Y54.202 E14.94412
G1 X51.67 Y51.818 E15.05135
G1 F600 E13.30135
G1 F480 Z1.425
;MESH:
G0 F2625 X69.318 Y74.517 Z1.425
;TYPE:WALL-INNER
G1 F480 Z0.425
G1 F600 E15.05135
G1 F900 X68.894 Y74.5 E15.06548
G1 X68.473 Y74.553 E15.07962
G1 X68.066 Y74.677 E15.09379
G1 X67.686 Y74.869 E15.10797
G1 X67.346 Y75.122 E15.12209
G1 X67.052 Y75.428 E15.13622
G1 X66.815 Y75.78 E15.15036
G1 X66.64 Y76.166 E15.16447
G1 X66.533 Y76.578 E15.17865
G1 X66.497 Y77 E15.19276
G1 X66.533 Y77.422 E15.20687
G1 X66.64 Y77.834 E15.22105
G1 X66.815 Y78.22 E15.23517
G1 X67.052 Y78.572 E15.2493
G1 X67.346 Y78.878 E15.26344
G1 X67.686 Y79.131 E15.27755
G1 X68.066 Y79.323 E15.29174
G1 X68.473 Y79.447 E15.30591
G1 X68.894 Y79.5 E15.32004
G1 X69.318 Y79.483 E15.33418
G1 X69.732 Y79.393 E15.34829
G1 X70.126 Y79.235 E15.36243
G1 X70.489 Y79.012 E15.37662
G1 X70.806 Y78.732 E15.39071
G1 X71.073 Y78.402 E15.40485
G1 X71.281 Y78.031 E15.41902
G1 X71.423 Y77.63 E15.43319
G1 X71.491 Y77.226 E15.44684
G1 X71.5 Y77 E15.45437
G1 X71.491 Y76.774 E15.4619
G1 X71.423 Y76.37 E15.47555
G1 X71.281 Y75.969 E15.48972
G1 X71.073 Y75.598 E15.50389
G1 X70.806 Y75.268 E15.51803
G1 X70.489 Y74.988 E15.53212
G1 X70.126 Y74.765 E15.54631
G1 X69.732 Y74.607 E15.56045
G1 X69.318 Y74.517 E15.57456
G0 F2625 X69.33 Y74.418
G0 X70.143 Y74.73
G0 X70.834 Y75.241
G0 X71.268 Y75.881
G0 X72.283 Y78.667
G0 X72.377 Y78.634
G1 F900 X72.72 Y79.391 E15.60224
G1 X73.177 Y80.069 E15.62948
G1 X73.5 Y80.431 E15.64564
G1 X73.775 Y80.691 E15.65825
G1 X74.429 Y81.175 E15.68535
G1 X75.172 Y81.55 E15.71307
G1 X75.967 Y81.793 E15.74076
G1 X76.792 Y81.898 E15.76847
G1 X77.623 Y81.863 E15.79617
G1 X78.435 Y81.688 E15.82384
G1 X79.207 Y81.378 E15.85155
G1 X79.915 Y80.943 E15.87923
G1 X80.539 Y80.393 E15.90694
G1 X81.062 Y79.745 E15.93468
G1 X81.468 Y79.019 E15.96238
G1 X81.745 Y78.235 E15.99008
G1 X81.882 Y77.432 E16.01722
G1 X81.9 Y77 E16.03162
G1 X81.882 Y76.568 E16.04602
G1 X81.745 Y75.765 E16.07316
G1 X81.468 Y74.981 E16.10085
G1 X81.062 Y74.255 E16.12856
G1 X80.556 Y73.627 E16.15543
G1 X80.425 Y73.495 E16.16162
G1 X79.911 Y73.055 E16.18416
G1 X79.207 Y72.622 E16.21169
G1 X78.435 Y72.312 E16.2394
G1 X77.623 Y72.137 E16.26707
G1 X76.792 Y72.102 E16.29478
G1 X75.967 Y72.207 E16.32248
G1 X75.172 Y72.45 E16.35017
G1 X74.429 Y72.825 E16.37789
G1 X73.775 Y73.309 E16.405
G1 X73.5 Y73.569 E16.4176
G1 X73.177 Y73.931 E16.43376
G1 X72.72 Y74.609 E16.461
G1 X72.377 Y75.366 E16.48868
G1 X72.168 Y76.172 E16.51642
G1 X72.097 Y77 E16.5441
G1 X72.168 Y77.828 E16.57178
G1 X72.377 Y78.634 E16.59952
G0 F2625 X72.283 Y78.667
G0 X72.686 Y79.41
G0 X73.146 Y80.093
G0 X73.75 Y80.721
G0 X74.409 Y81.209
G0 X74.833 Y81.422
G0 X77.33 Y82.418
G0 X77.318 Y82.517
G1 F900 X76.894 Y82.5 E16.61365
G1 X76.473 Y82.553 E16.62779
G1 X76.066 Y82.677 E16.64196
G1 X75.686 Y82.869 E16.65614
G1 X75.346 Y83.122 E16.67026
G1 X75.052 Y83.428 E16.68439
G1 X74.815 Y83.78 E16.69853
G1 X74.64 Y84.166 E16.71265
G1 X74.533 Y84.578 E16.72683
G1 X74.497 Y85 E16.74093
G1 X74.533 Y85.422 E16.75504
G1 X74.64 Y85.834 E16.76922
G1 X74.815 Y86.22 E16.78334
G1 X75.052 Y86.572 E16.79747
G1 X75.346 Y86.878 E16.81161
G1 X75.686 Y87.131 E16.82573
G1 X76.066 Y87.323 E16.83991
G1 X76.473 Y87.447 E16.85408
G1 X76.894 Y87.5 E16.86822
G1 X77.318 Y87.483 E16.88235
G1 X77.732 Y87.393 E16.89646
G1 X78.126 Y87.235 E16.9106
G1 X78.489 Y87.012 E16.92479
G1 X78.806 Y86.732 E16.93888
G1 X79.073 Y86.402 E16.95302
G1 X79.281 Y86.031 E16.96719
G1 X79.423 Y85.63 E16.98136
G1 X79.491 Y85.226 E16.99501
G1 X79.5 Y85 E17.00254
G1 X79.491 Y84.774 E17.01008
G1 X79.423 Y84.37 E17.02372
G1 X79.281 Y83.969 E17.03789
G1 X79.073 Y83.598 E17.05206
G1 X78.806 Y83.268 E17.0662
