;Generated by Cura LulzBot Edition GCodeWriter Version: 3.6.18
;FLAVOR:Marlin
;TIME:3565
;Filament used: 2.55467m
;Layer height: 0.38
;Generated with Cura_SteamEngine 3.6.18
M82 ;absolute extrusion mode
;This G-Code has been generated specifically for the LulzBot Mini with standard extruder
M73 P0 ; clear GLCD progress bar
M75 ; Start GLCD Timer
G26 ; clear potential 'probe fail' condition
M107 ; disable fans
M420 S0 ; disable leveling matrix
G90 ; absolute positioning
M82 ; set extruder to absolute mode
G92 E0 ; set extruder position to 0
M140 S60.0 ; start bed heating up
G28 ; home all axes
G0 X0 Y187 Z156 F200 ; move away from endstops
M109 R140 ;
G1 E-30 F75 ; retract filament
M109 R140 ; wait for extruder to reach wiping temp
G1 X45 Y173 F11520 ; move above wiper pad
G1 Z0 F1200 ; push nozzle into wiper
G1 X42 Y173 Z-.5 F4000             ; wiping
G1 X52 Y171 Z-.5 F4000             ; wiping
G1 X42 Y173 Z0 F4000               ; wiping
G1 X52 Y171 F4000                  ; wiping
G1 X42 Y173 F4000                  ; wiping
G1 X52 Y171 F4000                  ; wiping
G1 X42 Y173 F4000                  ; wiping
G1 X52 Y171 F4000                  ; wiping
G1 X57 Y173 F4000                  ; wiping
G1 X77 Y171 F4000                  ; wiping
G1 X57 Y173 F4000                  ; wiping
G1 X77 Y171 F4000                  ; wiping
G1 X57 Y173 F4000                  ; wiping
G1 X87 Y171 F4000                  ; wiping
G1 X77 Y173 F4000                  ; wiping
G1 X97 Y171 F4000                  ; wiping
G1 X77 Y173 F4000                  ; wiping
G1 X97 Y171 F4000                  ; wiping
G1 X77 Y173 F4000                  ; wiping
G1 X97 Y171 F4000                  ; wiping
G1 X107 Y173 F4000                 ; wiping
G1 X97 Y171 F4000                  ; wiping
G1 X107 Y173 F4000                 ; wiping
G1 X97 Y171 F4000                  ; wiping
G1 X107 Y173 F4000                 ; wiping
G1 X112 Y171 Z-0.5 F1000           ; wiping
G1 Z10 ; raise extruder
G28 X0 Y0 ; home X and Y
G0 X0 Y187 F200 ; move away from endstops
M109 R140 ; wait for extruder to reach probe temp
M204 S300 ; set probing acceleration
G29       ; start auto-leveling sequence
M420 S1   ; enable leveling matrix
M425 Z	  ; use measured Z backlash for compensation
M425 Z F0 ; turn off measured Z backlash compensation. (if activated in the quality settings, this command will automatically be ignored)
M204 S2000 ; restore standard acceleration
G28 X0 Y0 ; re-home to account for build variance of earlier mini builds
G0 X0 Y187 F200 ; move away from endstops
G0 Y152 F4000 ; move in front of wiper pad
G4 S1 ; pause
M400 ; wait for moves to finish
M117 Heating... ; progress indicator message on LCD
M109 R210  ; wait for extruder to reach printing temp
M190 R60.0 ; wait for bed to reach printing temp
G1 Z2 E0 F75 ; prime tiny bit of filament into the nozzle
M117 Mini Printing... ; progress indicator message on LCD

M221 S100 T0
G92 E0
G1 F600 E-1.75
;LAYER_COUNT:47
;LAYER:0
M107
G0 F2625 X38.873 Y38.744 Z0.425
;TYPE:SKIRT
G1 F600 E0
G1 F900 X40.04 Y37.624 E0.05388
G1 X40.173 Y37.503 E0.05987
G1 X44.033 Y34.19 E0.22931
G1 X44.332 Y33.962 E0.24184
G1 X49.321 Y30.596 E0.44231
G1 X49.647 Y30.403 E0.45493
G1 X54.397 Y27.948 E0.63304
G1 X54.594 Y27.854 E0.64031
G1 X56.014 Y27.237 E0.69188
G1 X56.184 Y27.169 E0.69798
G1 X61.001 Y25.391 E0.86902
G1 X61.359 Y25.282 E0.88148
G1 X67.206 Y23.862 E1.08191
G1 X67.58 Y23.794 E1.09457
G1 X72.876 Y23.149 E1.27229
G1 X73.124 Y23.128 E1.28058
G1 X76.79 Y22.964 E1.40282
G1 X77.082 Y22.964 E1.41254
G1 X80.978 Y23.14 E1.54245
G1 X81.222 Y23.161 E1.55061
G1 X86.333 Y23.78 E1.7221
G1 X86.696 Y23.845 E1.73439
G1 X91.889 Y25.084 E1.91222
G1 X92.102 Y25.142 E1.91958
G1 X93.607 Y25.611 E1.97209
G1 X93.778 Y25.67 E1.97811
G1 X98.568 Y27.46 E2.14845
G1 X98.905 Y27.608 E2.16071
G1 X103.688 Y30.045 E2.33952
G1 X103.881 Y30.152 E2.34687
G1 X105.205 Y30.944 E2.39826
G1 X105.357 Y31.041 E2.40427
G1 X109.6 Y33.91 E2.57488
G1 X109.895 Y34.134 E2.58722
G1 X113.925 Y37.587 E2.764
G1 X114.081 Y37.731 E2.77107
G1 X115.221 Y38.845 E2.82416
G1 X115.352 Y38.98 E2.83043
G1 X118.807 Y42.772 E3.00131
G1 X119.04 Y43.058 E3.0136
G1 X122.173 Y47.397 E3.19187
G1 X122.292 Y47.574 E3.19897
G1 X123.106 Y48.873 E3.25004
G1 X123.201 Y49.035 E3.25629
G1 X125.683 Y53.557 E3.42812
G1 X125.843 Y53.892 E3.44049
G1 X127.871 Y58.856 E3.61911
G1 X127.947 Y59.063 E3.62645
G1 X128.437 Y60.542 E3.67835
G1 X128.489 Y60.713 E3.6843
G1 X129.827 Y65.644 E3.8545
G1 X129.903 Y66.007 E3.86685
G1 X130.705 Y71.287 E4.04475
G1 X130.73 Y71.496 E4.05176
G1 X130.861 Y73.018 E4.10264
G1 X130.872 Y73.206 E4.10892
G1 X131.016 Y78.356 E4.28053
G1 X131.005 Y78.726 E4.29286
G1 X130.543 Y84.08 E4.47187
G1 X130.516 Y84.301 E4.47929
G1 X130.274 Y85.854 E4.53164
G1 X130.242 Y86.03 E4.5376
G1 X129.18 Y91.024 E4.70767
G1 X129.083 Y91.38 E4.71996
G1 X127.39 Y96.438 E4.89763
G1 X127.314 Y96.641 E4.90485
G1 X126.721 Y98.085 E4.95685
G1 X126.647 Y98.253 E4.96297
G1 X124.434 Y102.877 E5.13373
G1 X124.255 Y103.202 E5.14609
G1 X121.411 Y107.734 E5.32431
G1 X121.291 Y107.911 E5.33143
G1 X120.387 Y109.161 E5.38282
G1 X120.274 Y109.308 E5.389
G1 X117.03 Y113.293 E5.56016
G1 X116.78 Y113.567 E5.57251
G1 X112.942 Y117.314 E5.75118
G1 X112.779 Y117.463 E5.75854
G1 X111.581 Y118.483 E5.81095
G1 X111.441 Y118.595 E5.81692
G1 X107.381 Y121.683 E5.98684
G1 X107.075 Y121.89 E5.99914
G1 X102.471 Y124.627 E6.17756
G1 X102.274 Y124.735 E6.18504
G1 X100.845 Y125.456 E6.23836
G1 X100.686 Y125.53 E6.2442
G1 X96.042 Y127.567 E6.41312
G1 X95.695 Y127.697 E6.42546
G1 X90.608 Y129.266 E6.60279
G1 X90.402 Y129.322 E6.6099
G1 X88.859 Y129.689 E6.66273
G1 X88.682 Y129.726 E6.66876
G1 X84.269 Y130.519 E6.81811
G1 X84.06 Y130.549 E6.82514
G1 X82.541 Y130.721 E6.87606
G1 X82.362 Y130.737 E6.88205
G1 X77.237 Y131.032 E7.05305
G1 X76.867 Y131.032 E7.06537
G1 X71.509 Y130.73 E7.24413
G1 X71.29 Y130.71 E7.25146
G1 X69.773 Y130.521 E7.30238
G1 X69.595 Y130.494 E7.30838
G1 X64.531 Y129.575 E7.47982
G1 X64.17 Y129.488 E7.49219
G1 X59.029 Y127.933 E7.6711
G1 X58.82 Y127.862 E7.67845
G1 X57.385 Y127.319 E7.72956
G1 X57.22 Y127.251 E7.7355
G1 X52.529 Y125.175 E7.90638
G1 X52.198 Y125.006 E7.91876
G1 X47.591 Y122.301 E8.09672
G1 X47.411 Y122.186 E8.10383
G1 X46.142 Y121.324 E8.15493
G1 X45.991 Y121.215 E8.16114
G1 X41.906 Y118.084 E8.33258
G1 X41.626 Y117.844 E8.34486
G1 X37.785 Y114.137 E8.52268
G1 X37.633 Y113.98 E8.52996
G1 X36.574 Y112.811 E8.5825
G1 X36.456 Y112.672 E8.58857
G1 X33.237 Y108.69 E8.75913
G1 X33.021 Y108.39 E8.77145
G1 X30.152 Y103.875 E8.94964
G1 X30.042 Y103.689 E8.95684
G1 X29.312 Y102.352 E9.00758
G1 X29.228 Y102.187 E9.01375
G1 X27.014 Y97.518 E9.18587
G1 X26.873 Y97.169 E9.19841
G1 X24.943 Y91.475 E9.39868
G1 X24.841 Y91.104 E9.4115
G1 X23.597 Y85.221 E9.61179
G1 X23.541 Y84.848 E9.62436
G1 X23.05 Y79.525 E9.80242
G1 X23.037 Y79.307 E9.8097
G1 X22.998 Y77.744 E9.86178
G1 X22.999 Y77.56 E9.86791
G1 X23.161 Y72.429 E10.03891
G1 X23.193 Y72.061 E10.05121
G1 X23.97 Y66.755 E10.22984
G1 X24.01 Y66.537 E10.23722
G1 X24.339 Y65.021 E10.2889
G1 X24.382 Y64.848 E10.29484
G1 X25.74 Y59.914 E10.4653
G1 X25.86 Y59.557 E10.47785
G1 X28.117 Y53.98 E10.67826
G1 X28.279 Y53.638 E10.69086
G1 X30.858 Y48.928 E10.86973
G1 X30.972 Y48.737 E10.87714
G1 X31.805 Y47.436 E10.9286
G1 X31.905 Y47.289 E10.93452
G1 X34.889 Y43.145 E11.10462
G1 X35.122 Y42.857 E11.11696
G1 X38.719 Y38.902 E11.29504
G1 X38.873 Y38.744 E11.30239
G1 F600 E9.55239
;MESH:
G0 F2625 X41.095 Y40.137
G0 X42.152 Y41.103
G0 X57.256 Y34.887
G0 X62.13 Y32.965
G0 X79.958 Y27.138
G0 X79.965 Y27.039
;TYPE:WALL-INNER
G1 F600 E11.30239
G1 F900 X85.848 Y27.739 E11.49974
G1 X91.617 Y29.133 E11.69744
G1 X97.179 Y31.199 E11.89508
G1 X102.448 Y33.904 E12.09237
G1 X107.372 Y37.22 E12.29011
G1 X111.861 Y41.089 E12.48752
G1 X115.863 Y45.465 E12.68505
G1 X119.318 Y50.279 E12.88243
G1 X122.184 Y55.477 E13.08015
G1 X124.414 Y60.974 E13.27776
G1 X125.974 Y66.686 E13.47499
G1 X126.85 Y72.555 E13.67266
G1 X127.027 Y78.487 E13.87034
G1 X126.501 Y84.387 E14.06765
G1 X125.278 Y90.191 E14.26523
G1 X123.379 Y95.812 E14.46287
G1 X120.827 Y101.167 E14.66046
G1 X117.666 Y106.175 E14.85773
G1 X113.926 Y110.785 E15.05547
G1 X109.674 Y114.912 E15.25285
G1 X104.96 Y118.511 E15.45041
G1 X99.86 Y121.523 E15.64771
G1 X94.418 Y123.92 E15.84579
G1 X88.755 Y125.649 E16.04302
G1 X82.925 Y126.697 E16.24033
G1 X77 Y127.048 E16.43804
G1 X71.075 Y126.697 E16.63575
G1 X65.245 Y125.649 E16.83307
G1 X59.582 Y123.92 E17.0303
G1 X54.14 Y121.523 E17.22838
G1 X49.04 Y118.511 E17.42568
G1 X44.326 Y114.912 E17.62323
G1 X40.074 Y110.785 E17.82062
G1 X36.334 Y106.175 E18.01836
G1 X33.173 Y101.167 E18.21562
G1 X30.621 Y95.812 E18.41322
G1 X28.722 Y90.191 E18.61086
G1 X27.499 Y84.387 E18.80844
G1 X26.973 Y78.487 E19.00575
G1 X27.15 Y72.555 E19.20343
G1 X28.026 Y66.686 E19.4011
G1 X29.586 Y60.974 E19.59833
G1 X31.816 Y55.477 E19.79593
G1 X34.682 Y50.279 E19.99366
G1 X38.137 Y45.465 E20.19104
G1 X42.139 Y41.089 E20.38857
G1 X46.628 Y37.22 E20.58597
G1 X51.552 Y33.904 E20.78372
G1 X56.821 Y31.199 E20.98101
G1 X62.383 Y29.133 E21.17865
G1 X68.152 Y27.739 E21.37635
G1 X74.035 Y27.039 E21.57369
G1 X77 Y26.95 E21.6725
G1 X79.965 Y27.039 E21.77131
G0 F2625 X79.958 Y27.138
G0 X62.672 Y32.751
G0 X57.256 Y34.887
G0 X52.148 Y37.685
G0 X47.431 Y41.098
G0 X43.178 Y45.073
G0 X39.454 Y49.549
G0 X36.319 Y54.455
G0 X33.82 Y59.715
G0 X31.999 Y65.244
G0 X30.883 Y70.959
G0 X30.49 Y76.768
G0 X30.825 Y82.58
G0 X31.884 Y88.306
G0 X33.65 Y93.854
G0 X36.095 Y99.137
G0 X39.182 Y104.076
G0 X42.86 Y108.588
G0 X47.27 Y112.787
G0 X67.88 Y113.78
G0 X67.95 Y113.85
G1 F900 X67.95 Y119.05 E21.94453
G1 X86.05 Y119.05 E22.54745
G1 X86.05 Y113.85 E22.72066
G1 X67.95 Y113.85 E23.32358
G0 F2625 X67.88 Y113.78
G0 X106.753 Y112.842
G0 X106.716 Y112.75
G1 F900 X111.111 Y108.561 E23.52582
G1 X114.786 Y104.053 E23.71956
G1 X117.87 Y99.118 E23.91341
G1 X120.313 Y93.84 E24.10714
G1 X122.078 Y88.297 E24.30091
G1 X123.136 Y82.576 E24.49471
G1 X123.47 Y76.768 E24.6885
G1 X123.078 Y70.964 E24.88227
G1 X121.963 Y65.254 E25.07607
G1 X120.143 Y59.729 E25.26983
G1 X117.647 Y54.474 E25.46362
G1 X114.514 Y49.572 E25.65741
G1 X110.793 Y45.1 E25.8512
G1 X106.544 Y41.128 E26.04495
G1 X101.831 Y37.718 E26.23872
G1 X96.728 Y34.923 E26.43253
G1 X91.316 Y32.789 E26.62631
G1 X85.681 Y31.347 E26.82007
G1 X79.909 Y30.62 E27.01385
G1 X74.091 Y30.62 E27.20765
G1 X68.319 Y31.347 E27.40144
G1 X62.684 Y32.789 E27.59519
G1 X57.272 Y34.923 E27.78898
G1 X52.169 Y37.718 E27.98279
G1 X47.456 Y41.128 E28.17656
G1 X43.207 Y45.1 E28.37031
G1 X39.486 Y49.572 E28.56409
G1 X36.353 Y54.474 E28.75788
G1 X33.857 Y59.729 E28.95167
G1 X32.037 Y65.254 E29.14544
G1 X30.922 Y70.964 E29.33923
G1 X30.53 Y76.768 E29.53301
G1 X30.864 Y82.576 E29.72679
G1 X31.922 Y88.297 E29.92059
G1 X33.687 Y93.84 E30.11437
G1 X36.13 Y99.118 E30.3081
G1 X39.214 Y104.053 E30.50195
G1 X42.889 Y108.561 E30.69568
G1 X47.284 Y112.75 E30.89793
G1 X106.716 Y112.75 E32.87763
G0 F2625 X106.516 Y112.25
;TYPE:WALL-OUTER
G1 F900 X110.743 Y108.221 E33.07215
G1 X114.379 Y103.761 E33.26383
G1 X117.429 Y98.88 E33.45555
G1 X119.846 Y93.658 E33.64722
G1 X121.592 Y88.175 E33.8389
G1 X122.639 Y82.516 E34.0306
G1 X122.969 Y76.771 E34.22229
G1 X122.581 Y71.029 E34.41399
G1 X121.478 Y65.381 E34.60568
G1 X119.678 Y59.915 E34.79737
G1 X117.209 Y54.717 E34.98906
G1 X114.11 Y49.868 E35.18075
G1 X110.429 Y45.444 E35.37246
G1 X106.225 Y41.515 E35.56413
G1 X101.563 Y38.141 E35.75583
G1 X96.515 Y35.377 E35.94753
G1 X91.162 Y33.266 E36.13921
G1 X85.587 Y31.839 E36.3309
G1 X79.878 Y31.12 E36.52257
G1 X74.122 Y31.12 E36.71431
G1 X68.413 Y31.839 E36.90598
G1 X62.838 Y33.266 E37.09767
G1 X57.485 Y35.377 E37.28934
G1 X52.437 Y38.141 E37.48105
G1 X47.775 Y41.515 E37.67275
G1 X43.571 Y45.444 E37.86442
G1 X39.89 Y49.868 E38.05613
G1 X36.791 Y54.717 E38.24782
G1 X34.322 Y59.915 E38.4395
G1 X32.522 Y65.381 E38.6312
G1 X31.419 Y71.029 E38.82289
G1 X31.031 Y76.771 E39.01459
G1 X31.361 Y82.516 E39.20628
G1 X32.408 Y88.175 E39.39798
G1 X34.154 Y93.658 E39.58966
G1 X36.571 Y98.88 E39.78133
G1 X39.621 Y103.761 E39.97305
G1 X43.257 Y108.221 E40.16473
G1 X47.484 Y112.25 E40.35925
G1 X106.516 Y112.25 E42.32562
G0 F2625 X106.696 Y112.078
G0 X107.11 Y112.513
G0 X106.769 Y112.759
G0 X68.45 Y113.75
G0 X68.45 Y114.35
G1 F900 X68.45 Y118.55 E42.46553
G1 X85.55 Y118.55 E43.03514
G1 X85.55 Y114.35 E43.17504
G1 X68.45 Y114.35 E43.74465
G0 F2625 X68.45 Y114.6
G0 X67.85 Y114.6
G0 X47.27 Y112.787
G0 X42.86 Y108.588
G0 X39.182 Y104.076
G0 X36.095 Y99.137
G0 X33.65 Y93.854
G0 X31.884 Y88.306
G0 X30.825 Y82.58
G0 X30.49 Y76.768
G0 X30.883 Y70.959
G0 X31.999 Y65.244
G0 X33.82 Y59.715
G0 X36.319 Y54.455
G0 X39.454 Y49.549
G0 X43.178 Y45.073
G0 X47.431 Y41.098
G0 X52.148 Y37.685
G0 X57.256 Y34.887
G0 X62.13 Y32.965
G0 X79.958 Y27.138
G0 X79.994 Y26.539
G1 F900 X85.94 Y27.247 E43.94411
G1 X91.766 Y28.655 E44.14376
G1 X97.379 Y30.74 E44.34322
G1 X102.703 Y33.473 E44.54256
G1 X107.675 Y36.821 E44.74223
G1 X112.209 Y40.729 E44.94162
G1 X116.251 Y45.148 E45.14111
G1 X119.743 Y50.015 E45.34064
G1 X122.635 Y55.26 E45.54015
G1 X124.888 Y60.814 E45.7398
G1 X126.466 Y66.589 E45.93922
G1 X127.349 Y72.508 E46.13856
G1 X127.528 Y78.499 E46.33822
G1 X126.996 Y84.459 E46.53753
G1 X125.76 Y90.327 E46.73729
G1 X123.845 Y95.995 E46.93658
G1 X121.263 Y101.413 E47.1365
G1 X118.075 Y106.464 E47.33546
G1 X114.294 Y111.124 E47.53535
G1 X110.004 Y115.288 E47.7345
G1 X105.234 Y118.93 E47.93441
G1 X100.087 Y121.97 E48.13353
G1 X94.599 Y124.387 E48.33328
G1 X88.873 Y126.136 E48.53272
G1 X82.983 Y127.194 E48.73205
G1 X77 Y127.549 E48.9317
G1 X71.017 Y127.194 E49.13135
G1 X65.127 Y126.136 E49.33068
G1 X59.401 Y124.387 E49.53012
G1 X53.913 Y121.97 E49.72987
G1 X48.766 Y118.93 E49.92899
G1 X43.996 Y115.288 E50.1289
G1 X39.706 Y111.124 E50.32805
G1 X35.925 Y106.464 E50.52794
G1 X32.737 Y101.413 E50.7269
G1 X30.155 Y95.995 E50.92682
G1 X28.24 Y90.327 E51.12611
G1 X27.004 Y84.459 E51.32587
G1 X26.472 Y78.499 E51.52519
G1 X26.651 Y72.508 E51.72484
G1 X27.534 Y66.589 E51.92418
G1 X29.112 Y60.814 E52.1236
G1 X31.365 Y55.26 E52.32325
G1 X34.257 Y50.015 E52.52276
G1 X37.749 Y45.148 E52.7223
G1 X41.791 Y40.729 E52.92178
G1 X46.325 Y36.821 E53.12117
G1 X51.297 Y33.473 E53.32084
G1 X56.621 Y30.74 E53.52019
G1 X62.234 Y28.655 E53.71964
G1 X68.06 Y27.247 E53.91929
G1 X74.006 Y26.539 E54.11875
G1 X77 Y26.45 E54.21853
G1 X79.994 Y26.539 E54.31831
G0 F2625 X80.242 Y26.568
G0 X80.171 Y27.163
G0 X79.937 Y27.529
;TYPE:SKIN
G1 F900 X85.76 Y28.221 E54.51364
G1 X91.473 Y29.602 E54.70942
G1 X96.978 Y31.647 E54.90504
G1 X102.201 Y34.328 E55.1006
G1 X107.073 Y37.609 E55.29626
G1 X111.52 Y41.442 E55.49182
G1 X115.48 Y45.772 E55.68728
G1 X118.902 Y50.541 E55.8828
G1 X121.742 Y55.69 E56.07867
G1 X123.948 Y61.128 E56.27415
G1 X125.495 Y66.795 E56.46983
G1 X126.36 Y72.591 E56.66503
G1 X126.537 Y78.475 E56.86112
G1 X126.017 Y84.308 E57.05619
G1 X124.802 Y90.069 E57.25231
G1 X122.927 Y95.621 E57.44751
G1 X120.391 Y100.939 E57.64377
G1 X117.27 Y105.887 E57.83864
G1 X113.562 Y110.457 E58.03467
G1 X109.362 Y114.532 E58.2296
G1 X104.68 Y118.108 E58.42585
G1 X99.641 Y121.083 E58.62077
G1 X94.244 Y123.46 E58.81721
G1 X88.634 Y125.174 E59.01261
G1 X82.877 Y126.209 E59.20745
G1 X77 Y126.556 E59.40356
G1 X71.123 Y126.209 E59.59966
G1 X65.366 Y125.174 E59.7945
G1 X59.756 Y123.46 E59.9899
G1 X54.359 Y121.083 E60.18634
G1 X49.32 Y118.108 E60.38126
G1 X44.638 Y114.532 E60.57751
G1 X40.438 Y110.457 E60.77244
G1 X36.73 Y105.887 E60.96848
G1 X33.609 Y100.939 E61.16334
G1 X31.073 Y95.621 E61.3596
G1 X29.198 Y90.069 E61.5548
G1 X27.983 Y84.308 E61.75092
G1 X27.463 Y78.475 E61.94599
G1 X27.64 Y72.591 E62.14208
G1 X28.505 Y66.795 E62.33728
G1 X30.052 Y61.128 E62.53296
G1 X32.258 Y55.69 E62.72844
G1 X35.098 Y50.541 E62.92431
G1 X38.52 Y45.772 E63.11984
G1 X42.48 Y41.442 E63.31529
G1 X46.927 Y37.609 E63.51086
G1 X51.799 Y34.328 E63.70651
G1 X57.022 Y31.647 E63.90208
G1 X62.527 Y29.602 E64.09769
G1 X68.24 Y28.221 E64.29348
G1 X74.063 Y27.529 E64.48881
