;Generated by Cura LulzBot Edition GCodeWriter Version: 3.6.18
;FLAVOR:Marlin
;TIME:2781
;Filament used: 0.931014m
;Layer height: 0.25
;Generated with Cura_SteamEngine 3.6.18
M82 ;absolute extrusion mode
;This G-Code has been generated specifically for the LulzBot Mini with standard extruder
M73 P0 ; clear GLCD progress bar
M75 ; Start GLCD Timer
G26 ; clear potential 'probe fail' condition
M107 ; disable fans
M420 S0 ; disable leveling matrix
G90 ; absolute positioning
M82 ; set extruder to absolute mode
G92 E0 ; set extruder position to 0
M140 S60.0 ; start bed heating up
G28 ; home all axes
G0 X0 Y187 Z156 F200 ; move away from endstops
M109 R140 ;
G1 E-30 F75 ; retract filament
M109 R140 ; wait for extruder to reach wiping temp
G1 X45 Y173 F11520 ; move above wiper pad
G1 Z0 F1200 ; push nozzle into wiper
G1 X42 Y173 Z-.5 F4000             ; wiping
G1 X52 Y171 Z-.5 F4000             ; wiping
G1 X42 Y173 Z0 F4000               ; wiping
G1 X52 Y171 F4000                  ; wiping
G1 X42 Y173 F4000                  ; wiping
G1 X52 Y171 F4000                  ; wiping
G1 X42 Y173 F4000                  ; wiping
G1 X52 Y171 F4000                  ; wiping
G1 X57 Y173 F4000                  ; wiping
G1 X77 Y171 F4000                  ; wiping
G1 X57 Y173 F4000                  ; wiping
G1 X77 Y171 F4000                  ; wiping
G1 X57 Y173 F4000                  ; wiping
G1 X87 Y171 F4000                  ; wiping
G1 X77 Y173 F4000                  ; wiping
G1 X97 Y171 F4000                  ; wiping
G1 X77 Y173 F4000                  ; wiping
G1 X97 Y171 F4000                  ; wiping
G1 X77 Y173 F4000                  ; wiping
G1 X97 Y171 F4000                  ; wiping
G1 X107 Y173 F4000                 ; wiping
G1 X97 Y171 F4000                  ; wiping
G1 X107 Y173 F4000                 ; wiping
G1 X97 Y171 F4000                  ; wiping
G1 X107 Y173 F4000                 ; wiping
G1 X112 Y171 Z-0.5 F1000           ; wiping
G1 Z10 ; raise extruder
G28 X0 Y0 ; home X and Y
G0 X0 Y187 F200 ; move away from endstops
M109 R140 ; wait for extruder to reach probe temp
M204 S300 ; set probing acceleration
G29       ; start auto-leveling sequence
M420 S1   ; enable leveling matrix
M425 Z	  ; use measured Z backlash for compensation
M425 Z F0 ; turn off measured Z backlash compensation. (if activated in the quality settings, this command will automatically be ignored)
M204 S2000 ; restore standard acceleration
G28 X0 Y0 ; re-home to account for build variance of earlier mini builds
G0 X0 Y187 F200 ; move away from endstops
G0 Y152 F4000 ; move in front of wiper pad
G4 S1 ; pause
M400 ; wait for moves to finish
M117 Heating... ; progress indicator message on LCD
M109 R205  ; wait for extruder to reach printing temp
M190 R60.0 ; wait for bed to reach printing temp
G1 Z2 E0 F75 ; prime tiny bit of filament into the nozzle
M117 Mini Printing... ; progress indicator message on LCD

M221 S100 T0
G92 E0
G1 F600 E-1.75
;LAYER_COUNT:90
;LAYER:0
M107
G0 F2625 X48.586 Y42.392 Z0.425
;TYPE:SKIRT
G1 F600 E0
G1 F900 X48.98 Y42.012 E0.01823
G1 X49.425 Y41.693 E0.03647
G1 X49.912 Y41.443 E0.05471
G1 X50.43 Y41.266 E0.07294
G1 X50.968 Y41.167 E0.09116
G1 X51.379 Y41.144 E0.10487
G1 X67.364 Y41.145 E0.63734
G1 X67.91 Y41.185 E0.65558
G1 X68.444 Y41.304 E0.6738
G1 X68.956 Y41.5 E0.69206
G1 X69.433 Y41.767 E0.71027
G1 X69.866 Y42.102 E0.72851
G1 X70.246 Y42.496 E0.74674
G1 X70.565 Y42.941 E0.76498
G1 X70.83 Y43.462 E0.78445
G1 X73.411 Y49.706 E1.00951
G1 X75.786 Y54.579 E1.19008
G1 X78.449 Y59.338 E1.37174
G1 X81.373 Y63.935 E1.55322
G1 X82.915 Y66.143 E1.64293
G1 X86.235 Y70.496 E1.82529
G1 X89.767 Y74.621 E2.00618
G1 X93.537 Y78.55 E2.18756
G1 X97.545 Y82.28 E2.36994
G1 X99.581 Y84.019 E2.45913
G1 X104.919 Y88.16 E2.68417
G1 X105.326 Y88.526 E2.7024
G1 X105.676 Y88.948 E2.72067
G1 X105.96 Y89.415 E2.73887
G1 X106.173 Y89.92 E2.75713
G1 X106.31 Y90.45 E2.77537
G1 X106.371 Y91.123 E2.79788
G1 X106.371 Y109.106 E3.3969
G1 X106.331 Y109.652 E3.41513
G1 X106.212 Y110.186 E3.43336
G1 X106.017 Y110.697 E3.45157
G1 X105.749 Y111.175 E3.46983
G1 X105.414 Y111.608 E3.48806
G1 X105.02 Y111.988 E3.5063
G1 X104.575 Y112.307 E3.52454
G1 X104.088 Y112.557 E3.54277
G1 X103.57 Y112.734 E3.56101
G1 X103.032 Y112.833 E3.57923
G1 X102.621 Y112.856 E3.59294
G1 X81.398 Y112.855 E4.29989
G1 X80.792 Y112.806 E4.32014
G1 X73.669 Y111.639 E4.56057
G1 X68.235 Y111.101 E4.74246
G1 X65.559 Y110.951 E4.83174
G1 X61.473 Y110.865 E4.96788
G1 X51.375 Y110.855 E5.30425
G1 X50.829 Y110.815 E5.32248
G1 X50.295 Y110.695 E5.34071
G1 X49.784 Y110.499 E5.35895
G1 X49.307 Y110.231 E5.37717
G1 X48.874 Y109.896 E5.39541
G1 X48.495 Y109.501 E5.41364
G1 X48.176 Y109.056 E5.43188
G1 X47.927 Y108.569 E5.4501
G1 X47.75 Y108.051 E5.46833
G1 X47.651 Y107.513 E5.48656
G1 X47.629 Y107.105 E5.50017
G1 X47.629 Y44.894 E7.57244
G1 X47.669 Y44.348 E7.59067
G1 X47.788 Y43.814 E7.6089
G1 X47.983 Y43.303 E7.62712
G1 X48.251 Y42.825 E7.64537
G1 X48.586 Y42.392 E7.66361
G0 F2625 X49.079 Y42.598
G1 F900 X49.466 Y42.266 E7.68059
G1 X49.901 Y42 E7.69758
G1 X50.371 Y41.804 E7.71454
G1 X50.866 Y41.685 E7.7315
G1 X51.379 Y41.644 E7.74864
G1 X67.364 Y41.645 E8.28111
G1 X67.872 Y41.685 E8.29808
G1 X68.368 Y41.804 E8.31507
G1 X68.838 Y41.999 E8.33202
G1 X69.273 Y42.265 E8.349
G1 X69.661 Y42.595 E8.36597
G1 X69.992 Y42.983 E8.38296
G1 X70.258 Y43.417 E8.39992
G1 X70.368 Y43.653 E8.40859
G1 X72.958 Y49.919 E8.63444
G1 X75.343 Y54.812 E8.81576
G1 X78.019 Y59.594 E8.99829
G1 X80.957 Y64.213 E9.18064
G1 X82.507 Y66.433 E9.27083
G1 X85.835 Y70.797 E9.45364
G1 X89.406 Y74.967 E9.63652
G1 X93.188 Y78.909 E9.81849
G1 X97.208 Y82.65 E10.00141
G1 X99.259 Y84.402 E10.09126
G1 X104.613 Y88.555 E10.31697
G1 X104.99 Y88.898 E10.33395
G1 X105.309 Y89.296 E10.35094
G1 X105.561 Y89.738 E10.36789
G1 X105.741 Y90.215 E10.38487
G1 X105.845 Y90.713 E10.40182
G1 X105.871 Y91.123 E10.4155
G1 X105.871 Y109.106 E11.01452
G1 X105.831 Y109.614 E11.03149
G1 X105.712 Y110.109 E11.04845
G1 X105.517 Y110.58 E11.06543
G1 X105.251 Y111.015 E11.08242
G1 X104.921 Y111.402 E11.09936
G1 X104.534 Y111.734 E11.11634
G1 X104.099 Y112 E11.13333
G1 X103.629 Y112.196 E11.15029
G1 X103.134 Y112.315 E11.16725
G1 X102.621 Y112.356 E11.18439
G1 X81.398 Y112.355 E11.89134
G1 X80.873 Y112.312 E11.90888
G1 X73.737 Y111.143 E12.14976
G1 X68.288 Y110.604 E12.33215
G1 X65.569 Y110.451 E12.42286
G1 X61.485 Y110.365 E12.55893
G1 X51.376 Y110.355 E12.89567
G1 X50.868 Y110.315 E12.91264
G1 X50.373 Y110.195 E12.92961
G1 X49.902 Y110 E12.94659
G1 X49.468 Y109.734 E12.96355
G1 X49.08 Y109.403 E12.98053
G1 X48.749 Y109.015 E12.99752
G1 X48.483 Y108.581 E13.01448
G1 X48.288 Y108.11 E13.03146
G1 X48.169 Y107.614 E13.04845
G1 X48.129 Y107.105 E13.06546
G1 X48.129 Y44.894 E15.13773
G1 X48.169 Y44.386 E15.1547
G1 X48.288 Y43.891 E15.17166
G1 X48.483 Y43.42 E15.18864
G1 X48.749 Y42.985 E15.20563
G1 X49.079 Y42.598 E15.22257
G1 F600 E13.47257
;MESH:
G0 F2625 X50.705 Y45.649
G0 X52.134 Y45.649
G0 X66.55 Y91.935
G0 X66.62 Y91.865
;TYPE:WALL-INNER
G1 F600 E15.22257
G1 F900 X101.88 Y91.865 E16.39709
G1 X101.88 Y108.365 E16.94671
G1 X82.14 Y108.365 E17.60426
G1 X82.14 Y106.365 E17.67088
G1 X52.12 Y106.365 E18.67086
G1 X52.12 Y45.635 E20.69379
G1 X66.62 Y45.635 E21.17679
G1 X66.62 Y91.865 E22.71673
G0 F2625 X67.12 Y91.365
;TYPE:WALL-OUTER
G1 F900 X102.38 Y91.365 E23.89125
G1 X102.38 Y108.865 E24.47419
G1 X81.64 Y108.865 E25.16504
G1 X81.64 Y106.865 E25.23166
G1 X51.62 Y106.865 E26.23164
G1 X51.62 Y45.135 E28.28789
G1 X67.12 Y45.135 E28.8042
G1 X67.12 Y91.365 E30.34414
G0 F2625 X67.37 Y91.365
G0 X67.37 Y91.965
G0 X66.13 Y92.355
;TYPE:SKIN
G1 F900 X101.39 Y92.355 E31.51866
G1 X101.39 Y107.875 E32.03564
G1 X82.63 Y107.875 E32.66054
G1 X82.63 Y105.875 E32.72716
G1 X52.61 Y105.875 E33.72714
G1 X52.61 Y46.125 E35.71743
G1 X66.13 Y46.125 E36.16779
G1 X66.13 Y92.355 E37.70773
G0 F2625 X53.322 Y105.648
G1 F900 X52.834 Y105.16 E37.73071
G0 F2625 X52.834 Y104.453
G1 F900 X54.03 Y105.648 E37.78703
G0 F2625 X54.737 Y105.648
G1 F900 X52.834 Y103.745 E37.87668
G0 F2625 X52.834 Y103.038
G1 F900 X55.444 Y105.648 E37.99963
G0 F2625 X56.151 Y105.648
G1 F900 X52.834 Y102.331 E38.15589
G0 F2625 X52.834 Y101.624
G1 F900 X56.858 Y105.648 E38.34545
G0 F2625 X57.565 Y105.648
G1 F900 X52.834 Y100.917 E38.56832
G0 F2625 X52.834 Y100.21
G1 F900 X58.272 Y105.648 E38.82449
G0 F2625 X58.979 Y105.648
G1 F900 X52.834 Y99.503 E39.11397
G0 F2625 X52.834 Y98.796
G1 F900 X59.686 Y105.648 E39.43675
G0 F2625 X60.393 Y105.648
G1 F900 X52.834 Y98.089 E39.79284
G0 F2625 X52.834 Y97.382
G1 F900 X61.101 Y105.648 E40.18226
G0 F2625 X61.808 Y105.648
G1 F900 X52.834 Y96.674 E40.60501
G0 F2625 X52.834 Y95.967
G1 F900 X62.515 Y105.648 E41.06106
G0 F2625 X63.222 Y105.648
G1 F900 X52.834 Y95.26 E41.55042
G0 F2625 X52.834 Y94.553
G1 F900 X63.929 Y105.648 E42.07308
G0 F2625 X64.636 Y105.648
G1 F900 X52.834 Y93.846 E42.62905
G0 F2625 X52.834 Y93.139
G1 F900 X65.343 Y105.648 E43.21832
G0 F2625 X66.05 Y105.648
G1 F900 X52.834 Y92.432 E43.8409
G0 F2625 X52.834 Y91.725
G1 F900 X66.757 Y105.648 E44.49678
G0 F2625 X67.465 Y105.648
G1 F900 X52.834 Y91.018 E45.186
G0 F2625 X52.834 Y90.31
G1 F900 X68.172 Y105.648 E45.90854
G0 F2625 X68.879 Y105.648
G1 F900 X52.834 Y89.603 E46.66439
G0 F2625 X52.834 Y88.896
G1 F900 X69.586 Y105.648 E47.45354
G0 F2625 X70.293 Y105.648
G1 F900 X52.834 Y88.189 E48.276
G0 F2625 X52.834 Y87.482
G1 F900 X71 Y105.648 E49.13176
G0 F2625 X71.707 Y105.648
G1 F900 X52.834 Y86.775 E50.02083
G0 F2625 X52.834 Y86.068
G1 F900 X72.414 Y105.648 E50.9432
G0 F2625 X73.121 Y105.648
G1 F900 X52.834 Y85.361 E51.89888
G0 F2625 X52.834 Y84.654
G1 F900 X73.829 Y105.648 E52.88789
G0 F2625 X74.536 Y105.648
G1 F900 X52.834 Y83.947 E53.9102
G0 F2625 X52.834 Y83.239
G1 F900 X75.243 Y105.648 E54.96585
G0 F2625 X75.95 Y105.648
G1 F900 X52.834 Y82.532 E56.05479
G0 F2625 X52.834 Y81.825
G1 F900 X76.657 Y105.648 E57.17705
G0 F2625 X77.364 Y105.648
G1 F900 X52.834 Y81.118 E58.33261
G0 F2625 X52.834 Y80.411
G1 F900 X78.071 Y105.648 E59.52147
G0 F2625 X78.778 Y105.648
G1 F900 X52.834 Y79.704 E60.74364
G0 F2625 X52.834 Y78.997
G1 F900 X65.904 Y92.067 E61.35934
G0 F2625 X65.904 Y91.36
G1 F900 X52.834 Y78.29 E61.97504
G0 F2625 X52.834 Y77.583
G1 F900 X65.904 Y90.653 E62.59074
G0 F2625 X65.904 Y89.946
G1 F900 X52.834 Y76.875 E63.20647
G0 F2625 X52.834 Y76.168
G1 F900 X65.904 Y89.238 E63.82217
G0 F2625 X65.904 Y88.531
G1 F900 X52.834 Y75.461 E64.43787
G0 F2625 X52.834 Y74.754
G1 F900 X65.904 Y87.824 E65.05357
G0 F2625 X65.904 Y87.117
G1 F900 X52.834 Y74.047 E65.66927
G0 F2625 X52.834 Y73.34
G1 F900 X65.904 Y86.41 E66.28497
G0 F2625 X65.904 Y85.703
G1 F900 X52.834 Y72.633 E66.90067
G0 F2625 X52.834 Y71.926
G1 F900 X65.904 Y84.996 E67.51637
G0 F2625 X65.904 Y84.289
G1 F900 X52.834 Y71.219 E68.13207
G0 F2625 X52.834 Y70.511
G1 F900 X65.904 Y83.582 E68.7478
G0 F2625 X65.904 Y82.875
G1 F900 X52.834 Y69.804 E69.36352
G0 F2625 X52.834 Y69.097
G1 F900 X65.904 Y82.167 E69.97923
G0 F2625 X65.904 Y81.46
G1 F900 X52.834 Y68.39 E70.59493
G0 F2625 X52.834 Y67.683
G1 F900 X65.904 Y80.753 E71.21063
G0 F2625 X65.904 Y80.046
G1 F900 X52.834 Y66.976 E71.82633
G0 F2625 X52.834 Y66.269
G1 F900 X65.904 Y79.339 E72.44203
G0 F2625 X65.904 Y78.632
G1 F900 X52.834 Y65.562 E73.05773
G0 F2625 X52.834 Y64.855
G1 F900 X65.904 Y77.925 E73.67343
G0 F2625 X65.904 Y77.218
G1 F900 X52.834 Y64.148 E74.28913
G0 F2625 X52.834 Y63.44
G1 F900 X65.904 Y76.511 E74.90486
G0 F2625 X65.904 Y75.803
G1 F900 X52.834 Y62.733 E75.52056
G0 F2625 X52.834 Y62.026
G1 F900 X65.904 Y75.096 E76.13626
G0 F2625 X65.904 Y74.389
G1 F900 X52.834 Y61.319 E76.75196
G0 F2625 X52.834 Y60.612
G1 F900 X65.904 Y73.682 E77.36766
G0 F2625 X65.904 Y72.975
G1 F900 X52.834 Y59.905 E77.98336
G0 F2625 X52.834 Y59.198
G1 F900 X65.904 Y72.268 E78.59906
G0 F2625 X65.904 Y71.561
G1 F900 X52.834 Y58.491 E79.21476
G0 F2625 X52.834 Y57.784
G1 F900 X65.904 Y70.854 E79.83047
G0 F2625 X65.904 Y70.147
G1 F900 X52.834 Y57.076 E80.44619
G0 F2625 X52.834 Y56.369
G1 F900 X65.904 Y69.44 E81.06192
G0 F2625 X65.904 Y68.732
G1 F900 X52.834 Y55.662 E81.67762
G0 F2625 X52.834 Y54.955
G1 F900 X65.904 Y68.025 E82.29332
G0 F2625 X65.904 Y67.318
G1 F900 X52.834 Y54.248 E82.90902
G0 F2625 X52.834 Y53.541
G1 F900 X65.904 Y66.611 E83.52472
G0 F2625 X65.904 Y65.904
G1 F900 X52.834 Y52.834 E84.14042
G0 F2625 X52.834 Y52.127
G1 F900 X65.904 Y65.197 E84.75612
G0 F2625 X65.904 Y64.49
G1 F900 X52.834 Y51.42 E85.37182
G0 F2625 X52.834 Y50.712
G1 F900 X65.904 Y63.783 E85.98755
G0 F2625 X65.904 Y63.076
G1 F900 X52.834 Y50.005 E86.60327
G0 F2625 X52.834 Y49.298
G1 F900 X65.904 Y62.368 E87.21897
G0 F2625 X65.904 Y61.661
G1 F900 X52.834 Y48.591 E87.83467
G0 F2625 X52.834 Y47.884
G1 F900 X65.904 Y60.954 E88.45038
G0 F2625 X65.904 Y60.247
G1 F900 X52.834 Y47.177 E89.06608
G0 F2625 X52.834 Y46.47
G1 F900 X65.904 Y59.54 E89.68178
G0 F2625 X65.904 Y58.833
G1 F900 X53.421 Y46.35 E90.26983
G0 F2625 X54.128 Y46.35
G1 F900 X65.904 Y58.126 E90.82457
G0 F2625 X65.904 Y57.419
G1 F900 X54.835 Y46.35 E91.34601
G0 F2625 X55.542 Y46.35
G1 F900 X65.904 Y56.712 E91.83414
G0 F2625 X65.904 Y56.004
G1 F900 X56.249 Y46.35 E92.28894
G0 F2625 X56.956 Y46.35
G1 F900 X65.904 Y55.297 E92.71044
G0 F2625 X65.904 Y54.59
G1 F900 X57.663 Y46.35 E93.09864
G0 F2625 X58.37 Y46.35
G1 F900 X65.904 Y53.883 E93.45352
G0 F2625 X65.904 Y53.176
G1 F900 X59.078 Y46.35 E93.77508
G0 F2625 X59.785 Y46.35
G1 F900 X65.904 Y52.469 E94.06334
G0 F2625 X65.904 Y51.762
G1 F900 X60.492 Y46.35 E94.31828
G0 F2625 X61.199 Y46.35
G1 F900 X65.904 Y51.055 E94.53993
G0 F2625 X65.904 Y50.348
G1 F900 X61.906 Y46.35 E94.72827
G0 F2625 X62.613 Y46.35
G1 F900 X65.904 Y49.641 E94.8833
G0 F2625 X65.904 Y48.933
G1 F900 X63.32 Y46.35 E95.005
G0 F2625 X64.027 Y46.35
G1 F900 X65.904 Y48.226 E95.0934
G0 F2625 X65.904 Y47.519
G1 F900 X64.734 Y46.35 E95.14849
G0 F2625 X65.442 Y46.35
G1 F900 X65.904 Y46.812 E95.17026
G0 F2625 X66.417 Y92.58
G1 F900 X79.485 Y105.648 E95.78586
G0 F2625 X80.192 Y105.648
G1 F900 X67.124 Y92.58 E96.40147
G0 F2625 X67.831 Y92.58
G1 F900 X80.9 Y105.648 E97.0171
G0 F2625 X81.607 Y105.648
G1 F900 X68.538 Y92.58 E97.63273
G0 F2625 X69.245 Y92.58
G1 F900 X82.314 Y105.648 E98.24836
G0 F2625 X82.855 Y106.189
G1 F900 X84.314 Y107.649 E98.31711
G0 F2625 X85.021 Y107.649
G1 F900 X69.952 Y92.58 E99.02698
G0 F2625 X70.659 Y92.58
G1 F900 X85.728 Y107.649 E99.73685
G0 F2625 X86.436 Y107.649
G1 F900 X71.366 Y92.58 E100.44675
G0 F2625 X72.073 Y92.58
G1 F900 X87.143 Y107.649 E101.15664
G0 F2625 X87.85 Y107.649
G1 F900 X72.781 Y92.58 E101.86651
G0 F2625 X73.488 Y92.58
G1 F900 X88.557 Y107.649 E102.57638
G0 F2625 X89.264 Y107.649
G1 F900 X74.195 Y92.58 E103.28625
G0 F2625 X74.902 Y92.58
G1 F900 X89.971 Y107.649 E103.99612
G0 F2625 X90.678 Y107.649
G1 F900 X75.609 Y92.58 E104.70599
G0 F2625 X76.316 Y92.58
G1 F900 X91.385 Y107.649 E105.41586
G0 F2625 X92.092 Y107.649
G1 F900 X77.023 Y92.58 E106.12573
G0 F2625 X77.73 Y92.58
G1 F900 X92.799 Y107.649 E106.8356
G0 F2625 X93.507 Y107.649
G1 F900 X78.437 Y92.58 E107.54549
G0 F2625 X79.145 Y92.58
G1 F900 X94.214 Y107.649 E108.25536
G0 F2625 X94.921 Y107.649
G1 F900 X79.852 Y92.58 E108.96523
G0 F2625 X80.559 Y92.58
G1 F900 X95.628 Y107.649 E109.6751
G0 F2625 X96.335 Y107.649
G1 F900 X81.266 Y92.58 E110.38497
G0 F2625 X81.973 Y92.58
G1 F900 X97.042 Y107.649 E111.09484
G0 F2625 X97.749 Y107.649
G1 F900 X82.68 Y92.58 E111.80471
G0 F2625 X83.387 Y92.58
G1 F900 X98.456 Y107.649 E112.51458
G0 F2625 X99.163 Y107.649
G1 F900 X84.094 Y92.58 E113.22445
G0 F2625 X84.801 Y92.58
G1 F900 X99.871 Y107.649 E113.93435
G0 F2625 X100.578 Y107.649
G1 F900 X85.509 Y92.58 E114.64422
G0 F2625 X86.216 Y92.58
G1 F900 X101.165 Y107.529 E115.34843
G0 F2625 X101.165 Y106.821
G1 F900 X86.923 Y92.58 E116.01932
G0 F2625 X87.63 Y92.58
G1 F900 X101.165 Y106.114 E116.6569
G0 F2625 X101.165 Y105.407
G1 F900 X88.337 Y92.58 E117.26118
G0 F2625 X89.044 Y92.58
G1 F900 X101.165 Y104.7 E117.83215
G0 F2625 X101.165 Y103.993
G1 F900 X89.751 Y92.58 E118.36982
G0 F2625 X90.458 Y92.58
