;Generated by Cura LulzBot Edition GCodeWriter Version: 3.6.18
;FLAVOR:Marlin
;TIME:7467
;Filament used: 4.78757m
;Layer height: 0.25
;Generated with Cura_SteamEngine 3.6.18
M82 ;absolute extrusion mode
;This G-Code has been generated specifically for the LulzBot Mini with standard extruder
M73 P0 ; clear GLCD progress bar
M75 ; Start GLCD Timer
G26 ; clear potential 'probe fail' condition
M107 ; disable fans
M420 S0 ; disable leveling matrix
G90 ; absolute positioning
M82 ; set extruder to absolute mode
G92 E0 ; set extruder position to 0
M140 S60.0 ; start bed heating up
G28 ; home all axes
G0 X0 Y187 Z156 F200 ; move away from endstops
M109 R140 ;
G1 E-30 F75 ; retract filament
M109 R140 ; wait for extruder to reach wiping temp
G1 X45 Y173 F11520 ; move above wiper pad
G1 Z0 F1200 ; push nozzle into wiper
G1 X42 Y173 Z-.5 F4000             ; wiping
G1 X52 Y171 Z-.5 F4000             ; wiping
G1 X42 Y173 Z0 F4000               ; wiping
G1 X52 Y171 F4000                  ; wiping
G1 X42 Y173 F4000                  ; wiping
G1 X52 Y171 F4000                  ; wiping
G1 X42 Y173 F4000                  ; wiping
G1 X52 Y171 F4000                  ; wiping
G1 X57 Y173 F4000                  ; wiping
G1 X77 Y171 F4000                  ; wiping
G1 X57 Y173 F4000                  ; wiping
G1 X77 Y171 F4000                  ; wiping
G1 X57 Y173 F4000                  ; wiping
G1 X87 Y171 F4000                  ; wiping
G1 X77 Y173 F4000                  ; wiping
G1 X97 Y171 F4000                  ; wiping
G1 X77 Y173 F4000                  ; wiping
G1 X97 Y171 F4000                  ; wiping
G1 X77 Y173 F4000                  ; wiping
G1 X97 Y171 F4000                  ; wiping
G1 X107 Y173 F4000                 ; wiping
G1 X97 Y171 F4000                  ; wiping
G1 X107 Y173 F4000                 ; wiping
G1 X97 Y171 F4000                  ; wiping
G1 X107 Y173 F4000                 ; wiping
G1 X112 Y171 Z-0.5 F1000           ; wiping
G1 Z10 ; raise extruder
G28 X0 Y0 ; home X and Y
G0 X0 Y187 F200 ; move away from endstops
M109 R140 ; wait for extruder to reach probe temp
M204 S300 ; set probing acceleration
G29       ; start auto-leveling sequence
M420 S1   ; enable leveling matrix
M425 Z	  ; use measured Z backlash for compensation
M425 Z F0 ; turn off measured Z backlash compensation. (if activated in the quality settings, this command will automatically be ignored)
M204 S2000 ; restore standard acceleration
G28 X0 Y0 ; re-home to account for build variance of earlier mini builds
G0 X0 Y187 F200 ; move away from endstops
G0 Y152 F4000 ; move in front of wiper pad
G4 S1 ; pause
M400 ; wait for moves to finish
M117 Heating... ; progress indicator message on LCD
M109 R205  ; wait for extruder to reach printing temp
M190 R60.0 ; wait for bed to reach printing temp
G1 Z2 E0 F75 ; prime tiny bit of filament into the nozzle
M117 Mini Printing... ; progress indicator message on LCD

M221 S100 T0
G92 E0
G1 F600 E-1.75
;LAYER_COUNT:168
;LAYER:0
M107
G0 F2625 X42.861 Y55.623 Z0.425
;TYPE:SKIRT
G1 F600 E0
G1 F900 X43.361 Y55.271 E0.02037
G1 X49.681 Y51.56 E0.2645
G1 X53.237 Y49.19 E0.40685
G1 X53.713 Y48.92 E0.42508
G1 X54.224 Y48.723 E0.44332
G1 X54.758 Y48.602 E0.46156
G1 X55.317 Y48.56 E0.48023
G1 X98.681 Y48.56 E1.9247
G1 X99.227 Y48.6 E1.94294
G1 X99.761 Y48.719 E1.96116
G1 X100.272 Y48.914 E1.97938
G1 X100.741 Y49.176 E1.99728
G1 X105.618 Y52.381 E2.19167
G1 X110.612 Y55.257 E2.38364
G1 X111.065 Y55.564 E2.40186
G1 X111.469 Y55.934 E2.42011
G1 X111.815 Y56.359 E2.43837
G1 X112.095 Y56.829 E2.45659
G1 X112.303 Y57.335 E2.47481
G1 X112.436 Y57.866 E2.49305
G1 X112.491 Y58.507 E2.51448
G1 X112.491 Y101.491 E3.94629
G1 X112.451 Y102.037 E3.96453
G1 X112.332 Y102.571 E3.98275
G1 X112.137 Y103.082 E4.00097
G1 X111.869 Y103.56 E4.01923
G1 X111.534 Y103.993 E4.03746
G1 X111.14 Y104.373 E4.0557
G1 X110.695 Y104.692 E4.07393
G1 X110.208 Y104.942 E4.09217
G1 X109.69 Y105.119 E4.1104
G1 X109.152 Y105.218 E4.12862
G1 X108.741 Y105.241 E4.14234
G1 X45.259 Y105.241 E6.25694
G1 X44.713 Y105.201 E6.27518
G1 X44.179 Y105.082 E6.2934
G1 X43.668 Y104.887 E6.31162
G1 X43.19 Y104.619 E6.32988
G1 X42.757 Y104.284 E6.34811
G1 X42.377 Y103.89 E6.36635
G1 X42.058 Y103.445 E6.38459
G1 X41.808 Y102.958 E6.40282
G1 X41.631 Y102.44 E6.42106
G1 X41.532 Y101.902 E6.43928
G1 X41.509 Y101.491 E6.45299
G1 X41.51 Y58.505 E7.88487
G1 X41.55 Y57.959 E7.9031
G1 X41.669 Y57.425 E7.92133
G1 X41.864 Y56.914 E7.93955
G1 X42.132 Y56.436 E7.9578
G1 X42.467 Y56.003 E7.97604
G1 X42.861 Y55.623 E7.99427
G0 F2625 X43.347 Y55.877
G1 F900 X43.614 Y55.702 E8.00491
G1 X49.947 Y51.984 E8.24953
G1 X53.514 Y49.606 E8.39233
G1 X53.959 Y49.357 E8.40932
G1 X54.437 Y49.181 E8.42628
G1 X54.937 Y49.082 E8.44326
G1 X55.317 Y49.06 E8.45594
G1 X98.681 Y49.06 E9.90041
G1 X99.189 Y49.1 E9.91738
G1 X99.684 Y49.219 E9.93434
G1 X100.155 Y49.414 E9.95132
G1 X100.466 Y49.594 E9.96329
G1 X105.356 Y52.807 E10.1582
G1 X110.363 Y55.691 E10.35067
G1 X110.783 Y55.979 E10.36763
G1 X111.153 Y56.329 E10.3846
G1 X111.464 Y56.733 E10.40158
G1 X111.708 Y57.18 E10.41855
G1 X111.879 Y57.66 E10.43552
G1 X111.973 Y58.161 E10.4525
G1 X111.991 Y58.507 E10.46404
G1 X111.991 Y101.491 E11.89585
G1 X111.951 Y101.999 E11.91283
G1 X111.832 Y102.494 E11.92978
G1 X111.637 Y102.965 E11.94676
G1 X111.371 Y103.4 E11.96375
G1 X111.041 Y103.787 E11.98069
G1 X110.654 Y104.119 E11.99768
G1 X110.219 Y104.385 E12.01466
G1 X109.749 Y104.581 E12.03162
G1 X109.254 Y104.7 E12.04858
G1 X108.741 Y104.741 E12.06572
G1 X45.259 Y104.741 E14.18033
G1 X44.751 Y104.701 E14.19731
G1 X44.256 Y104.582 E14.21426
G1 X43.785 Y104.387 E14.23124
G1 X43.35 Y104.121 E14.24823
G1 X42.963 Y103.791 E14.26517
G1 X42.631 Y103.404 E14.28216
G1 X42.365 Y102.969 E14.29914
G1 X42.169 Y102.499 E14.3161
G1 X42.05 Y102.004 E14.33306
G1 X42.009 Y101.491 E14.3502
G1 X42.01 Y58.505 E15.78208
G1 X42.05 Y57.997 E15.79906
G1 X42.169 Y57.502 E15.81602
G1 X42.364 Y57.031 E15.833
G1 X42.63 Y56.596 E15.84998
G1 X42.96 Y56.209 E15.86692
G1 X43.347 Y55.877 E15.88391
G1 F600 E14.13391
G0 F2625 X55.3 Y56.75
;TYPE:SUPPORT
G1 F600 E15.88391
G1 F900 X55.3 Y52.667 E16.01991
G1 X55.417 Y52.55 E16.02542
G1 X98.583 Y52.55 E17.4633
G1 X98.7 Y52.667 E17.46881
G1 X98.7 Y56.75 E17.60482
G1 X98.171 Y56.75 E17.62244
G1 X97 Y57.921 E17.6776
G1 X97 Y76.75 E18.3048
G1 X57 Y76.75 E19.63722
G1 X57 Y57.921 E20.26442
G1 X55.829 Y56.75 E20.31958
G1 X55.3 Y56.75 E20.3372
G1 F600 E18.5872
G0 F2625 X73.567 Y61.599
G1 F600 E20.3372
G1 F900 X73.464 Y62.177 E20.35676
G1 X73.464 Y62.739 E20.37548
G1 X73.553 Y63.418 E20.39829
G1 X73.756 Y63.912 E20.41608
G1 X74.069 Y64.48 E20.43768
G1 X74.379 Y64.905 E20.45521
G1 X74.811 Y65.315 E20.47505
G1 X75.442 Y65.681 E20.49934
G1 X75.976 Y65.896 E20.51852
G1 X76.55 Y66.023 E20.5381
G1 X77.152 Y66.042 E20.55817
G1 X77.775 Y65.971 E20.57905
G1 X78.299 Y65.803 E20.59738
G1 X78.926 Y65.473 E20.62098
G1 X79.302 Y65.204 E20.63638
G1 X79.759 Y64.73 E20.65832
G1 X80.098 Y64.239 E20.67819
G1 X80.346 Y63.672 E20.69881
G1 X80.515 Y63.022 E20.72118
G1 X80.542 Y62.423 E20.74115
G1 X80.508 Y61.928 E20.75768
G1 X80.348 Y61.323 E20.77852
G1 X80.093 Y60.727 E20.80012
G1 X79.727 Y60.221 E20.82092
G1 X79.373 Y59.857 E20.83783
G1 X78.822 Y59.454 E20.86057
G1 X78.32 Y59.205 E20.87924
G1 X77.742 Y59.043 E20.89923
G1 X77.132 Y58.951 E20.91978
G1 X76.543 Y58.978 E20.93942
G1 X75.929 Y59.116 E20.96039
G1 X75.395 Y59.351 E20.97982
G1 X74.881 Y59.66 E20.9998
G1 X74.48 Y59.995 E21.0172
G1 X74.076 Y60.474 E21.03808
G1 X73.785 Y61.006 E21.05827
G1 X73.567 Y61.599 E21.07932
G0 F2625 X73.349 Y61.679
G1 F900 X57.199 Y61.679 E21.61728
G1 F600 E19.86728
G0 F2625 X57.199 Y60.012
G1 F600 E21.61728
G1 F900 X74.202 Y60.012 E22.18366
G1 F600 E20.43366
G0 F2625 X75.015 Y59.347
G1 F600 E22.18366
G1 F900 X75.015 Y52.75 E22.40341
G1 F600 E20.65341
G0 F2625 X73.348 Y52.75
G1 F600 E22.40341
G1 F900 X73.348 Y61.688 E22.70113
G1 F600 E20.95113
G0 F2625 X73.342 Y63.346
G1 F600 E22.70113
G1 F900 X57.199 Y63.346 E23.23886
G1 F600 E21.48886
G0 F2625 X57.199 Y65.013
G1 F600 E23.23886
G1 F900 X74.21 Y65.013 E23.80551
G1 F600 E22.05551
G0 F2625 X75.015 Y65.665
G1 F600 E23.80551
G1 F900 X75.015 Y76.55 E24.16809
G1 F600 E22.41809
G0 F2625 X73.348 Y76.55
G1 F600 E24.16809
G1 F900 X73.348 Y63.396 E24.60625
G1 F600 E22.85625
G0 F2625 X76.682 Y66.227
G1 F600 E24.60625
G1 F900 X76.682 Y76.55 E24.95012
G1 F600 E23.20012
G0 F2625 X78.349 Y76.55
G1 F600 E24.95012
G1 F900 X78.349 Y65.996 E25.30167
G1 F600 E23.55167
G0 F2625 X79.763 Y65.013
G1 F600 E25.30167
G1 F900 X96.8 Y65.013 E25.86918
G1 F600 E24.11918
G0 F2625 X96.8 Y63.346
G1 F600 E25.86918
G1 F900 X80.638 Y63.346 E26.40754
G1 F600 E24.65754
G0 F2625 X80.016 Y64.71
G1 F600 E26.40754
G1 F900 X80.016 Y76.55 E26.80194
G1 F600 E25.05194
G0 F2625 X81.683 Y76.55
G1 F600 E26.80194
G1 F900 X81.683 Y52.75 E27.59473
G1 F600 E25.84473
G0 F2625 X80.016 Y52.75
G1 F600 E27.59473
G1 F900 X80.016 Y60.279 E27.84552
G1 F600 E26.09552
G0 F2625 X80.649 Y61.679
G1 F600 E27.84552
G1 F900 X96.8 Y61.679 E28.38352
G1 F600 E26.63352
G0 F2625 X96.8 Y60.012
G1 F600 E28.38352
G1 F900 X79.803 Y60.012 E28.94969
G1 F600 E27.19969
G0 F2625 X78.349 Y59.006
G1 F600 E28.94969
G1 F900 X78.349 Y52.75 E29.15808
G1 F600 E27.40808
G0 F2625 X76.682 Y52.75
G1 F600 E29.15808
G1 F900 X76.682 Y58.772 E29.35868
G1 F600 E27.60868
G0 F2625 X71.681 Y52.75
G1 F600 E29.35868
G1 F900 X71.681 Y76.55 E30.15146
G1 F600 E28.40146
G0 F2625 X70.014 Y76.55
G1 F600 E30.15146
G1 F900 X70.014 Y52.75 E30.94425
G1 F600 E29.19425
G0 F2625 X68.347 Y52.75
G1 F600 E30.94425
G1 F900 X68.347 Y76.55 E31.73704
G1 F600 E29.98704
G0 F2625 X66.68 Y76.55
G1 F600 E31.73704
G1 F900 X66.68 Y52.75 E32.52982
G1 F600 E30.77982
G0 F2625 X65.013 Y52.75
G1 F600 E32.52982
G1 F900 X65.013 Y76.55 E33.32261
G1 F600 E31.57261
G0 F2625 X63.346 Y76.55
G1 F600 E33.32261
G1 F900 X63.346 Y52.75 E34.1154
G1 F600 E32.3654
G0 F2625 X61.679 Y52.75
G1 F600 E34.1154
G1 F900 X61.679 Y76.55 E34.90818
G1 F600 E33.15818
G0 F2625 X60.012 Y76.55
G1 F600 E34.90818
G1 F900 X60.012 Y52.75 E35.70097
G1 F600 E33.95097
G0 F2625 X58.345 Y52.75
G1 F600 E35.70097
G1 F900 X58.345 Y76.55 E36.49376
G1 F600 E34.74376
G0 F2625 X57.199 Y75.015
G1 F600 E36.49376
G1 F900 X96.8 Y75.015 E37.81288
G1 F600 E36.06288
G0 F2625 X96.686 Y76.55
G1 F600 E37.81288
G1 F900 X96.686 Y52.75 E38.60567
G1 F600 E36.85567
G0 F2625 X95.019 Y52.75
G1 F600 E38.60567
G1 F900 X95.019 Y76.55 E39.39845
G1 F600 E37.64845
G0 F2625 X93.352 Y76.55
G1 F600 E39.39845
G1 F900 X93.352 Y52.75 E40.19124
G1 F600 E38.44124
G0 F2625 X91.685 Y52.75
G1 F600 E40.19124
G1 F900 X91.685 Y76.55 E40.98403
G1 F600 E39.23403
G0 F2625 X90.018 Y76.55
G1 F600 E40.98403
G1 F900 X90.018 Y52.75 E41.77681
G1 F600 E40.02681
G0 F2625 X88.351 Y52.75
G1 F600 E41.77681
G1 F900 X88.351 Y76.55 E42.5696
G1 F600 E40.8196
G0 F2625 X86.684 Y76.55
G1 F600 E42.5696
G1 F900 X86.684 Y52.75 E43.36239
G1 F600 E41.61239
G0 F2625 X85.017 Y52.75
G1 F600 E43.36239
G1 F900 X85.017 Y76.55 E44.15517
G1 F600 E42.40517
G0 F2625 X83.35 Y76.55
G1 F600 E44.15517
G1 F900 X83.35 Y52.75 E44.94796
G1 F600 E43.19796
G0 F2625 X96.8 Y58.345
G1 F600 E44.94796
G1 F900 X57.2 Y58.345 E46.26705
G1 F600 E44.51705
G0 F2625 X56.678 Y57.315
G1 F600 E46.26705
G1 F900 X56.678 Y52.75 E46.41911
G1 F600 E44.66911
G0 F2625 X55.5 Y53.344
G1 F600 E46.41911
G1 F900 X98.5 Y53.344 E47.85146
G0 F2625 X98.353 Y52.75
G1 F900 X98.353 Y56.55 E47.97804
G0 F2625 X97.958 Y56.678
G1 F900 X56.041 Y56.678 E49.37431
G1 F600 E47.62431
G0 F2625 X55.5 Y55.011
G1 F600 E49.37431
G1 F900 X98.5 Y55.011 E50.80665
G1 F600 E49.05665
G0 F2625 X96.8 Y66.68
G1 F600 E50.80665
G1 F900 X57.199 Y66.68 E52.12577
G1 F600 E50.37577
G0 F2625 X57.199 Y68.347
G1 F600 E52.12577
G1 F900 X96.8 Y68.347 E53.4449
G1 F600 E51.6949
G0 F2625 X96.8 Y70.014
G1 F600 E53.4449
G1 F900 X57.199 Y70.014 E54.76402
G1 F600 E53.01402
G0 F2625 X57.199 Y71.681
G1 F600 E54.76402
G1 F900 X96.8 Y71.681 E56.08315
G1 F600 E54.33315
G0 F2625 X96.8 Y73.348
G1 F600 E56.08315
G1 F900 X57.199 Y73.348 E57.40227
G1 F600 E55.65227
;MESH:
G0 F2625 X54.48 Y73.348
G0 X54.43 Y79.32
G0 X54.5 Y79.25
;TYPE:WALL-INNER
G1 F600 E57.40227
G1 F900 X99.5 Y79.25 E58.90124
G1 X99.5 Y64.689 E59.38627
G1 X99.5 Y64.537 E59.39133
G1 X99.5 Y64.082 E59.40649
G1 X99.5 Y63.93 E59.41155
G1 X99.569 Y64.082 E59.41226
G1 X99.878 Y64.537 E59.42173
G1 X99.983 Y64.647 E59.42622
G1 X100.257 Y64.934 E59.43944
G1 X100.7 Y65.261 E59.45778
G1 X101.191 Y65.509 E59.4761
G1 X101.716 Y65.669 E59.49439
G1 X102.261 Y65.74 E59.51269
G1 X102.812 Y65.717 E59.53106
G1 X103.35 Y65.601 E59.5494
G1 X103.86 Y65.395 E59.56772
G1 X104.328 Y65.108 E59.58601
G1 X104.742 Y64.744 E59.60437
G1 X105.087 Y64.315 E59.62271
G1 X105.355 Y63.836 E59.64099
G1 X105.539 Y63.316 E59.65936
G1 X105.628 Y62.79 E59.67713
G1 X105.64 Y62.5 E59.6868
G1 X105.628 Y62.21 E59.69647
G1 X105.539 Y61.684 E59.71424
G1 X105.355 Y61.164 E59.73261
G1 X105.087 Y60.685 E59.7509
G1 X104.742 Y60.256 E59.76924
G1 X104.328 Y59.892 E59.7876
G1 X104.078 Y59.739 E59.79736
G1 X103.86 Y59.605 E59.80589
G1 X103.35 Y59.399 E59.82421
G1 X102.812 Y59.283 E59.84254
G1 X102.261 Y59.26 E59.86091
G1 X101.716 Y59.331 E59.87922
G1 X101.191 Y59.491 E59.8975
G1 X100.7 Y59.739 E59.91582
G1 X100.688 Y59.748 E59.91632
G1 X100.257 Y60.066 E59.93416
G1 X99.983 Y60.353 E59.94738
G1 X99.878 Y60.463 E59.95245
G1 X99.569 Y60.918 E59.97077
G1 X99.5 Y61.07 E59.97633
G1 X99.5 Y60.918 E59.97657
G1 X99.5 Y60.463 E59.98287
G1 X99.5 Y60.311 E59.98736
G1 X99.5 Y59.25 E60.02271
G1 X100.684 Y59.25 E60.06215
G1 X100.7 Y59.25 E60.06267
G1 X101.191 Y59.25 E60.07448
G1 X101.716 Y59.25 E60.07997
G1 X102.261 Y59.25 E60.0816
G1 X102.812 Y59.25 E60.08239
G1 X103.35 Y59.25 E60.08557
G1 X103.86 Y59.25 E60.09396
G1 X104.116 Y59.25 E60.1013
G1 X108 Y59.25 E60.23068
G1 X108 Y100.75 E61.61306
G1 X46 Y100.75 E63.6783
G1 X46 Y59.25 E65.06068
G1 X49.884 Y59.25 E65.19006
G1 X49.9 Y59.25 E65.19059
G1 X50.391 Y59.25 E65.20695
G1 X50.916 Y59.25 E65.22443
G1 X51.461 Y59.25 E65.24259
G1 X52.012 Y59.25 E65.26094
G1 X52.55 Y59.25 E65.27886
G1 X53.06 Y59.25 E65.29585
G1 X53.316 Y59.25 E65.30438
G1 X54.5 Y59.25 E65.34382
G1 X54.5 Y60.278 E65.37806
G1 X54.5 Y60.685 E65.39162
G1 X54.5 Y61.066 E65.40431
G1 X54.287 Y60.685 E65.40847
G1 X54.032 Y60.368 E65.41835
G1 X53.942 Y60.256 E65.42313
G1 X53.528 Y59.892 E65.4415
G1 X53.278 Y59.739 E65.45126
G1 X53.06 Y59.605 E65.45859
G1 X52.55 Y59.399 E65.46832
G1 X52.012 Y59.283 E65.4719
G1 X51.461 Y59.26 E65.47269
G1 X50.916 Y59.331 E65.47445
G1 X50.391 Y59.491 E65.48072
G1 X49.9 Y59.739 E65.49449
G1 X49.888 Y59.748 E65.49499
G1 X49.457 Y60.066 E65.51283
G1 X49.078 Y60.463 E65.53111
G1 X48.769 Y60.918 E65.54943
G1 X48.542 Y61.419 E65.56776
G1 X48.404 Y61.953 E65.58613
G1 X48.357 Y62.5 E65.60442
G1 X48.404 Y63.047 E65.6227
G1 X48.542 Y63.581 E65.64108
G1 X48.769 Y64.082 E65.6594
G1 X49.078 Y64.537 E65.67772
G1 X49.457 Y64.934 E65.696
G1 X49.9 Y65.261 E65.71434
G1 X50.391 Y65.509 E65.73267
G1 X50.916 Y65.669 E65.75095
G1 X51.461 Y65.74 E65.76925
G1 X52.012 Y65.717 E65.78762
G1 X52.55 Y65.601 E65.80596
G1 X53.06 Y65.395 E65.82428
G1 X53.528 Y65.108 E65.84257
G1 X53.942 Y64.744 E65.86093
G1 X54.032 Y64.632 E65.86572
G1 X54.287 Y64.315 E65.87927
G1 X54.5 Y63.934 E65.89381
G1 X54.5 Y64.315 E65.89613
G1 X54.5 Y64.722 E65.90602
G1 X54.5 Y79.25 E66.38995
G0 F2625 X55 Y78.75
;TYPE:WALL-OUTER
G1 F900 X99 Y78.75 E67.85561
G1 X99 Y58.75 E68.52182
G1 X108.5 Y58.75 E68.83827
G1 X108.5 Y101.25 E70.25396
G1 X45.5 Y101.25 E72.35251
G1 X45.5 Y58.75 E73.7682
G1 X55 Y58.75 E74.08465
G1 X55 Y78.75 E74.75085
G0 F2625 X55.25 Y78.75
G0 X55.25 Y79.35
G0 X54.472 Y79.278
G0 X48.435 Y63.564
G0 X49.015 Y63.414
G1 F900 X49.207 Y63.837 E74.76633
G1 X49.468 Y64.222 E74.78182
G1 X49.789 Y64.557 E74.79728
G1 X50.163 Y64.834 E74.81278
G1 X50.578 Y65.043 E74.82826
G1 X51.022 Y65.179 E74.84373
G1 X51.483 Y65.239 E74.85921
G1 X51.948 Y65.219 E74.87472
G1 X52.403 Y65.121 E74.89022
G1 X52.834 Y64.947 E74.9057
G1 X53.23 Y64.704 E74.92118
G1 X53.579 Y64.397 E74.93666
G1 X53.871 Y64.034 E74.95218
