;Generated by Cura LulzBot Edition GCodeWriter Version: 3.6.18
;FLAVOR:Marlin
;TIME:6958
;Filament used: 5.60962m
;Layer height: 0.38
;Generated with Cura_SteamEngine 3.6.18
M82 ;absolute extrusion mode
;This G-Code has been generated specifically for the LulzBot Mini with standard extruder
M73 P0 ; clear GLCD progress bar
M75 ; Start GLCD Timer
G26 ; clear potential 'probe fail' condition
M107 ; disable fans
M420 S0 ; disable leveling matrix
G90 ; absolute positioning
M82 ; set extruder to absolute mode
G92 E0 ; set extruder position to 0
M140 S60.0 ; start bed heating up
G28 ; home all axes
G0 X0 Y187 Z156 F200 ; move away from endstops
M109 R140 ;
G1 E-30 F75 ; retract filament
M109 R140 ; wait for extruder to reach wiping temp
G1 X45 Y173 F11520 ; move above wiper pad
G1 Z0 F1200 ; push nozzle into wiper
G1 X42 Y173 Z-.5 F4000             ; wiping
G1 X52 Y171 Z-.5 F4000             ; wiping
G1 X42 Y173 Z0 F4000               ; wiping
G1 X52 Y171 F4000                  ; wiping
G1 X42 Y173 F4000                  ; wiping
G1 X52 Y171 F4000                  ; wiping
G1 X42 Y173 F4000                  ; wiping
G1 X52 Y171 F4000                  ; wiping
G1 X57 Y173 F4000                  ; wiping
G1 X77 Y171 F4000                  ; wiping
G1 X57 Y173 F4000                  ; wiping
G1 X77 Y171 F4000                  ; wiping
G1 X57 Y173 F4000                  ; wiping
G1 X87 Y171 F4000                  ; wiping
G1 X77 Y173 F4000                  ; wiping
G1 X97 Y171 F4000                  ; wiping
G1 X77 Y173 F4000                  ; wiping
G1 X97 Y171 F4000                  ; wiping
G1 X77 Y173 F4000                  ; wiping
G1 X97 Y171 F4000                  ; wiping
G1 X107 Y173 F4000                 ; wiping
G1 X97 Y171 F4000                  ; wiping
G1 X107 Y173 F4000                 ; wiping
G1 X97 Y171 F4000                  ; wiping
G1 X107 Y173 F4000                 ; wiping
G1 X112 Y171 Z-0.5 F1000           ; wiping
G1 Z10 ; raise extruder
G28 X0 Y0 ; home X and Y
G0 X0 Y187 F200 ; move away from endstops
M109 R140 ; wait for extruder to reach probe temp
M204 S300 ; set probing acceleration
G29       ; start auto-leveling sequence
M420 S1   ; enable leveling matrix
M425 Z	  ; use measured Z backlash for compensation
M425 Z F0 ; turn off measured Z backlash compensation. (if activated in the quality settings, this command will automatically be ignored)
M204 S2000 ; restore standard acceleration
G28 X0 Y0 ; re-home to account for build variance of earlier mini builds
G0 X0 Y187 F200 ; move away from endstops
G0 Y152 F4000 ; move in front of wiper pad
G4 S1 ; pause
M400 ; wait for moves to finish
M117 Heating... ; progress indicator message on LCD
M109 R210  ; wait for extruder to reach printing temp
M190 R60.0 ; wait for bed to reach printing temp
G1 Z2 E0 F75 ; prime tiny bit of filament into the nozzle
M117 Mini Printing... ; progress indicator message on LCD

M221 S100 T0
G92 E0
G1 F600 E-1.75
;LAYER_COUNT:79
;LAYER:0
M107
G0 F2625 X25.031 Y33.485 Z0.425
;TYPE:SKIRT
G1 F600 E0
G1 F900 X28.079 Y31.177 E0.12735
G1 X28.529 Y30.891 E0.14511
G1 X35.912 Y27.01 E0.42295
G1 X40.617 Y24.203 E0.60545
G1 X45.146 Y21.141 E0.78756
G1 X49.494 Y17.829 E0.96962
G1 X53.656 Y14.27 E1.15204
G1 X57.616 Y10.476 E1.33472
G1 X59.504 Y8.508 E1.42556
G1 X59.884 Y8.169 E1.44252
G1 X60.313 Y7.894 E1.4595
G1 X60.879 Y7.656 E1.47995
G1 X61.218 Y7.55 E1.49178
G1 X61.715 Y7.437 E1.50876
G1 X62.223 Y7.402 E1.52572
G1 X62.731 Y7.448 E1.54271
G1 X63.225 Y7.572 E1.55968
G1 X63.697 Y7.774 E1.57678
G1 X94.561 Y23.955 E2.73759
G1 X94.992 Y24.226 E2.75455
G1 X95.376 Y24.561 E2.77153
G1 X95.703 Y24.952 E2.78851
G1 X95.964 Y25.39 E2.80549
G1 X96.144 Y25.83 E2.82132
G1 X98.862 Y34.212 E3.11484
G1 X100.787 Y39.323 E3.29677
G1 X103.008 Y44.34 E3.47953
G1 X105.5 Y49.208 E3.6617
G1 X108.267 Y53.931 E3.84403
G1 X111.288 Y58.479 E4.02591
G1 X114.579 Y62.871 E4.20872
G1 X118.097 Y67.051 E4.39071
G1 X121.869 Y71.051 E4.57385
G1 X124.678 Y73.837 E4.70563
G1 X124.984 Y74.186 E4.72109
G1 X127.328 Y77.29 E4.85066
G1 X127.557 Y77.639 E4.86456
G1 X128.288 Y78.921 E4.91372
G1 X128.467 Y79.287 E4.92729
G1 X129.853 Y82.632 E5.0479
G1 X129.991 Y83.038 E5.06219
G1 X130.442 Y84.728 E5.12045
G1 X130.524 Y85.142 E5.13451
G1 X130.99 Y88.687 E5.25361
G1 X131.016 Y89.21 E5.27105
G1 X130.943 Y91.599 E5.35067
G1 X130.914 Y91.945 E5.36223
G1 X130.479 Y95.095 E5.46816
G1 X130.397 Y95.501 E5.48196
G1 X129.985 Y97.019 E5.53435
G1 X129.85 Y97.412 E5.54819
G1 X128.468 Y100.747 E5.66844
G1 X128.28 Y101.129 E5.68262
G1 X127.394 Y102.662 E5.7416
G1 X127.141 Y103.037 E5.75667
G1 X124.712 Y106.146 E5.88809
G1 X124.43 Y106.462 E5.9022
G1 X123.413 Y107.462 E5.94971
G1 X123.112 Y107.724 E5.963
G1 X120.265 Y109.907 E6.08251
G1 X119.942 Y110.125 E6.09549
G1 X118.994 Y110.686 E6.13218
G1 X118.838 Y110.773 E6.13813
G1 X112.171 Y114.238 E6.38842
G1 X107.48 Y117.039 E6.57041
G1 X102.948 Y120.106 E6.75269
G1 X98.6 Y123.421 E6.93482
G1 X94.442 Y126.98 E7.11713
G1 X90.47 Y130.789 E7.30045
G1 X88.626 Y132.713 E7.38922
G1 X88.246 Y133.052 E7.40618
G1 X87.817 Y133.328 E7.42317
G1 X87.246 Y133.567 E7.44379
G1 X86.899 Y133.675 E7.4559
G1 X86.402 Y133.788 E7.47288
G1 X85.894 Y133.822 E7.48983
G1 X85.386 Y133.776 E7.50683
G1 X84.892 Y133.651 E7.5238
G1 X84.426 Y133.452 E7.54068
G1 X53.62 Y117.33 E8.69887
G1 X53.189 Y117.059 E8.71583
G1 X52.805 Y116.724 E8.7328
G1 X52.439 Y116.276 E8.75207
G1 X52.278 Y116.039 E8.76162
G1 X52.025 Y115.597 E8.77858
G1 X51.865 Y115.187 E8.79324
G1 X50.129 Y109.659 E8.98625
G1 X48.335 Y104.446 E9.16989
G1 X46.269 Y99.39 E9.35182
G1 X43.908 Y94.437 E9.5346
G1 X41.285 Y89.646 E9.71654
G1 X38.392 Y85.01 E9.89857
G1 X35.233 Y80.531 E10.08114
G1 X31.836 Y76.251 E10.26315
G1 X28.182 Y72.146 E10.44622
G1 X25.313 Y69.247 E10.58208
G1 X23.431 Y67.358 E10.6709
G1 X23.154 Y67.042 E10.6849
G1 X21.201 Y64.495 E10.79181
G1 X21.008 Y64.214 E10.80317
G1 X19.888 Y62.385 E10.87461
G1 X19.662 Y61.942 E10.89117
G1 X19.121 Y60.648 E10.93789
G1 X19.115 Y60.634 E10.9384
G1 X18.279 Y58.609 E11.01137
G1 X18.143 Y58.208 E11.02548
G1 X17.684 Y56.491 E11.08468
G1 X17.597 Y56.035 E11.10015
G1 X17.118 Y52.002 E11.23543
G1 X17.095 Y51.594 E11.24904
G1 X17.105 Y50.3 E11.29215
G1 X17.139 Y49.855 E11.30701
G1 X17.737 Y45.764 E11.44473
G1 X17.823 Y45.358 E11.45856
G1 X18.164 Y44.139 E11.50072
G1 X18.292 Y43.77 E11.51373
G1 X19.662 Y40.467 E11.63285
G1 X19.847 Y40.091 E11.6468
G1 X20.718 Y38.578 E11.70496
G1 X20.956 Y38.221 E11.71925
G1 X23.151 Y35.359 E11.83939
G1 X23.434 Y35.037 E11.85367
G1 X24.697 Y33.776 E11.91312
G1 X25.031 Y33.485 E11.92788
G1 F600 E10.17788
G0 F2625 X27.086 Y36.32
;TYPE:SUPPORT
G1 F600 E11.92788
G1 F900 X28.936 Y36.209 E11.98961
G1 X29.453 Y35.814 E12.01129
G1 X30.038 Y34.055 E12.07304
G1 X31.406 Y33.265 E12.12566
G1 X33.219 Y33.634 E12.18729
G1 X33.821 Y33.386 E12.20897
G1 X34.845 Y31.84 E12.27074
G1 X36.379 Y31.429 E12.32364
G1 X38.031 Y32.261 E12.38526
G1 X38.678 Y32.176 E12.40699
G1 X40.06 Y30.945 E12.46864
G1 X41.645 Y30.945 E12.52144
G1 X43.027 Y32.176 E12.58309
G1 X43.675 Y32.261 E12.60486
G1 X45.333 Y31.429 E12.66665
G1 X46.864 Y31.839 E12.71945
G1 X47.888 Y33.384 E12.78119
G1 X48.49 Y33.632 E12.80288
G1 X50.3 Y33.264 E12.8644
G1 X51.669 Y34.055 E12.91707
G1 X52.255 Y35.814 E12.97883
G1 X52.772 Y36.209 E13.0005
G1 X54.621 Y36.32 E13.0622
G1 X55.736 Y37.435 E13.11473
G1 X55.847 Y39.288 E13.17656
G1 X56.242 Y39.804 E13.19821
G1 X58.003 Y40.39 E13.26003
G1 X58.791 Y41.755 E13.31253
G1 X58.422 Y43.57 E13.37423
G1 X58.67 Y44.172 E13.39592
G1 X60.217 Y45.196 E13.45771
G1 X60.627 Y46.725 E13.51044
G1 X59.796 Y48.38 E13.57213
G1 X59.881 Y49.028 E13.5939
G1 X61.112 Y50.41 E13.65555
G1 X61.112 Y51.996 E13.70838
G1 X59.881 Y53.378 E13.77003
G1 X59.796 Y54.026 E13.7918
G1 X60.627 Y55.681 E13.85349
G1 X60.217 Y57.21 E13.90622
G1 X58.67 Y58.234 E13.96802
G1 X58.422 Y58.836 E13.9897
G1 X58.791 Y60.651 E14.0514
G1 X58.003 Y62.016 E14.1039
G1 X56.242 Y62.602 E14.16572
G1 X55.847 Y63.118 E14.18737
G1 X55.736 Y64.969 E14.24914
G1 X54.619 Y66.086 E14.30176
G1 X54.466 Y66.094 E14.30686
G1 X52.854 Y64.83 E14.3751
G1 X49.65 Y64.83 E14.48182
G1 X49.204 Y65.436 E14.50689
G1 X62.382 Y107.549 E15.97676
G1 X61.331 Y109.556 E16.05223
G1 X61.829 Y111.137 E16.10744
G1 X88.751 Y125.228 E17.11963
G1 X86.112 Y130.265 E17.30905
G1 X85.956 Y130.314 E17.3145
G1 X55.267 Y114.252 E18.46831
G1 X55.215 Y114.19 E18.471
G1 X41.011 Y68.792 E20.05552
G1 X40.509 Y68.382 E20.07711
G1 X38.063 Y68.13 E20.15901
G1 X37.494 Y68.474 E20.18116
G1 X36.511 Y70.91 E20.26866
G1 X36.381 Y70.976 E20.27352
G1 X34.834 Y70.563 E20.32686
G1 X33.813 Y69.02 E20.38849
G1 X33.212 Y68.771 E20.41016
G1 X31.411 Y69.14 E20.4714
G1 X30.051 Y68.349 E20.5238
G1 X29.466 Y66.591 E20.58552
G1 X28.949 Y66.196 E20.60719
G1 X27.096 Y66.085 E20.66903
G1 X25.969 Y64.96 E20.72207
G1 X25.858 Y63.116 E20.78361
G1 X25.463 Y62.6 E20.80525
G1 X23.703 Y62.014 E20.86704
G1 X22.916 Y60.651 E20.91947
G1 X23.285 Y58.838 E20.9811
G1 X23.036 Y58.236 E21.0028
G1 X21.491 Y57.214 E21.06451
G1 X21.081 Y55.681 E21.11736
G1 X21.913 Y54.03 E21.17895
G1 X21.828 Y53.383 E21.20069
G1 X20.595 Y51.994 E21.26255
G1 X20.595 Y50.41 E21.31532
G1 X21.826 Y49.028 E21.37697
G1 X21.911 Y48.38 E21.39874
G1 X21.08 Y46.725 E21.46042
G1 X21.49 Y45.196 E21.51316
G1 X23.037 Y44.172 E21.57495
G1 X23.285 Y43.57 E21.59664
G1 X22.916 Y41.755 E21.65834
G1 X23.704 Y40.39 E21.71084
G1 X25.465 Y39.804 E21.77266
G1 X25.86 Y39.288 E21.79431
G1 X25.971 Y37.435 E21.85614
G1 X27.086 Y36.32 E21.90867
G1 F600 E20.15867
G0 F2625 X37.645 Y47.985
G1 F600 E21.90867
G1 F900 X36.92 Y48.918 E21.94802
G1 X36.459 Y50.033 E21.98821
G1 X36.301 Y51.203 E22.02754
G1 X36.459 Y52.373 E22.06687
G1 X36.92 Y53.488 E22.10706
G1 X37.645 Y54.421 E22.14642
G1 X38.575 Y55.142 E22.18561
G1 X39.683 Y55.595 E22.22549
G1 X40.855 Y55.754 E22.26489
G1 X42.029 Y55.591 E22.30437
G1 X43.133 Y55.146 E22.34402
G1 X44.067 Y54.422 E22.38338
G1 X44.793 Y53.494 E22.42263
G1 X45.252 Y52.361 E22.46335
G1 X45.415 Y51.203 E22.5023
G1 X45.252 Y50.045 E22.54126
G1 X44.793 Y48.912 E22.58198
G1 X44.067 Y47.984 E22.62122
G1 X43.133 Y47.26 E22.66059
G1 X42.029 Y46.815 E22.70024
G1 X40.855 Y46.652 E22.73972
G1 X39.683 Y46.811 E22.77912
G1 X38.575 Y47.264 E22.81899
G1 X37.645 Y47.985 E22.85819
G0 F2625 X37.113 Y48.343
G1 F900 X22.115 Y48.343 E23.35778
G0 F2625 X21.671 Y47.455
G1 F900 X21.671 Y45.316 E23.42903
G0 F2625 X22.134 Y45.009
G1 F900 X59.574 Y45.009 E24.67617
G0 F2625 X60.012 Y45.301
G1 F900 X60.012 Y47.504 E24.74955
G0 F2625 X60.408 Y46.676
G1 F900 X42.218 Y46.676 E25.35547
G1 F600 E23.60547
G0 F2625 X43.342 Y47.168
G1 F600 E25.35547
G1 F900 X43.342 Y32.419 E25.84676
G1 F600 E24.09676
G0 F2625 X42.163 Y31.673
G1 F600 E25.84676
G1 F900 X39.543 Y31.673 E25.93403
G0 F2625 X40.008 Y31.259
G1 F900 X40.008 Y46.567 E26.44395
G0 F2625 X39.485 Y46.676
G1 F900 X21.3 Y46.676 E27.0497
G1 F600 E25.2997
G0 F2625 X21.671 Y49.503
G1 F600 E27.0497
G1 F900 X21.671 Y52.903 E27.16295
G0 F2625 X22.023 Y53.344
G1 F900 X36.644 Y53.344 E27.64998
G0 F2625 X36.674 Y53.418
G1 F900 X36.674 Y69.972 E28.2014
G1 F600 E26.4514
G0 F2625 X37.328 Y68.347
G1 F600 E28.2014
G1 F900 X30.444 Y68.347 E28.43071
G1 F600 E26.68071
G0 F2625 X31.673 Y68.883
G1 F600 E28.43071
G1 F900 X31.673 Y33.524 E29.60853
G1 F600 E27.85853
G0 F2625 X33.34 Y33.8
G1 F600 E29.60853
G1 F900 X33.34 Y68.607 E30.76797
G1 F600 E29.01797
G0 F2625 X34.709 Y70.014
G1 F600 E30.76797
G1 F900 X36.655 Y70.014 E30.83279
G1 F600 E29.08279
G0 F2625 X35.007 Y70.401
G1 F600 E30.83279
G1 F900 X35.007 Y32.004 E32.11181
G1 F600 E30.36181
G0 F2625 X34.091 Y33.34
G1 F600 E32.11181
G1 F900 X47.62 Y33.34 E32.56246
G0 F2625 X48.343 Y33.788
G1 F900 X48.343 Y91.557 E34.48677
G0 F2625 X48.381 Y91.685
G1 F900 X57.207 Y91.685 E34.78077
G1 F600 E33.03077
G0 F2625 X56.686 Y90.018
G1 F600 E34.78077
G1 F900 X47.86 Y90.018 E35.07476
G1 F600 E33.32476
G0 F2625 X47.338 Y88.351
G1 F600 E35.07476
G1 F900 X56.164 Y88.351 E35.36876
G1 F600 E33.61876
G0 F2625 X56.678 Y89.992
G1 F600 E35.36876
G1 F900 X56.678 Y114.765 E36.19396
G0 F2625 X57.168 Y115.023
G1 F900 X68.822 Y115.023 E36.58216
G0 F2625 X68.347 Y114.775
G1 F900 X68.347 Y120.872 E36.78525
G1 F600 E35.03525
G0 F2625 X69.909 Y121.691
G1 F600 E36.78525
G1 F900 X81.563 Y121.691 E37.17345
G0 F2625 X81.683 Y121.754
G1 F900 X81.683 Y127.852 E37.37658
G1 F600 E35.62658
G0 F2625 X80.016 Y126.979
G1 F600 E37.37658
G1 F900 X80.016 Y120.882 E37.57967
G1 F600 E35.82967
G0 F2625 X78.377 Y120.024
G1 F600 E37.57967
G1 F900 X66.723 Y120.024 E37.96787
G0 F2625 X66.68 Y120
G1 F900 X66.68 Y113.903 E38.17096
G1 F600 E36.42096
G0 F2625 X65.637 Y113.356
G1 F600 E38.17096
G1 F900 X55.162 Y113.356 E38.51989
G0 F2625 X55.011 Y112.869
G1 F900 X55.011 Y84.665 E39.45937
G0 F2625 X55.121 Y85.017
G1 F900 X46.295 Y85.017 E39.75337
G1 F600 E38.00337
G0 F2625 X46.676 Y86.229
G1 F600 E39.75337
G1 F900 X46.676 Y31.997 E41.55986
G1 F600 E39.80986
G0 F2625 X45.475 Y31.673
G1 F600 E41.55986
G1 F900 X45.292 Y31.673 E41.56595
G0 F2625 X45.009 Y31.815
G1 F900 X45.009 Y48.911 E42.13543
G0 F2625 X44.602 Y48.343
G1 F900 X59.59 Y48.343 E42.63468
G1 F600 E40.88468
G0 F2625 X60.012 Y49.477
G1 F600 E42.63468
G1 F900 X60.012 Y52.93 E42.7497
G0 F2625 X59.683 Y53.344
G1 F900 X45.071 Y53.344 E43.23643
G0 F2625 X45.009 Y53.495
G1 F900 X45.009 Y80.901 E44.14934
G0 F2625 X45.252 Y81.683
G1 F900 X54.078 Y81.683 E44.44334
G1 F600 E42.69334
G0 F2625 X54.599 Y83.35
G1 F600 E44.44334
G1 F900 X45.774 Y83.35 E44.7373
G1 F600 E42.9873
G0 F2625 X46.817 Y86.684
G1 F600 E44.7373
G1 F900 X55.643 Y86.684 E45.0313
G1 F600 E43.2813
G0 F2625 X53.556 Y80.016
G1 F600 E45.0313
G1 F900 X44.73 Y80.016 E45.32529
G1 F600 E43.57529
G0 F2625 X44.209 Y78.349
G1 F600 E45.32529
G1 F900 X53.035 Y78.349 E45.61929
G1 F600 E43.86929
G0 F2625 X53.344 Y79.337
G1 F600 E45.61929
G1 F900 X53.344 Y107.541 E46.55878
G0 F2625 X53.075 Y106.688
G1 F900 X61.902 Y106.688 E46.85281
G0 F2625 X61.679 Y105.975
G1 F900 X61.679 Y108.461 E46.93562
G0 F2625 X61.733 Y108.355
G1 F900 X53.597 Y108.355 E47.20663
G1 F600 E45.45663
G0 F2625 X54.118 Y110.022
G1 F600 E47.20663
G1 F900 X61.268 Y110.022 E47.4448
G1 F600 E45.6948
G0 F2625 X61.679 Y111.285
G1 F600 E47.4448
G1 F900 X61.679 Y117.383 E47.64793
G1 F600 E45.89793
G0 F2625 X60.353 Y116.69
G1 F600 E47.64793
G1 F900 X72.008 Y116.69 E48.03616
G0 F2625 X71.681 Y116.52
G1 F900 X71.681 Y122.617 E48.23925
G1 F600 E46.48925
G0 F2625 X73.094 Y123.358
G1 F600 E48.23925
G1 F900 X84.748 Y123.358 E48.62745
G0 F2625 X85.017 Y123.499
G1 F900 X85.017 Y129.597 E48.83058
G0 F2625 X85.835 Y130.026
G1 F900 X86.01 Y130.026 E48.83641
G1 F600 E47.08641
G0 F2625 X86.684 Y128.744
G1 F600 E48.83641
G1 F900 X86.684 Y124.372 E48.98204
G1 F600 E47.23204
G0 F2625 X87.933 Y125.025
G1 F600 E48.98204
G1 F900 X76.279 Y125.025 E49.37024
G0 F2625 X76.682 Y125.235
G1 F900 X76.682 Y119.137 E49.57336
G1 F600 E47.82336
G0 F2625 X75.193 Y118.357
G1 F600 E49.57336
G1 F900 X63.538 Y118.357 E49.9616
G0 F2625 X63.346 Y118.255
G1 F900 X63.346 Y112.158 E50.16469
G1 F600 E48.41469
G0 F2625 X62.451 Y111.689
G1 F600 E50.16469
G1 F900 X54.64 Y111.689 E50.42488
G1 F600 E48.67488
G0 F2625 X58.345 Y115.638
G1 F600 E50.42488
G1 F900 X58.345 Y95.32 E51.10168
G0 F2625 X58.251 Y95.019
G1 F900 X49.424 Y95.019 E51.39571
G1 F600 E49.64571
G0 F2625 X48.903 Y93.352
G1 F600 E51.39571
G1 F900 X57.729 Y93.352 E51.6897
G1 F600 E49.9397
G0 F2625 X58.772 Y96.686
G1 F600 E51.6897
G1 F900 X49.946 Y96.686 E51.9837
G0 F2625 X50.01 Y96.885
G1 F900 X50.01 Y68.682 E52.92315
G0 F2625 X49.905 Y68.347
G1 F900 X40.781 Y68.347 E53.22708
G0 F2625 X40.008 Y68.129
G1 F900 X40.008 Y55.84 E53.63643
G1 F600 E51.88643
G0 F2625 X41.675 Y55.84
G1 F600 E53.63643
G1 F900 X41.675 Y70.245 E54.11626
G0 F2625 X41.601 Y70.014
G1 F900 X50.427 Y70.014 E54.41026
G1 F600 E52.66026
G0 F2625 X50.948 Y71.681
G1 F600 E54.41026
G1 F900 X42.123 Y71.681 E54.70423
G1 F600 E52.95423
G0 F2625 X42.644 Y73.348
G1 F600 E54.70423
G1 F900 X51.47 Y73.348 E54.99822
G0 F2625 X51.677 Y74.009
G1 F900 X51.677 Y102.213 E55.93771
