;Generated by Cura LulzBot Edition GCodeWriter Version: 3.6.18
;FLAVOR:Marlin
;TIME:6628
;Filament used: 3.49167m
;Layer height: 0.25
;Generated with Cura_SteamEngine 3.6.18
M82 ;absolute extrusion mode
;This G-Code has been generated specifically for the LulzBot Mini with standard extruder
M73 P0 ; clear GLCD progress bar
M75 ; Start GLCD Timer
G26 ; clear potential 'probe fail' condition
M107 ; disable fans
M420 S0 ; disable leveling matrix
G90 ; absolute positioning
M82 ; set extruder to absolute mode
G92 E0 ; set extruder position to 0
M140 S60.0 ; start bed heating up
G28 ; home all axes
G0 X0 Y187 Z156 F200 ; move away from endstops
M109 R140 ;
G1 E-30 F75 ; retract filament
M109 R140 ; wait for extruder to reach wiping temp
G1 X45 Y173 F11520 ; move above wiper pad
G1 Z0 F1200 ; push nozzle into wiper
G1 X42 Y173 Z-.5 F4000             ; wiping
G1 X52 Y171 Z-.5 F4000             ; wiping
G1 X42 Y173 Z0 F4000               ; wiping
G1 X52 Y171 F4000                  ; wiping
G1 X42 Y173 F4000                  ; wiping
G1 X52 Y171 F4000                  ; wiping
G1 X42 Y173 F4000                  ; wiping
G1 X52 Y171 F4000                  ; wiping
G1 X57 Y173 F4000                  ; wiping
G1 X77 Y171 F4000                  ; wiping
G1 X57 Y173 F4000                  ; wiping
G1 X77 Y171 F4000                  ; wiping
G1 X57 Y173 F4000                  ; wiping
G1 X87 Y171 F4000                  ; wiping
G1 X77 Y173 F4000                  ; wiping
G1 X97 Y171 F4000                  ; wiping
G1 X77 Y173 F4000                  ; wiping
G1 X97 Y171 F4000                  ; wiping
G1 X77 Y173 F4000                  ; wiping
G1 X97 Y171 F4000                  ; wiping
G1 X107 Y173 F4000                 ; wiping
G1 X97 Y171 F4000                  ; wiping
G1 X107 Y173 F4000                 ; wiping
G1 X97 Y171 F4000                  ; wiping
G1 X107 Y173 F4000                 ; wiping
G1 X112 Y171 Z-0.5 F1000           ; wiping
G1 Z10 ; raise extruder
G28 X0 Y0 ; home X and Y
G0 X0 Y187 F200 ; move away from endstops
M109 R140 ; wait for extruder to reach probe temp
M204 S300 ; set probing acceleration
G29       ; start auto-leveling sequence
M420 S1   ; enable leveling matrix
M425 Z	  ; use measured Z backlash for compensation
M425 Z F0 ; turn off measured Z backlash compensation. (if activated in the quality settings, this command will automatically be ignored)
M204 S2000 ; restore standard acceleration
G28 X0 Y0 ; re-home to account for build variance of earlier mini builds
G0 X0 Y187 F200 ; move away from endstops
G0 Y152 F4000 ; move in front of wiper pad
G4 S1 ; pause
M400 ; wait for moves to finish
M117 Heating... ; progress indicator message on LCD
M109 R205  ; wait for extruder to reach printing temp
M190 R60.0 ; wait for bed to reach printing temp
G1 Z2 E0 F75 ; prime tiny bit of filament into the nozzle
M117 Mini Printing... ; progress indicator message on LCD

M221 S100 T0
G92 E0
G1 F600 E-1.75
;LAYER_COUNT:200
;LAYER:0
M107
G0 F2625 X42.093 Y33.762 Z0.425
;TYPE:SKIRT
G1 F600 E0
G1 F900 X44.271 Y30.92 E0.11927
G1 X44.555 Y30.597 E0.1336
G1 X45.822 Y29.332 E0.19324
G1 X46.159 Y29.038 E0.20813
G1 X49.251 Y26.703 E0.3372
G1 X49.6 Y26.474 E0.3511
G1 X50.882 Y25.743 E0.40026
G1 X51.285 Y25.549 E0.41516
G1 X55.054 Y24.041 E0.55038
G1 X55.444 Y23.912 E0.56407
G1 X56.711 Y23.583 E0.60767
G1 X57.105 Y23.507 E0.62104
G1 X60.663 Y23.04 E0.74057
G1 X61.086 Y23.012 E0.75469
G1 X62.877 Y23.012 E0.81435
G1 X63.301 Y23.04 E0.82851
G1 X66.846 Y23.506 E0.94761
G1 X67.234 Y23.581 E0.96077
G1 X68.296 Y23.855 E0.9973
G1 X68.589 Y23.946 E1.00752
G1 X70.328 Y24.575 E1.06912
G1 X70.501 Y24.643 E1.07532
G1 X72.961 Y25.695 E1.16444
G1 X73.326 Y25.879 E1.17805
G1 X74.64 Y26.649 E1.22878
G1 X74.975 Y26.874 E1.24223
G1 X77.818 Y29.054 E1.36156
G1 X78.113 Y29.31 E1.37457
G1 X78.897 Y30.077 E1.41111
G1 X79.166 Y30.375 E1.42448
G1 X81.815 Y33.7 E1.56609
G1 X82.085 Y34.095 E1.58203
G1 X82.983 Y35.644 E1.64167
G1 X83.173 Y36.029 E1.65597
G1 X84.551 Y39.351 E1.77577
G1 X84.689 Y39.757 E1.79006
G1 X85.145 Y41.464 E1.84891
G1 X85.227 Y41.877 E1.86294
G1 X85.699 Y45.444 E1.98279
G1 X85.727 Y45.818 E1.99528
G1 X85.776 Y48.891 E2.09766
G1 X86.087 Y54.383 E2.28089
G1 X86.704 Y59.814 E2.46296
G1 X87.632 Y65.227 E2.6459
G1 X88.195 Y67.842 E2.73501
G1 X88.851 Y70.521 E2.82688
G1 X90.382 Y75.789 E3.00962
G1 X92.209 Y80.965 E3.19246
G1 X94.313 Y85.996 E3.37411
G1 X96.709 Y90.924 E3.55664
G1 X99.375 Y95.701 E3.73886
G1 X102.312 Y100.327 E3.92139
G1 X105.492 Y104.759 E4.10309
G1 X108.946 Y109.04 E4.28632
G1 X112.617 Y113.099 E4.46862
G1 X114.631 Y115.141 E4.56416
G1 X114.959 Y115.531 E4.58113
G1 X115.223 Y115.967 E4.59811
G1 X115.414 Y116.439 E4.61507
G1 X115.53 Y116.935 E4.63204
G1 X115.567 Y117.443 E4.64901
G1 X115.524 Y117.951 E4.66599
G1 X115.402 Y118.446 E4.68297
G1 X115.128 Y119.055 E4.70522
G1 X111.93 Y124.563 E4.91737
G1 X109.442 Y129.14 E5.0909
G1 X109.165 Y129.567 E5.10786
G1 X108.824 Y129.946 E5.12484
G1 X108.428 Y130.267 E5.14182
G1 X107.986 Y130.521 E5.1588
G1 X107.308 Y130.757 E5.18272
G1 X106.943 Y130.84 E5.19518
G1 X106.438 Y130.914 E5.21219
G1 X105.929 Y130.908 E5.22914
G1 X105.427 Y130.822 E5.24611
G1 X104.944 Y130.659 E5.26309
G1 X104.569 Y130.469 E5.27709
G1 X74.571 Y112.747 E6.43768
G1 X74.154 Y112.454 E6.45466
G1 X73.788 Y112.1 E6.47162
G1 X73.482 Y111.693 E6.48858
G1 X73.203 Y111.147 E6.50901
G1 X72.862 Y110.287 E6.53982
G1 X72.787 Y110.076 E6.54728
G1 X70.399 Y102.586 E6.80915
G1 X68.46 Y97.435 E6.99249
G1 X66.246 Y92.434 E7.17467
G1 X63.759 Y87.578 E7.3564
G1 X60.988 Y82.846 E7.53906
G1 X57.959 Y78.287 E7.72139
G1 X54.673 Y73.902 E7.90392
G1 X51.156 Y69.723 E8.08586
G1 X47.396 Y65.736 E8.26841
G1 X46.455 Y64.827 E8.31199
G1 X46.412 Y64.784 E8.31401
G1 X44.548 Y62.913 E8.40199
G1 X44.272 Y62.598 E8.41594
G1 X42.09 Y59.755 E8.53532
G1 X41.854 Y59.402 E8.54946
G1 X40.972 Y57.876 E8.60817
G1 X40.774 Y57.47 E8.62322
G1 X39.313 Y53.863 E8.75285
G1 X39.181 Y53.466 E8.76679
G1 X38.804 Y52.025 E8.8164
G1 X38.726 Y51.625 E8.82998
G1 X38.268 Y48.139 E8.9471
G1 X38.24 Y47.734 E8.96062
G1 X38.23 Y45.898 E9.02178
G1 X38.264 Y45.41 E9.03807
G1 X38.862 Y41.319 E9.17579
G1 X38.948 Y40.913 E9.18962
G1 X39.289 Y39.694 E9.23178
G1 X39.417 Y39.324 E9.24482
G1 X40.788 Y36.02 E9.36398
G1 X40.977 Y35.639 E9.37815
G1 X41.86 Y34.112 E9.4369
G1 X42.093 Y33.762 E9.45091
G1 F600 E7.70091
G0 F2625 X44.832 Y35.944
;TYPE:SUPPORT
G1 F600 E9.45091
G1 F900 X46.59 Y35.357 E9.51265
G1 X46.985 Y34.84 E9.53432
G1 X47.096 Y32.991 E9.59602
G1 X48.211 Y31.876 E9.64855
G1 X50.06 Y31.765 E9.71025
G1 X50.577 Y31.37 E9.73192
G1 X51.163 Y29.611 E9.79368
G1 X52.532 Y28.82 E9.84635
G1 X54.342 Y29.188 E9.90787
G1 X54.944 Y28.94 E9.92956
G1 X55.968 Y27.395 E9.9913
G1 X57.499 Y26.985 E10.0441
G1 X59.157 Y27.817 E10.10589
G1 X59.805 Y27.732 E10.12766
G1 X61.187 Y26.501 E10.18931
G1 X62.772 Y26.501 E10.24211
G1 X64.154 Y27.732 E10.30376
G1 X64.801 Y27.817 E10.32549
G1 X66.453 Y26.985 E10.38711
G1 X67.987 Y27.396 E10.44001
G1 X69.011 Y28.942 E10.50178
G1 X69.613 Y29.19 E10.52346
G1 X71.426 Y28.821 E10.58509
G1 X72.794 Y29.611 E10.63772
G1 X73.379 Y31.37 E10.69946
G1 X73.896 Y31.765 E10.72114
G1 X75.746 Y31.876 E10.78287
G1 X76.861 Y32.991 E10.8354
G1 X76.972 Y34.84 E10.8971
G1 X77.367 Y35.357 E10.91877
G1 X79.125 Y35.944 E10.98051
G1 X79.916 Y37.314 E11.0332
G1 X79.547 Y39.125 E11.09477
G1 X79.795 Y39.727 E11.11646
G1 X81.342 Y40.751 E11.17825
G1 X81.752 Y42.28 E11.23098
G1 X80.921 Y43.935 E11.29267
G1 X81.006 Y44.583 E11.31444
G1 X82.237 Y45.965 E11.37609
G1 X82.237 Y47.551 E11.42892
G1 X81.006 Y48.933 E11.49057
G1 X80.921 Y49.581 E11.51234
G1 X81.752 Y51.236 E11.57403
G1 X81.342 Y52.766 E11.62679
G1 X79.795 Y53.791 E11.68861
G1 X79.547 Y54.393 E11.7103
G1 X79.916 Y56.207 E11.77196
G1 X79.128 Y57.572 E11.82446
G1 X77.367 Y58.158 E11.88628
G1 X76.972 Y58.674 E11.90793
G1 X76.861 Y60.525 E11.9697
G1 X75.745 Y61.641 E12.02227
G1 X75.59 Y61.65 E12.02744
G1 X73.269 Y59.828 E12.12573
G1 X72.573 Y59.9 E12.14904
G1 X70.904 Y61.88 E12.2353
G1 X70.781 Y62.495 E12.25619
G1 X82.48 Y99.832 E13.55952
G1 X89.628 Y104.059 E13.83614
G1 X84.776 Y112.262 E14.15361
G1 X85.193 Y113.865 E14.20878
G1 X106.854 Y126.673 E15.04701
G1 X106.437 Y127.378 E15.0743
G1 X106.273 Y127.421 E15.07995
G1 X76.379 Y109.761 E16.2365
G1 X76.343 Y109.716 E16.23842
G1 X62.129 Y64.36 E17.8217
G1 X61.615 Y63.957 E17.84346
G1 X59.123 Y63.801 E17.92663
G1 X58.565 Y64.154 E17.94862
G1 X57.637 Y66.461 E18.03146
G1 X57.502 Y66.528 E18.03648
G1 X55.964 Y66.116 E18.08951
G1 X54.945 Y64.578 E18.15097
G1 X54.343 Y64.33 E18.17266
G1 X52.534 Y64.698 E18.23415
G1 X51.167 Y63.908 E18.28674
G1 X50.581 Y62.147 E18.34856
G1 X50.064 Y61.752 E18.37024
G1 X48.214 Y61.641 E18.43197
G1 X47.091 Y60.521 E18.4848
G1 X46.98 Y58.678 E18.54631
G1 X46.585 Y58.161 E18.56798
G1 X44.83 Y57.577 E18.62959
G1 X44.04 Y56.21 E18.68218
G1 X44.41 Y54.391 E18.74401
G1 X44.162 Y53.789 E18.7657
G1 X42.615 Y52.765 E18.8275
G1 X42.205 Y51.236 E18.88023
G1 X43.036 Y49.581 E18.94192
G1 X42.951 Y48.933 E18.96369
G1 X41.72 Y47.551 E19.02534
G1 X41.72 Y45.965 E19.07817
G1 X42.951 Y44.583 E19.13982
G1 X43.036 Y43.935 E19.16159
G1 X42.205 Y42.28 E19.22328
G1 X42.615 Y40.751 E19.27601
G1 X44.162 Y39.727 E19.3378
G1 X44.41 Y39.125 E19.35949
G1 X44.041 Y37.314 E19.42106
G1 X44.832 Y35.944 E19.47375
G1 F600 E17.72375
G0 F2625 X58.305 Y44.069
G1 F600 E19.47375
G1 F900 X57.937 Y44.674 E19.49734
G1 X57.639 Y45.416 E19.52397
G1 X57.466 Y46.183 E19.55017
G1 X57.431 Y46.972 E19.57647
G1 X57.517 Y47.67 E19.5999
G1 X57.761 Y48.468 E19.6277
G1 X58.112 Y49.146 E19.65313
G1 X58.528 Y49.726 E19.6769
G1 X58.831 Y50.041 E19.69146
G1 X59.098 Y50.281 E19.70342
G1 X59.78 Y50.729 E19.7306
G1 X60.454 Y51.048 E19.75544
G1 X61.257 Y51.251 E19.78303
G1 X61.962 Y51.311 E19.8066
G1 X62.754 Y51.246 E19.83307
G1 X63.484 Y51.051 E19.85824
G1 X64.196 Y50.726 E19.88431
G1 X64.843 Y50.289 E19.91032
G1 X65.345 Y49.834 E19.93289
G1 X65.831 Y49.166 E19.9604
G1 X66.199 Y48.465 E19.98678
G1 X66.428 Y47.696 E20.0135
G1 X66.527 Y46.934 E20.0391
G1 X66.492 Y46.155 E20.06507
G1 X66.326 Y45.436 E20.08965
G1 X66.069 Y44.742 E20.11431
G1 X65.597 Y43.997 E20.14368
G1 X65.127 Y43.474 E20.16711
G1 X64.545 Y43.001 E20.19209
G1 X63.83 Y42.603 E20.21934
G1 X63.155 Y42.366 E20.24318
G1 X62.375 Y42.222 E20.2696
G1 X61.988 Y42.21 E20.28249
G1 X61.534 Y42.23 E20.29763
G1 X60.838 Y42.356 E20.32119
G1 X60.056 Y42.63 E20.34879
G1 X59.453 Y42.964 E20.37175
G1 X58.79 Y43.514 E20.40045
G1 X58.305 Y44.069 E20.425
G0 F2625 X58.345 Y43.72
G1 F900 X58.345 Y27.634 E20.96083
G1 F600 E19.21083
G0 F2625 X60.012 Y27.815
G1 F600 E20.96083
G1 F900 X60.012 Y42.434 E21.4478
G1 F600 E19.6978
G0 F2625 X61.679 Y42.024
G1 F600 E21.4478
G1 F900 X61.679 Y26.701 E21.95821
G1 F600 E20.20821
G0 F2625 X63.346 Y27.281
G1 F600 E21.95821
G1 F900 X63.346 Y42.221 E22.45587
G1 F600 E20.70587
G0 F2625 X65.013 Y43.123
G1 F600 E22.45587
G1 F900 X65.013 Y27.933 E22.96185
G1 F600 E21.21185
G0 F2625 X66.68 Y27.253
G1 F600 E22.96185
G1 F900 X66.68 Y46.081 E23.58902
G0 F2625 X66.716 Y46.676
G1 F900 X82.037 Y46.676 E24.09937
G1 F600 E22.34937
G0 F2625 X81.683 Y45.644
G1 F600 E24.09937
G1 F900 X81.683 Y47.873 E24.17362
G0 F2625 X81.262 Y48.343
G1 F900 X66.445 Y48.343 E24.66718
G1 F600 E22.91718
G0 F2625 X66.68 Y47.305
G1 F600 E24.66718
G1 F900 X66.68 Y78.214 E25.69677
G0 F2625 X66.722 Y78.349
G1 F900 X75.54 Y78.349 E25.9905
G1 F600 E24.2405
G0 F2625 X76.062 Y80.016
G1 F600 E25.9905
G1 F900 X67.244 Y80.016 E26.28423
G1 F600 E24.53423
G0 F2625 X67.767 Y81.683
G1 F600 E26.28423
G1 F900 X76.584 Y81.683 E26.57792
G0 F2625 X76.682 Y81.997
G1 F900 X76.682 Y109.708 E27.50099
G1 F600 E25.75099
G0 F2625 X76.126 Y108.355
G1 F600 E27.50099
G1 F900 X86.854 Y108.355 E27.85834
G0 F2625 X86.684 Y108.643
G1 F900 X86.684 Y102.551 E28.06127
G1 F600 E26.31127
G0 F2625 X88.044 Y103.354
G1 F600 E28.06127
G1 F900 X74.559 Y103.354 E28.51046
G1 F600 E26.76046
G0 F2625 X75.015 Y104.808
G1 F600 E28.51046
G1 F900 X75.015 Y76.677 E29.44751
G0 F2625 X75.017 Y76.682
G1 F900 X66.199 Y76.682 E29.74124
G1 F600 E27.99124
G0 F2625 X65.677 Y75.015
G1 F600 E29.74124
G1 F900 X74.495 Y75.015 E30.03497
G1 F600 E28.28497
G0 F2625 X73.973 Y73.348
G1 F600 E30.03497
G1 F900 X65.153 Y73.348 E30.32877
G0 F2625 X65.013 Y72.895
G1 F900 X65.013 Y50.404 E31.07795
G0 F2625 X65.448 Y50.01
G1 F900 X80.913 Y50.01 E31.5931
G1 F600 E29.8431
G0 F2625 X81.426 Y51.677
G1 F600 E31.5931
G1 F900 X42.53 Y51.677 E32.88874
G1 F600 E31.13874
G0 F2625 X43.045 Y50.01
G1 F600 E32.88874
G1 F900 X58.524 Y50.01 E33.40435
G0 F2625 X58.345 Y49.814
G1 F900 X58.345 Y64.165 E33.88239
G0 F2625 X58.002 Y65.013
G1 F900 X55.471 Y65.013 E33.9667
G0 F2625 X55.011 Y64.388
G1 F900 X55.011 Y29.128 E35.14122
G0 F2625 X55.582 Y28.339
G1 F900 X68.373 Y28.339 E35.56729
G0 F2625 X68.347 Y28.302
G1 F900 X68.347 Y83.533 E37.40706
G0 F2625 X68.289 Y83.35
G1 F900 X77.107 Y83.35 E37.70079
G1 F600 E35.95079
G0 F2625 X77.629 Y85.017
G1 F600 E37.70079
G1 F900 X68.812 Y85.017 E37.99448
G1 F600 E36.24448
G0 F2625 X69.334 Y86.684
G1 F600 E37.99448
G1 F900 X78.151 Y86.684 E38.28818
G0 F2625 X78.349 Y87.317
G1 F900 X78.349 Y110.692 E39.06681
G1 F600 E37.31681
G0 F2625 X77.213 Y110.022
G1 F600 E39.06681
G1 F900 X85.868 Y110.022 E39.35511
G1 F600 E37.60511
G0 F2625 X85.017 Y111.462
G1 F600 E39.35511
G1 F900 X85.017 Y101.565 E39.68479
G0 F2625 X85.225 Y101.687
G1 F900 X74.036 Y101.687 E40.05749
G1 F600 E38.30749
G0 F2625 X73.514 Y100.02
G1 F600 E40.05749
G1 F900 X82.406 Y100.02 E40.35369
G1 F600 E38.60369
G0 F2625 X83.35 Y100.579
G1 F600 E40.35369
G1 F900 X83.35 Y113.647 E40.78899
G0 F2625 X82.857 Y113.356
G1 F900 X84.854 Y113.356 E40.85551
G0 F2625 X85.017 Y113.985
G1 F900 X85.017 Y114.631 E40.87703
G0 F2625 X85.679 Y115.023
G1 F900 X86.758 Y115.023 E40.91297
G0 F2625 X86.684 Y114.98
G1 F900 X86.684 Y115.616 E40.93416
G1 F600 E39.18416
G0 F2625 X88.351 Y115.966
G1 F600 E40.93416
G1 F900 X88.351 Y116.601 E40.95531
G0 F2625 X88.501 Y116.69
G1 F900 X89.577 Y116.69 E40.99115
G0 F2625 X90.018 Y116.951
G1 F900 X90.018 Y117.586 E41.0123
G1 F600 E39.2623
G0 F2625 X91.685 Y117.937
G1 F600 E41.0123
G1 F900 X91.685 Y118.57 E41.03339
G0 F2625 X91.322 Y118.357
G1 F900 X92.397 Y118.357 E41.0692
G1 F600 E39.3192
G0 F2625 X93.352 Y118.923
G1 F600 E41.0692
G1 F900 X93.352 Y119.555 E41.09025
G0 F2625 X94.143 Y120.024
G1 F900 X95.215 Y120.024 E41.12596
G0 F2625 X95.019 Y119.908
G1 F900 X95.019 Y120.54 E41.14701
G1 F600 E39.39701
G0 F2625 X96.686 Y120.894
G1 F600 E41.14701
G1 F900 X96.686 Y121.525 E41.16803
G0 F2625 X96.965 Y121.691
G1 F900 X98.035 Y121.691 E41.20367
G0 F2625 X98.353 Y121.879
G1 F900 X98.353 Y122.509 E41.22466
G1 F600 E39.47466
G0 F2625 X99.787 Y123.358
G1 F600 E41.22466
G1 F900 X100.854 Y123.358 E41.2602
G0 F2625 X100.02 Y123.494
G1 F900 X100.02 Y122.865 E41.28115
G1 F600 E39.53115
G0 F2625 X101.687 Y123.851
G1 F600 E41.28115
G1 F900 X101.687 Y124.479 E41.30207
G1 F600 E39.55207
G0 F2625 X102.609 Y125.025
G1 F600 E41.30207
G1 F900 X103.674 Y125.025 E41.33755
G0 F2625 X103.354 Y124.836
G1 F900 X103.354 Y125.464 E41.35846
G1 F600 E39.60846
G0 F2625 X105.021 Y125.822
G1 F600 E41.35846
G1 F900 X105.021 Y126.448 E41.37932
G0 F2625 X105.431 Y126.692
G1 F900 X106.493 Y126.692 E41.41469
G1 F600 E39.66469
G0 F2625 X86.134 Y113.157
G0 X84.882 Y111.689
G1 F600 E41.41469
G1 F900 X80.035 Y111.689 E41.57615
G0 F2625 X80.016 Y111.677
G1 F900 X80.016 Y92.638 E42.21034
G0 F2625 X80.241 Y93.352
G1 F900 X71.424 Y93.352 E42.50404
G0 F2625 X71.681 Y94.17
G1 F900 X71.681 Y66.036 E43.44119
G0 F2625 X71.884 Y66.68
G1 F900 X63.064 Y66.68 E43.73499
G0 F2625 X63.346 Y67.577
G1 F900 X63.346 Y51.295 E44.27735
G1 F600 E42.52735
G0 F2625 X61.679 Y51.488
G1 F600 E44.27735
G1 F900 X61.679 Y63.76 E44.68614
G1 F600 E42.93614
G0 F2625 X60.012 Y63.655
G1 F600 E44.68614
G1 F900 X60.012 Y51.061 E45.10565
G1 F600 E43.35565
G0 F2625 X57.514 Y48.343
G1 F600 E45.10565
G1 F900 X42.693 Y48.343 E45.59934
G1 F600 E43.84934
G0 F2625 X41.92 Y46.676
G1 F600 E45.59934
G1 F900 X57.243 Y46.676 E46.10975
