;Generated by Cura LulzBot Edition GCodeWriter Version: 3.6.18
;FLAVOR:Marlin
;TIME:2836
;Filament used: 2.11898m
;Layer height: 0.38
;Generated with Cura_SteamEngine 3.6.18
M82 ;absolute extrusion mode
;This G-Code has been generated specifically for the LulzBot Mini with standard extruder
M73 P0 ; clear GLCD progress bar
M75 ; Start GLCD Timer
G26 ; clear potential 'probe fail' condition
M107 ; disable fans
M420 S0 ; disable leveling matrix
G90 ; absolute positioning
M82 ; set extruder to absolute mode
G92 E0 ; set extruder position to 0
M140 S60.0 ; start bed heating up
G28 ; home all axes
G0 X0 Y187 Z156 F200 ; move away from endstops
M109 R140 ;
G1 E-30 F75 ; retract filament
M109 R140 ; wait for extruder to reach wiping temp
G1 X45 Y173 F11520 ; move above wiper pad
G1 Z0 F1200 ; push nozzle into wiper
G1 X42 Y173 Z-.5 F4000             ; wiping
G1 X52 Y171 Z-.5 F4000             ; wiping
G1 X42 Y173 Z0 F4000               ; wiping
G1 X52 Y171 F4000                  ; wiping
G1 X42 Y173 F4000                  ; wiping
G1 X52 Y171 F4000                  ; wiping
G1 X42 Y173 F4000                  ; wiping
G1 X52 Y171 F4000                  ; wiping
G1 X57 Y173 F4000                  ; wiping
G1 X77 Y171 F4000                  ; wiping
G1 X57 Y173 F4000                  ; wiping
G1 X77 Y171 F4000                  ; wiping
G1 X57 Y173 F4000                  ; wiping
G1 X87 Y171 F4000                  ; wiping
G1 X77 Y173 F4000                  ; wiping
G1 X97 Y171 F4000                  ; wiping
G1 X77 Y173 F4000                  ; wiping
G1 X97 Y171 F4000                  ; wiping
G1 X77 Y173 F4000                  ; wiping
G1 X97 Y171 F4000                  ; wiping
G1 X107 Y173 F4000                 ; wiping
G1 X97 Y171 F4000                  ; wiping
G1 X107 Y173 F4000                 ; wiping
G1 X97 Y171 F4000                  ; wiping
G1 X107 Y173 F4000                 ; wiping
G1 X112 Y171 Z-0.5 F1000           ; wiping
G1 Z10 ; raise extruder
G28 X0 Y0 ; home X and Y
G0 X0 Y187 F200 ; move away from endstops
M109 R140 ; wait for extruder to reach probe temp
M204 S300 ; set probing acceleration
G29       ; start auto-leveling sequence
M420 S1   ; enable leveling matrix
M425 Z	  ; use measured Z backlash for compensation
M425 Z F0 ; turn off measured Z backlash compensation. (if activated in the quality settings, this command will automatically be ignored)
M204 S2000 ; restore standard acceleration
G28 X0 Y0 ; re-home to account for build variance of earlier mini builds
G0 X0 Y187 F200 ; move away from endstops
G0 Y152 F4000 ; move in front of wiper pad
G4 S1 ; pause
M400 ; wait for moves to finish
M117 Heating... ; progress indicator message on LCD
M109 R210  ; wait for extruder to reach printing temp
M190 R60.0 ; wait for bed to reach printing temp
G1 Z2 E0 F75 ; prime tiny bit of filament into the nozzle
M117 Mini Printing... ; progress indicator message on LCD

M221 S100 T0
G92 E0
G1 F600 E-1.75
;LAYER_COUNT:27
;LAYER:0
M107
G0 F2625 X35.47 Y66.175 Z0.425
;TYPE:SKIRT
G1 F600 E0
G1 F900 X35.912 Y65.951 E0.01651
G1 X38.297 Y64.962 E0.10251
G1 X38.831 Y64.793 E0.12117
G1 X41.705 Y64.149 E0.21928
G1 X42.176 Y64.079 E0.23514
G1 X44.406 Y63.914 E0.30962
G1 X45.052 Y63.93 E0.33115
G1 X50.224 Y64.581 E0.50479
G1 X55.727 Y65.118 E0.68897
G1 X61.171 Y65.341 E0.87046
G1 X66.654 Y65.254 E1.05312
G1 X72.12 Y64.859 E1.23567
G1 X77.545 Y64.156 E1.41789
G1 X82.911 Y63.15 E1.59975
G1 X85.56 Y62.536 E1.69033
G1 X90.853 Y61.069 E1.87329
G1 X96.065 Y59.302 E2.05661
G1 X98.557 Y58.338 E2.14561
G1 X101.092 Y57.273 E2.2372
G1 X106.067 Y54.932 E2.42035
G1 X110.916 Y52.304 E2.60407
G1 X112.984 Y51.075 E2.6842
G1 X113.441 Y50.849 E2.70118
G1 X113.927 Y50.698 E2.71814
G1 X114.644 Y50.618 E2.74217
G1 X125.834 Y50.615 E3.11491
G1 X126.342 Y50.655 E3.13188
G1 X126.838 Y50.774 E3.14888
G1 X127.308 Y50.968 E3.16581
G1 X127.743 Y51.234 E3.1828
G1 X128.131 Y51.565 E3.19979
G1 X128.462 Y51.952 E3.21675
G1 X128.729 Y52.386 E3.23372
G1 X128.924 Y52.856 E3.25067
G1 X129.044 Y53.351 E3.26764
G1 X129.084 Y53.949 E3.2876
G1 X128.393 Y80.804 E4.18245
G1 X128.34 Y81.31 E4.1994
G1 X128.208 Y81.803 E4.2164
G1 X128.002 Y82.268 E4.23334
G1 X127.724 Y82.696 E4.25034
G1 X127.384 Y83.075 E4.2673
G1 X126.988 Y83.396 E4.28428
G1 X126.548 Y83.651 E4.30122
G1 X125.906 Y83.879 E4.32391
G1 X45.416 Y103.292 E7.08194
G1 X44.913 Y103.373 E7.09891
G1 X44.355 Y103.369 E7.1175
G1 X41.44 Y103.1 E7.21501
G1 X40.964 Y103.02 E7.23109
G1 X38.766 Y102.48 E7.30648
G1 X38.297 Y102.327 E7.32292
G1 X35.912 Y101.339 E7.40891
G1 X35.458 Y101.107 E7.42589
G1 X33.255 Y99.757 E7.51196
G1 X32.842 Y99.457 E7.52896
G1 X30.881 Y97.782 E7.61487
G1 X30.491 Y97.386 E7.63338
G1 X28.617 Y95.127 E7.73115
G1 X28.307 Y94.684 E7.74916
G1 X26.975 Y92.39 E7.83752
G1 X26.758 Y91.939 E7.8542
G1 X25.846 Y89.6 E7.93782
G1 X25.714 Y89.177 E7.95258
G1 X25.357 Y87.688 E8.00359
G1 X25.322 Y87.527 E8.00908
G1 X25.125 Y86.472 E8.04483
G1 X25.079 Y86.115 E8.05682
G1 X24.914 Y83.885 E8.1313
G1 X24.915 Y83.389 E8.14782
G1 X25.119 Y80.809 E8.23403
G1 X25.199 Y80.307 E8.25096
G1 X25.803 Y77.789 E8.33722
G1 X25.961 Y77.302 E8.35427
G1 X26.953 Y74.909 E8.44056
G1 X27.184 Y74.455 E8.45753
G1 X28.532 Y72.256 E8.54345
G1 X28.86 Y71.812 E8.56184
G1 X30.777 Y69.627 E8.65866
G1 X31.157 Y69.259 E8.67628
G1 X33.147 Y67.624 E8.76207
G1 X33.523 Y67.357 E8.77743
G1 X35.47 Y66.175 E8.8533
G1 F600 E7.1033
;MESH:
G0 F2625 X36.755 Y68.41
G0 X37.502 Y69.632
G0 X42.89 Y74.503
G0 X43.283 Y74.768
G0 X43.714 Y74.964
G0 X44.174 Y75.083
G0 X44.644 Y75.124
G0 X45.114 Y75.083
G0 X45.574 Y74.964
G0 X46.006 Y74.768
G0 X46.399 Y74.504
G0 X46.592 Y74.318
G0 X47.291 Y73.395
G0 X47.199 Y73.358
;TYPE:WALL-INNER
G1 F600 E8.8533
G1 F900 X47.334 Y72.911 E8.86886
G1 X47.395 Y72.449 E8.88438
G1 X47.375 Y71.981 E8.89999
G1 X47.277 Y71.525 E8.91552
G1 X47.102 Y71.091 E8.93111
G1 X46.857 Y70.695 E8.94662
G1 X46.55 Y70.344 E8.96215
G1 X46.187 Y70.051 E8.97769
G1 X45.779 Y69.822 E8.99328
G1 X45.337 Y69.666 E9.00889
G1 X44.892 Y69.591 E9.02392
G1 X44.644 Y69.581 E9.03219
G1 X44.397 Y69.591 E9.04043
G1 X43.951 Y69.666 E9.05549
G1 X43.511 Y69.822 E9.07104
G1 X43.103 Y70.05 E9.08661
G1 X42.739 Y70.344 E9.1022
G1 X42.43 Y70.695 E9.11777
G1 X42.187 Y71.091 E9.13325
G1 X42.012 Y71.525 E9.14884
G1 X41.914 Y71.981 E9.16437
G1 X41.894 Y72.447 E9.17991
G1 X41.954 Y72.911 E9.19549
G1 X42.09 Y73.358 E9.21106
G1 X42.3 Y73.774 E9.22658
G1 X42.579 Y74.15 E9.24218
G1 X42.915 Y74.472 E9.25768
G1 X43.302 Y74.734 E9.27325
G1 X43.727 Y74.927 E9.28879
G1 X44.18 Y75.044 E9.30438
G1 X44.644 Y75.084 E9.31989
G1 X45.108 Y75.044 E9.33541
G1 X45.561 Y74.927 E9.35099
G1 X45.987 Y74.734 E9.36657
G1 X46.374 Y74.473 E9.38212
G1 X46.712 Y74.149 E9.39771
G1 X46.988 Y73.774 E9.41322
G1 X47.199 Y73.358 E9.42876
G0 F2625 X47.291 Y73.395
G0 X51.611 Y80.132
G0 X52.01 Y81.126
G0 X52.444 Y82.646
G0 X52.345 Y82.658
G1 F900 X52.067 Y81.371 E9.47262
G1 X51.576 Y80.15 E9.51646
G1 X50.885 Y79.029 E9.56032
G1 X50.016 Y78.041 E9.60415
G1 X48.992 Y77.213 E9.64802
G1 X47.842 Y76.571 E9.69189
G1 X46.6 Y76.132 E9.73577
G1 X45.318 Y75.913 E9.77909
G1 X44.644 Y75.885 E9.80156
G1 X43.971 Y75.913 E9.824
G1 X42.689 Y76.132 E9.86732
G1 X41.447 Y76.571 E9.9112
G1 X40.297 Y77.213 E9.95508
G1 X39.273 Y78.041 E9.99894
G1 X38.403 Y79.029 E10.04279
G1 X37.713 Y80.15 E10.08664
G1 X37.222 Y81.371 E10.13048
G1 X36.944 Y82.658 E10.17434
G1 X36.889 Y83.974 E10.21821
G1 X37.056 Y85.281 E10.2621
G1 X37.441 Y86.54 E10.30596
G1 X38.034 Y87.715 E10.3498
G1 X38.817 Y88.774 E10.39367
G1 X39.768 Y89.684 E10.43751
G1 X40.859 Y90.422 E10.48139
G1 X42.058 Y90.964 E10.52522
G1 X43.333 Y91.296 E10.56911
G1 X44.644 Y91.408 E10.61293
G1 X45.956 Y91.296 E10.6568
G1 X47.231 Y90.964 E10.70068
G1 X48.43 Y90.422 E10.74451
G1 X49.521 Y89.684 E10.78839
G1 X50.472 Y88.774 E10.83223
G1 X51.255 Y87.715 E10.8761
G1 X51.848 Y86.54 E10.91995
G1 X52.233 Y85.281 E10.9638
G1 X52.4 Y83.974 E11.00769
G1 X52.345 Y82.658 E11.05157
G0 F2625 X52.444 Y82.646
G0 X53.58 Y85.109
G0 X53.863 Y85.49
G0 X54.204 Y85.817
G0 X54.597 Y86.082
G0 X55.028 Y86.278
G0 X55.488 Y86.397
G0 X55.958 Y86.438
G0 X56.428 Y86.397
G0 X56.888 Y86.278
G0 X57.32 Y86.082
G0 X57.713 Y85.818
G0 X57.906 Y85.632
G0 X58.605 Y84.709
G0 X58.513 Y84.672
G1 F900 X58.648 Y84.225 E11.06712
G1 X58.709 Y83.763 E11.08264
G1 X58.689 Y83.295 E11.09825
G1 X58.591 Y82.839 E11.11378
G1 X58.416 Y82.405 E11.12937
G1 X58.171 Y82.009 E11.14488
G1 X57.864 Y81.658 E11.16042
G1 X57.501 Y81.365 E11.17595
G1 X57.093 Y81.136 E11.19154
G1 X56.651 Y80.98 E11.20715
G1 X56.206 Y80.905 E11.22219
G1 X55.958 Y80.895 E11.23045
G1 X55.711 Y80.905 E11.23869
G1 X55.265 Y80.98 E11.25375
G1 X54.825 Y81.136 E11.2693
G1 X54.417 Y81.364 E11.28487
G1 X54.053 Y81.658 E11.30046
G1 X53.744 Y82.009 E11.31603
G1 X53.501 Y82.405 E11.33151
G1 X53.326 Y82.839 E11.3471
G1 X53.228 Y83.295 E11.36264
G1 X53.208 Y83.761 E11.37817
G1 X53.268 Y84.225 E11.39376
G1 X53.404 Y84.672 E11.40932
G1 X53.614 Y85.088 E11.42484
G1 X53.893 Y85.464 E11.44044
G1 X54.229 Y85.786 E11.45594
G1 X54.616 Y86.048 E11.47151
G1 X55.041 Y86.241 E11.48706
G1 X55.494 Y86.358 E11.50264
G1 X55.958 Y86.398 E11.51815
G1 X56.422 Y86.358 E11.53367
G1 X56.875 Y86.241 E11.54925
G1 X57.301 Y86.048 E11.56483
G1 X57.688 Y85.787 E11.58038
G1 X58.026 Y85.463 E11.59598
G1 X58.302 Y85.088 E11.61149
G1 X58.513 Y84.672 E11.62702
G0 F2625 X58.605 Y84.709
G0 X60.333 Y87.023
G0 X60.394 Y86.945
G1 F900 X60.702 Y86.871 E11.63758
G1 X83.918 Y81.273 E12.43307
G1 X88.79 Y72.601 E12.76441
G1 X88.79 Y67.895 E12.92117
G1 X110.713 Y67.895 E13.65143
G1 X115.183 Y54.605 E14.11849
G1 X124.83 Y54.605 E14.43984
G1 X124.831 Y54.605 E14.43987
G1 X125.086 Y54.605 E14.44836
G1 X125.08 Y54.86 E14.45383
G1 X124.417 Y80.14 E15.2962
G1 X44.582 Y99.389 E18.03174
G1 X42.183 Y99.2 E18.1119
G1 X39.781 Y98.622 E18.1942
G1 X37.493 Y97.674 E18.2767
G1 X35.388 Y96.386 E18.3589
G1 X33.509 Y94.78 E18.44124
G1 X31.904 Y92.901 E18.52355
G1 X30.615 Y90.797 E18.60574
G1 X29.667 Y88.51 E18.68821
G1 X29.09 Y86.106 E18.77056
G1 X28.896 Y83.645 E18.85279
G1 X29.09 Y81.184 E18.93502
G1 X29.667 Y78.78 E19.01738
G1 X30.615 Y76.493 E19.09984
G1 X31.904 Y74.388 E19.18206
G1 X33.509 Y72.51 E19.26435
G1 X35.388 Y70.904 E19.34669
G1 X37.493 Y69.615 E19.42891
G1 X39.78 Y68.667 E19.51138
G1 X42.183 Y68.09 E19.5937
G1 X44.63 Y67.898 E19.67546
G1 X47.119 Y68.176 E19.75888
G1 X49.417 Y68.707 E19.83745
G1 X51.4 Y69.449 E19.90797
G1 X53.15 Y70.392 E19.97419
G1 X54.678 Y71.523 E20.03752
G1 X56.033 Y72.862 E20.10097
G1 X57.211 Y74.402 E20.16556
G1 X58.242 Y76.196 E20.23448
G1 X59.108 Y78.24 E20.30843
G1 X59.812 Y80.592 E20.39021
G1 X60.335 Y83.276 E20.48129
G1 X60.394 Y83.698 E20.49549
G1 X60.394 Y86.628 E20.59309
G1 X60.394 Y86.629 E20.59312
G1 X60.394 Y86.945 E20.59952
G0 F2625 X60.333 Y87.023
G0 X47.291 Y96.023
G0 X47.199 Y95.986
G1 F900 X47.334 Y95.539 E20.61507
G1 X47.395 Y95.077 E20.63059
G1 X47.375 Y94.609 E20.6462
G1 X47.277 Y94.153 E20.66173
G1 X47.102 Y93.719 E20.67732
G1 X46.857 Y93.323 E20.69283
G1 X46.55 Y92.972 E20.70836
G1 X46.187 Y92.679 E20.7239
G1 X45.779 Y92.45 E20.73949
G1 X45.337 Y92.294 E20.7551
G1 X44.892 Y92.219 E20.77013
G1 X44.644 Y92.209 E20.7784
G1 X44.397 Y92.219 E20.78664
G1 X43.951 Y92.294 E20.8017
G1 X43.511 Y92.45 E20.81725
G1 X43.103 Y92.678 E20.83282
G1 X42.739 Y92.972 E20.84841
G1 X42.43 Y93.323 E20.86398
G1 X42.187 Y93.719 E20.87946
G1 X42.012 Y94.153 E20.89505
G1 X41.914 Y94.609 E20.91058
G1 X41.894 Y95.075 E20.92612
G1 X41.954 Y95.539 E20.94171
G1 X42.09 Y95.986 E20.95727
G1 X42.3 Y96.402 E20.97279
G1 X42.579 Y96.778 E20.98839
G1 X42.915 Y97.1 E21.00389
G1 X43.302 Y97.362 E21.01946
G1 X43.727 Y97.555 E21.03501
G1 X44.18 Y97.672 E21.05059
G1 X44.644 Y97.712 E21.0661
G1 X45.108 Y97.672 E21.08162
G1 X45.561 Y97.555 E21.0972
G1 X45.987 Y97.362 E21.11278
G1 X46.374 Y97.101 E21.12833
G1 X46.712 Y96.777 E21.14393
G1 X46.988 Y96.402 E21.15944
G1 X47.199 Y95.986 E21.17497
G0 F2625 X47.291 Y96.023
G0 X47.434 Y95.078
G0 X47.414 Y94.604
G0 X47.315 Y94.142
G0 X47.137 Y93.701
G0 X46.577 Y92.944
G0 X46.209 Y92.646
G0 X45.795 Y92.414
G0 X42.045 Y91.001
G0 X40.84 Y90.456
G0 X39.743 Y89.715
G0 X38.787 Y88.8
G0 X38.565 Y88.499
G0 X35.977 Y84.709
G0 X35.885 Y84.672
G1 F900 X36.02 Y84.225 E21.19053
G1 X36.081 Y83.763 E21.20605
G1 X36.061 Y83.295 E21.22165
G1 X35.963 Y82.839 E21.23719
G1 X35.788 Y82.405 E21.25278
G1 X35.543 Y82.009 E21.26829
G1 X35.236 Y81.658 E21.28382
G1 X34.873 Y81.365 E21.29936
G1 X34.465 Y81.136 E21.31495
G1 X34.023 Y80.98 E21.33056
G1 X33.578 Y80.905 E21.34559
G1 X33.33 Y80.895 E21.35386
G1 X33.083 Y80.905 E21.36209
G1 X32.637 Y80.98 E21.37716
G1 X32.197 Y81.136 E21.39271
G1 X31.789 Y81.364 E21.40828
G1 X31.425 Y81.658 E21.42386
G1 X31.116 Y82.009 E21.43944
G1 X30.873 Y82.405 E21.45492
G1 X30.698 Y82.839 E21.4705
G1 X30.6 Y83.295 E21.48604
G1 X30.58 Y83.761 E21.50158
G1 X30.64 Y84.225 E21.51716
G1 X30.776 Y84.672 E21.53273
G1 X30.986 Y85.088 E21.54825
G1 X31.265 Y85.464 E21.56385
G1 X31.601 Y85.786 E21.57935
G1 X31.988 Y86.048 E21.59491
G1 X32.413 Y86.241 E21.61046
G1 X32.866 Y86.358 E21.62605
G1 X33.33 Y86.398 E21.64156
G1 X33.794 Y86.358 E21.65707
G1 X34.247 Y86.241 E21.67266
G1 X34.673 Y86.048 E21.68824
G1 X35.06 Y85.787 E21.70379
G1 X35.398 Y85.463 E21.71938
G1 X35.674 Y85.088 E21.73489
G1 X35.885 Y84.672 E21.75043
G0 F2625 X35.977 Y84.709
G0 X37.678 Y80.132
G0 X38.371 Y79.006
G0 X39.246 Y78.013
G0 X40.275 Y77.18
G0 X41.431 Y76.535
G0 X42.679 Y76.094
G0 X43.967 Y75.874
G0 X45.322 Y75.874
G0 X46.61 Y76.094
G0 X59.827 Y80.882
G0 X60.37 Y86.976
G0 X83.942 Y81.304
G0 X93.621 Y71.621
G0 X117.771 Y71.589
G0 X117.697 Y71.655
G1 F900 X117.417 Y71.655 E21.75976
G1 X117.416 Y71.655 E21.75979
G1 X93.641 Y71.655 E22.55174
G1 X86.421 Y84.505 E23.04272
G1 X87.012 Y85.289 E23.07542
G1 X116.936 Y78.076 E24.10075
G1 X117.664 Y71.934 E24.30678
G1 X117.697 Y71.655 E24.31263
G0 F2625 X117.134 Y72.155
;TYPE:WALL-OUTER
G1 F900 X116.854 Y72.155 E24.32196
G1 X116.853 Y72.155 E24.32199
G1 X93.934 Y72.155 E25.08543
G1 X87.113 Y84.293 E25.54922
G1 X87.017 Y84.465 E25.55578
G1 X87.214 Y84.726 E25.56668
G1 X87.406 Y84.68 E25.57221
G1 X116.48 Y77.671 E26.56842
G1 X117.101 Y72.434 E26.74409
G1 X117.134 Y72.155 E26.74995
G0 F2625 X116.884 Y72.155
G0 X116.884 Y71.555
G0 X93.621 Y71.621
G0 X83.942 Y81.304
G0 X60.37 Y86.976
G0 X60.294 Y86.31
G0 X60.894 Y86.31
G1 F900 X61.202 Y86.236 E26.7605
G1 X83.589 Y80.838 E27.52759
G1 X88.29 Y72.47 E27.8473
G1 X88.29 Y67.395 E28.01635
G1 X110.354 Y67.395 E28.75131
G1 X114.824 Y54.105 E29.21838
G1 X125.343 Y54.105 E29.56877
G1 X125.344 Y54.105 E29.5688
G1 X125.599 Y54.105 E29.5773
G1 X125.593 Y54.36 E29.58276
G1 X124.907 Y80.536 E30.45499
G1 X44.623 Y99.893 E33.20592
G1 X42.102 Y99.695 E33.29015
G1 X39.626 Y99.099 E33.37498
G1 X37.267 Y98.122 E33.46003
G1 X35.091 Y96.79 E33.54502
G1 X33.154 Y95.135 E33.62989
G1 X31.5 Y93.198 E33.71473
G1 X30.167 Y91.023 E33.7997
G1 X29.19 Y88.665 E33.88473
G1 X28.595 Y86.187 E33.96961
G1 X28.395 Y83.645 E34.05455
G1 X28.595 Y81.103 E34.13949
G1 X29.19 Y78.625 E34.22438
G1 X30.167 Y76.267 E34.3094
G1 X31.5 Y74.091 E34.3944
G1 X33.154 Y72.155 E34.47922
G1 X35.091 Y70.5 E34.56409
G1 X37.267 Y69.167 E34.64909
G1 X39.625 Y68.19 E34.73411
G1 X42.102 Y67.595 E34.81897
G1 X44.641 Y67.396 E34.9038
G1 X47.203 Y67.682 E34.98967
G1 X49.559 Y68.227 E35.07022
G1 X51.608 Y68.993 E35.14309
G1 X53.419 Y69.969 E35.21162
G1 X55.009 Y71.146 E35.27751
G1 X56.406 Y72.527 E35.34295
G1 X57.63 Y74.126 E35.41002
G1 X58.688 Y75.968 E35.48078
G1 X59.58 Y78.073 E35.55694
G1 X60.299 Y80.476 E35.64049
G1 X60.826 Y83.18 E35.73225
G1 X60.894 Y83.665 E35.74857
G1 X60.894 Y85.993 E35.82611
G1 X60.894 Y85.994 E35.82615
G1 X60.894 Y86.31 E35.83254
G0 F2625 X61.137 Y86.252
G0 X61.276 Y86.835
G0 X60.37 Y86.976
G0 X58.802 Y83.82
G0 X58.208 Y83.741
G1 F900 X58.191 Y83.359 E35.84528
G1 X58.111 Y82.986 E35.85799
G1 X57.968 Y82.631 E35.87074
G1 X57.768 Y82.307 E35.88342
G1 X57.516 Y82.02 E35.89614
G1 X57.219 Y81.78 E35.90886
G1 X56.886 Y81.593 E35.92158
G1 X56.525 Y81.466 E35.93433
