;Generated by Cura LulzBot Edition GCodeWriter Version: 3.6.18
;FLAVOR:Marlin
;TIME:6882
;Filament used: 2.01233m
;Layer height: 0.18
;Generated with Cura_SteamEngine 3.6.18
M82 ;absolute extrusion mode
;This G-Code has been generated specifically for the LulzBot Mini with standard extruder
M73 P0 ; clear GLCD progress bar
M75 ; Start GLCD Timer
G26 ; clear potential 'probe fail' condition
M107 ; disable fans
M420 S0 ; disable leveling matrix
G90 ; absolute positioning
M82 ; set extruder to absolute mode
G92 E0 ; set extruder position to 0
M140 S60.0 ; start bed heating up
G28 ; home all axes
G0 X0 Y187 Z156 F200 ; move away from endstops
M109 R140 ;
G1 E-30 F75 ; retract filament
M109 R140 ; wait for extruder to reach wiping temp
G1 X45 Y173 F11520 ; move above wiper pad
G1 Z0 F1200 ; push nozzle into wiper
G1 X42 Y173 Z-.5 F4000             ; wiping
G1 X52 Y171 Z-.5 F4000             ; wiping
G1 X42 Y173 Z0 F4000               ; wiping
G1 X52 Y171 F4000                  ; wiping
G1 X42 Y173 F4000                  ; wiping
G1 X52 Y171 F4000                  ; wiping
G1 X42 Y173 F4000                  ; wiping
G1 X52 Y171 F4000                  ; wiping
G1 X57 Y173 F4000                  ; wiping
G1 X77 Y171 F4000                  ; wiping
G1 X57 Y173 F4000                  ; wiping
G1 X77 Y171 F4000                  ; wiping
G1 X57 Y173 F4000                  ; wiping
G1 X87 Y171 F4000                  ; wiping
G1 X77 Y173 F4000                  ; wiping
G1 X97 Y171 F4000                  ; wiping
G1 X77 Y173 F4000                  ; wiping
G1 X97 Y171 F4000                  ; wiping
G1 X77 Y173 F4000                  ; wiping
G1 X97 Y171 F4000                  ; wiping
G1 X107 Y173 F4000                 ; wiping
G1 X97 Y171 F4000                  ; wiping
G1 X107 Y173 F4000                 ; wiping
G1 X97 Y171 F4000                  ; wiping
G1 X107 Y173 F4000                 ; wiping
G1 X112 Y171 Z-0.5 F1000           ; wiping
G1 Z10 ; raise extruder
G28 X0 Y0 ; home X and Y
G0 X0 Y187 F200 ; move away from endstops
M109 R140 ; wait for extruder to reach probe temp
M204 S300 ; set probing acceleration
G29       ; start auto-leveling sequence
M420 S1   ; enable leveling matrix
M425 Z	  ; use measured Z backlash for compensation
M425 Z F0 ; turn off measured Z backlash compensation. (if activated in the quality settings, this command will automatically be ignored)
M204 S2000 ; restore standard acceleration
G28 X0 Y0 ; re-home to account for build variance of earlier mini builds
G0 X0 Y187 F200 ; move away from endstops
G0 Y152 F4000 ; move in front of wiper pad
G4 S1 ; pause
M400 ; wait for moves to finish
M117 Heating... ; progress indicator message on LCD
M109 R210  ; wait for extruder to reach printing temp
M190 R60.0 ; wait for bed to reach printing temp
G1 Z2 E0 F75 ; prime tiny bit of filament into the nozzle
M117 Mini Printing... ; progress indicator message on LCD

M221 S100 T0
G92 E0
G1 F600 E-1.75
;LAYER_COUNT:88
;LAYER:0
M107
G0 F2625 X56.063 Y41.721 Z0.425
;TYPE:SKIRT
G1 F600 E0
G1 F900 X56.443 Y41.327 E0.01823
G1 X56.876 Y40.992 E0.03647
G1 X57.354 Y40.724 E0.05472
G1 X57.865 Y40.528 E0.07295
G1 X58.399 Y40.409 E0.09118
G1 X58.946 Y40.369 E0.10945
G1 X95.055 Y40.37 E1.31225
G1 X95.601 Y40.41 E1.33049
G1 X96.135 Y40.529 E1.34871
G1 X96.647 Y40.724 E1.36696
G1 X97.124 Y40.992 E1.38519
G1 X97.557 Y41.327 E1.40342
G1 X97.937 Y41.721 E1.42166
G1 X98.256 Y42.166 E1.4399
G1 X98.506 Y42.653 E1.45813
G1 X98.683 Y43.171 E1.47636
G1 X98.782 Y43.709 E1.49459
G1 X98.805 Y44.12 E1.5083
G1 X98.805 Y109.881 E3.69882
G1 X98.765 Y110.427 E3.71706
G1 X98.646 Y110.961 E3.73528
G1 X98.451 Y111.472 E3.7535
G1 X98.183 Y111.95 E3.77175
G1 X97.848 Y112.383 E3.78999
G1 X97.454 Y112.763 E3.80822
G1 X97.009 Y113.082 E3.82646
G1 X96.522 Y113.332 E3.8447
G1 X96.004 Y113.509 E3.86293
G1 X95.466 Y113.608 E3.88115
G1 X95.055 Y113.631 E3.89487
G1 X58.943 Y113.63 E5.09777
G1 X58.397 Y113.59 E5.11601
G1 X57.863 Y113.471 E5.13423
G1 X57.351 Y113.276 E5.15248
G1 X56.874 Y113.008 E5.1707
G1 X56.441 Y112.673 E5.18894
G1 X56.061 Y112.279 E5.20717
G1 X55.742 Y111.834 E5.22541
G1 X55.501 Y111.368 E5.24289
G1 X54.1 Y108.125 E5.36056
G1 X51.71 Y103.22 E5.54231
G1 X49.048 Y98.46 E5.72398
G1 X46.144 Y93.894 E5.90423
G1 X41.916 Y88.097 E6.14324
G1 X41.627 Y87.632 E6.16147
G1 X41.408 Y87.13 E6.17972
G1 X41.265 Y86.602 E6.19794
G1 X41.196 Y85.886 E6.2219
G1 X41.203 Y68.102 E6.81429
G1 X41.243 Y67.556 E6.83253
G1 X41.362 Y67.021 E6.85078
G1 X41.558 Y66.51 E6.86901
G1 X41.972 Y65.828 E6.89559
G1 X43.801 Y63.432 E6.996
G1 X46.929 Y58.938 E7.17839
G1 X49.773 Y54.313 E7.35924
G1 X52.359 Y49.52 E7.54066
G1 X54.696 Y44.534 E7.72408
G1 X55.495 Y42.653 E7.79216
G1 X55.745 Y42.166 E7.81039
G1 X56.063 Y41.721 E7.82861
G0 F2625 X56.493 Y41.987
G1 F900 X56.857 Y41.63 E7.84559
G1 X57.271 Y41.334 E7.86254
G1 X57.727 Y41.106 E7.87953
G1 X58.213 Y40.953 E7.8965
G1 X58.946 Y40.869 E7.92108
G1 X95.055 Y40.87 E9.12388
G1 X95.563 Y40.91 E9.14085
G1 X96.058 Y41.029 E9.15781
G1 X96.529 Y41.224 E9.17479
G1 X96.964 Y41.49 E9.19178
G1 X97.351 Y41.82 E9.20872
G1 X97.683 Y42.207 E9.2257
G1 X97.949 Y42.642 E9.24269
G1 X98.145 Y43.112 E9.25965
G1 X98.264 Y43.607 E9.27661
G1 X98.305 Y44.12 E9.29375
G1 X98.305 Y109.881 E11.48427
G1 X98.265 Y110.389 E11.50125
G1 X98.146 Y110.884 E11.51821
G1 X97.951 Y111.355 E11.53519
G1 X97.685 Y111.79 E11.55217
G1 X97.355 Y112.177 E11.56911
G1 X96.968 Y112.509 E11.5861
G1 X96.533 Y112.775 E11.60308
G1 X96.063 Y112.971 E11.62004
G1 X95.568 Y113.09 E11.637
G1 X95.055 Y113.131 E11.65415
G1 X58.943 Y113.13 E12.85705
G1 X58.435 Y113.09 E12.87402
G1 X57.94 Y112.971 E12.89098
G1 X57.469 Y112.776 E12.90796
G1 X57.034 Y112.51 E12.92495
G1 X56.647 Y112.18 E12.94189
G1 X56.315 Y111.793 E12.95887
G1 X55.96 Y111.169 E12.98279
G1 X54.561 Y107.931 E13.10028
G1 X52.153 Y102.987 E13.28346
G1 X49.475 Y98.2 E13.46618
G1 X46.554 Y93.607 E13.64749
G1 X42.32 Y87.802 E13.88683
G1 X42.053 Y87.368 E13.9038
G1 X41.857 Y86.898 E13.92076
G1 X41.737 Y86.403 E13.93773
G1 X41.696 Y85.886 E13.955
G1 X41.703 Y68.102 E14.5474
G1 X41.743 Y67.594 E14.56437
G1 X41.862 Y67.098 E14.58136
G1 X42.057 Y66.628 E14.59831
G1 X42.369 Y66.131 E14.61786
G1 X44.214 Y63.713 E14.71917
G1 X47.342 Y59.22 E14.90153
G1 X50.212 Y54.553 E15.08404
G1 X52.805 Y49.747 E15.26594
G1 X55.146 Y44.751 E15.44972
G1 X55.955 Y42.848 E15.5186
G1 X56.19 Y42.396 E15.53557
G1 X56.493 Y41.987 E15.55253
G1 F600 E13.80253
G1 F480 Z1.425
;MESH:
G0 F2625 X61.639 Y56.777 Z1.425
;TYPE:WALL-INNER
G1 F480 Z0.425
G1 F600 E15.55253
G1 F900 X61.957 Y56.982 E15.56513
G1 X62.301 Y57.129 E15.57759
G1 X62.663 Y57.217 E15.59
G1 X63.039 Y57.244 E15.60256
G1 X63.414 Y57.204 E15.61512
G1 X63.774 Y57.103 E15.62757
G1 X64.111 Y56.943 E15.64
G1 X64.42 Y56.727 E15.65256
G1 X64.684 Y56.465 E15.66495
G1 X64.903 Y56.159 E15.67748
G1 X65.067 Y55.819 E15.69006
G1 X65.169 Y55.458 E15.70255
G1 X65.211 Y55.086 E15.71502
G1 X65.187 Y54.71 E15.72757
G1 X65.101 Y54.346 E15.74003
G1 X64.956 Y54.001 E15.7525
G1 X64.754 Y53.687 E15.76494
G1 X64.503 Y53.41 E15.77739
G1 X64.206 Y53.179 E15.78992
G1 X63.875 Y53 E15.80245
G1 X63.525 Y52.885 E15.81473
G1 X63.202 Y52.83 E15.82564
G1 X62.975 Y52.821 E15.83321
G1 X62.755 Y52.836 E15.84055
G1 X62.407 Y52.903 E15.85236
G1 X62.054 Y53.033 E15.86489
G1 X61.73 Y53.222 E15.87738
G1 X61.441 Y53.463 E15.88992
G1 X61.199 Y53.749 E15.9024
G1 X61.008 Y54.071 E15.91487
G1 X60.875 Y54.422 E15.92737
G1 X60.802 Y54.79 E15.93987
G1 X60.793 Y55.165 E15.95236
G1 X60.847 Y55.538 E15.96492
G1 X60.964 Y55.892 E15.97734
G1 X61.137 Y56.225 E15.98984
G1 X61.367 Y56.521 E16.00232
G1 X61.639 Y56.777 E16.01477
G0 F2625 X61.578 Y56.855
G0 X66.244 Y61.07
G0 X66.314 Y61.14
G1 F900 X59.686 Y61.14 E16.23555
G1 X59.686 Y44.86 E16.77784
G1 X66.314 Y44.86 E16.99862
G1 X66.314 Y61.14 E17.54091
G0 F2625 X66.814 Y61.64
;TYPE:WALL-OUTER
G1 F900 X59.186 Y61.64 E17.79501
G1 X59.186 Y44.36 E18.37061
G1 X66.814 Y44.36 E18.6247
G1 X66.814 Y61.64 E19.2003
G0 F2625 X66.564 Y61.64
G0 X66.244 Y61.07
G0 X65.139 Y54.334
G0 X64.785 Y53.663
G0 X64.47 Y53.371
G0 X63.865 Y52.892
G0 X63.677 Y53.461
G1 F900 X63.404 Y53.372 E19.20987
G1 X63.15 Y53.328 E19.21845
G1 X62.983 Y53.322 E19.22402
G1 X62.819 Y53.333 E19.2295
G1 X62.541 Y53.386 E19.23892
G1 X62.268 Y53.487 E19.24862
G1 X62.018 Y53.633 E19.25826
G1 X61.795 Y53.819 E19.26794
G1 X61.608 Y54.04 E19.27758
G1 X61.46 Y54.289 E19.28723
G1 X61.357 Y54.56 E19.29688
G1 X61.301 Y54.845 E19.30656
G1 X61.294 Y55.135 E19.31622
G1 X61.336 Y55.423 E19.32592
G1 X61.426 Y55.697 E19.33552
G1 X61.56 Y55.954 E19.34518
G1 X61.738 Y56.184 E19.35487
G1 X61.948 Y56.381 E19.36446
G1 X62.193 Y56.539 E19.37417
G1 X62.459 Y56.653 E19.38381
G1 X62.74 Y56.721 E19.39344
G1 X63.03 Y56.742 E19.40312
G1 X63.319 Y56.711 E19.41281
G1 X63.598 Y56.633 E19.42246
G1 X63.859 Y56.509 E19.43208
G1 X64.098 Y56.342 E19.44179
G1 X64.302 Y56.139 E19.45138
G1 X64.472 Y55.903 E19.46107
G1 X64.598 Y55.641 E19.47075
G1 X64.677 Y55.362 E19.48041
G1 X64.709 Y55.074 E19.49006
G1 X64.691 Y54.784 E19.49974
G1 X64.624 Y54.502 E19.5094
G1 X64.512 Y54.235 E19.51904
G1 X64.356 Y53.992 E19.52866
G1 X64.162 Y53.778 E19.53828
G1 X63.932 Y53.599 E19.54799
G1 X63.677 Y53.461 E19.55765
G0 F2625 X63.44 Y53.384
G0 X63.643 Y52.408
;TYPE:SKIN
G1 F900 X63.253 Y52.342 E19.57083
G1 X62.967 Y52.331 E19.58036
G1 X62.692 Y52.35 E19.58954
G1 X62.276 Y52.429 E19.60365
G1 X61.844 Y52.588 E19.61898
G1 X61.448 Y52.82 E19.63427
G1 X61.094 Y53.114 E19.6496
G1 X60.799 Y53.463 E19.66482
G1 X60.565 Y53.858 E19.68011
G1 X60.402 Y54.287 E19.6954
G1 X60.314 Y54.736 E19.71064
G1 X60.303 Y55.194 E19.7259
G1 X60.368 Y55.651 E19.74128
G1 X60.511 Y56.083 E19.75643
G1 X60.723 Y56.49 E19.77172
G1 X61.004 Y56.852 E19.78698
G1 X61.335 Y57.165 E19.80216
G1 X61.726 Y57.417 E19.81765
G1 X62.146 Y57.596 E19.83286
G1 X62.587 Y57.703 E19.84798
G1 X63.047 Y57.736 E19.86334
G1 X63.506 Y57.686 E19.87872
G1 X63.946 Y57.564 E19.89393
G1 X64.358 Y57.368 E19.90913
G1 X64.735 Y57.105 E19.92444
G1 X65.058 Y56.784 E19.93961
G1 X65.326 Y56.41 E19.95493
G1 X65.527 Y55.993 E19.97035
G1 X65.651 Y55.552 E19.98561
G1 X65.703 Y55.098 E20.00084
G1 X65.673 Y54.638 E20.01619
G1 X65.569 Y54.193 E20.03141
G1 X65.391 Y53.772 E20.04664
G1 X65.144 Y53.388 E20.06185
G1 X64.838 Y53.049 E20.07706
G1 X64.475 Y52.767 E20.09237
G1 X64.069 Y52.548 E20.10774
G1 X63.643 Y52.408 E20.12267
G0 F2625 X64.785 Y53.663
G0 X65.139 Y54.334
G0 X65.17 Y54.546
G0 X65.824 Y60.65
G1 F900 X60.176 Y60.65 E20.31081
G1 X60.176 Y45.35 E20.82046
G1 X65.824 Y45.35 E21.0086
G1 X65.824 Y60.65 E21.51825
G0 F2625 X61.13 Y60.423
G1 F900 X60.4 Y59.693 E21.55263
G0 F2625 X60.4 Y58.986
G1 F900 X61.837 Y60.423 E21.62033
G0 F2625 X62.545 Y60.423
G1 F900 X60.4 Y58.279 E21.72135
G0 F2625 X60.4 Y57.571
G1 F900 X63.252 Y60.424 E21.85573
G0 F2625 X63.959 Y60.424
G1 F900 X60.4 Y56.864 E22.02341
G1 X60.312 Y56.776
G0 F2625 X62.037 Y57.794
G1 F900 X64.667 Y60.424 E22.1473
G0 F2625 X65.374 Y60.424
G1 F900 X62.901 Y57.951 E22.2638
G0 F2625 X63.561 Y57.904
G1 F900 X65.598 Y59.941 E22.35976
G0 F2625 X65.598 Y59.234
G1 F900 X64.102 Y57.738 E22.43023
G0 F2625 X64.567 Y57.496
G1 F900 X65.598 Y58.527 E22.4788
G0 F2625 X65.598 Y57.82
G1 F900 X64.968 Y57.19 E22.50848
G0 F2625 X65.306 Y56.821
G1 F900 X65.598 Y57.113 E22.52223
G0 F2625 X65.598 Y53.577
G1 F900 X65.413 Y53.392 E22.53095
G0 F2625 X65.598 Y52.87
G1 F900 X60.4 Y47.672 E22.77582
G0 F2625 X60.4 Y46.965
G1 F900 X65.598 Y52.163 E23.02068
G1 X65.686 Y52.251
G0 F2625 X64.599 Y52.579
G1 F900 X60.4 Y48.379 E23.21851
G0 F2625 X60.4 Y49.086
G1 F900 X63.463 Y52.149 E23.36281
G0 F2625 X62.728 Y52.122
G1 F900 X60.4 Y49.793 E23.4725
G0 F2625 X60.4 Y50.5
G1 F900 X62.138 Y52.238 E23.55437
G0 F2625 X61.639 Y52.446
G1 F900 X60.4 Y51.207 E23.61274
G0 F2625 X60.4 Y51.915
G1 F900 X61.209 Y52.724 E23.65085
G0 F2625 X60.62 Y52.842
G1 F900 X60.468 Y53.397 E23.67802
G0 F2625 X60.536 Y53.465
G0 X65.598 Y51.456
G1 F900 X60.4 Y46.258 E23.92288
G0 F2625 X60.424 Y45.575
G1 F900 X65.598 Y50.749 E24.16662
G0 F2625 X65.598 Y50.041
G1 F900 X61.131 Y45.575 E24.37703
G0 F2625 X61.838 Y45.575
G1 F900 X65.598 Y49.334 E24.55413
G0 F2625 X65.598 Y48.627
G1 F900 X62.545 Y45.575 E24.69793
G0 F2625 X63.252 Y45.575
G1 F900 X65.598 Y47.92 E24.80842
G0 F2625 X65.598 Y47.213
G1 F900 X63.959 Y45.575 E24.8856
G0 F2625 X64.667 Y45.575
G1 F900 X65.598 Y46.506 E24.92946
G0 F2625 X65.598 Y45.799
G1 F900 X65.374 Y45.575 E24.94001
G1 F600 E23.19001
G1 F480 Z1.425
G0 F2625 X65.374 Y45.575 Z1.425
G0 X75.639 Y56.777
;TYPE:WALL-INNER
G1 F480 Z0.425
G1 F600 E24.94001
G1 F900 X75.957 Y56.982 E24.95262
G1 X76.301 Y57.129 E24.96508
G1 X76.663 Y57.217 E24.97749
G1 X77.039 Y57.244 E24.99004
G1 X77.414 Y57.204 E25.00261
G1 X77.774 Y57.103 E25.01506
G1 X78.111 Y56.943 E25.02749
G1 X78.42 Y56.727 E25.04005
G1 X78.684 Y56.465 E25.05244
G1 X78.903 Y56.159 E25.06497
G1 X79.067 Y55.819 E25.07754
G1 X79.169 Y55.458 E25.09004
G1 X79.211 Y55.086 E25.10251
G1 X79.187 Y54.71 E25.11506
G1 X79.101 Y54.346 E25.12752
G1 X78.956 Y54.001 E25.13999
G1 X78.754 Y53.687 E25.15242
G1 X78.503 Y53.41 E25.16487
G1 X78.206 Y53.179 E25.17741
G1 X77.875 Y53 E25.18994
G1 X77.525 Y52.885 E25.20221
G1 X77.202 Y52.83 E25.21313
G1 X76.975 Y52.821 E25.2207
G1 X76.755 Y52.836 E25.22804
G1 X76.407 Y52.903 E25.23985
G1 X76.054 Y53.033 E25.25238
G1 X75.73 Y53.222 E25.26487
G1 X75.441 Y53.463 E25.27741
G1 X75.199 Y53.749 E25.28989
G1 X75.008 Y54.071 E25.30236
G1 X74.875 Y54.422 E25.31486
G1 X74.802 Y54.79 E25.32736
G1 X74.793 Y55.165 E25.33985
G1 X74.847 Y55.538 E25.35241
G1 X74.964 Y55.892 E25.36482
G1 X75.137 Y56.225 E25.37732
G1 X75.367 Y56.521 E25.38981
G1 X75.639 Y56.777 E25.40225
G0 F2625 X75.578 Y56.855
G0 X80.244 Y61.07
G0 X80.314 Y61.14
G1 F900 X73.686 Y61.14 E25.62303
G1 X73.686 Y44.86 E26.16533
G1 X80.314 Y44.86 E26.38611
G1 X80.314 Y61.14 E26.9284
G0 F2625 X80.814 Y61.64
;TYPE:WALL-OUTER
G1 F900 X73.186 Y61.64 E27.18249
G1 X73.186 Y44.36 E27.7581
G1 X80.814 Y44.36 E28.01219
G1 X80.814 Y61.64 E28.58779
G0 F2625 X80.564 Y61.64
G0 X80.244 Y61.07
G0 X79.139 Y54.334
G0 X78.785 Y53.663
G0 X78.47 Y53.371
G0 X77.865 Y52.892
G0 X77.677 Y53.461
G1 F900 X77.404 Y53.372 E28.59735
G1 X77.15 Y53.328 E28.60594
G1 X76.983 Y53.322 E28.61151
G1 X76.819 Y53.333 E28.61698
G1 X76.541 Y53.386 E28.62641
G1 X76.268 Y53.487 E28.63611
G1 X76.018 Y53.633 E28.64575
G1 X75.795 Y53.819 E28.65542
G1 X75.608 Y54.04 E28.66507
G1 X75.46 Y54.289 E28.67471
G1 X75.357 Y54.56 E28.68437
G1 X75.301 Y54.845 E28.69405
G1 X75.294 Y55.135 E28.70371
G1 X75.336 Y55.423 E28.7134
G1 X75.426 Y55.697 E28.72301
G1 X75.56 Y55.954 E28.73267
G1 X75.738 Y56.184 E28.74235
G1 X75.948 Y56.381 E28.75195
G1 X76.193 Y56.539 E28.76166
G1 X76.459 Y56.653 E28.7713
G1 X76.74 Y56.721 E28.78093
G1 X77.03 Y56.742 E28.79061
G1 X77.319 Y56.711 E28.80029
G1 X77.598 Y56.633 E28.80994
G1 X77.859 Y56.509 E28.81957
G1 X78.098 Y56.342 E28.82928
G1 X78.302 Y56.139 E28.83887
G1 X78.472 Y55.903 E28.84856
G1 X78.598 Y55.641 E28.85824
G1 X78.677 Y55.362 E28.8679
G1 X78.709 Y55.074 E28.87755
G1 X78.691 Y54.784 E28.88723
G1 X78.624 Y54.502 E28.89689
G1 X78.512 Y54.235 E28.90653
G1 X78.356 Y53.992 E28.91615
G1 X78.162 Y53.778 E28.92577
G1 X77.932 Y53.599 E28.93548
G1 X77.677 Y53.461 E28.94514
G0 F2625 X77.44 Y53.384
G0 X77.643 Y52.408
;TYPE:SKIN
G1 F900 X77.253 Y52.342 E28.95831
G1 X76.967 Y52.331 E28.96785
G1 X76.692 Y52.35 E28.97703
G1 X76.276 Y52.429 E28.99113
G1 X75.844 Y52.588 E29.00647
G1 X75.448 Y52.82 E29.02175
G1 X75.094 Y53.114 E29.03708
G1 X74.799 Y53.463 E29.05231
G1 X74.565 Y53.858 E29.0676
G1 X74.402 Y54.287 E29.08289
G1 X74.314 Y54.736 E29.09813
G1 X74.303 Y55.194 E29.11339
G1 X74.368 Y55.651 E29.12876
G1 X74.511 Y56.083 E29.14392
G1 X74.723 Y56.49 E29.15921
G1 X75.004 Y56.852 E29.17447
G1 X75.335 Y57.165 E29.18965
G1 X75.726 Y57.417 E29.20514
G1 X76.146 Y57.596 E29.22035
G1 X76.587 Y57.703 E29.23547
G1 X77.047 Y57.736 E29.25083
G1 X77.506 Y57.686 E29.26621
G1 X77.946 Y57.564 E29.28142
G1 X78.358 Y57.368 E29.29661
G1 X78.735 Y57.105 E29.31193
G1 X79.058 Y56.784 E29.3271
