;Generated by Cura LulzBot Edition GCodeWriter Version: 3.6.18
;FLAVOR:Marlin
;TIME:9925
;Filament used: 7.54099m
;Layer height: 0.38
;Generated with Cura_SteamEngine 3.6.18
M82 ;absolute extrusion mode
;This G-Code has been generated specifically for the LulzBot TAZ 6 with standard extruder
M73 P0 ; clear GLCD progress bar
M75 ; start GLCD timer
G26 ; clear potential 'probe fail' condition
M107 ; disable fans
M420 S0 ; disable previous leveling matrix
G90 ; absolute positioning
M82 ; set extruder to absolute mode
G92 E0 ; set extruder position to 0
M140 S60.0 ; start bed heating up
M109 R140 ; soften filament before homing Z
G28 ; Home all axis
G1 E-30 F100 ; retract filament
M109 R140 ; wait for extruder to reach wiping temp
G1 X-15 Y100 F3000 ; move above wiper pad
G1 Z1 ; push nozzle into wiper
G1 X-17 Y95 F1000 ; slow wipe
G1 X-17 Y90 F1000 ; slow wipe
G1 X-17 Y85 F1000 ; slow wipe
G1 X-15 Y90 F1000 ; slow wipe
G1 X-17 Y80 F1000 ; slow wipe
G1 X-15 Y95 F1000 ; slow wipe
G1 X-17 Y75 F2000 ; fast wipe
G1 X-15 Y65 F2000 ; fast wipe
G1 X-17 Y70 F2000 ; fast wipe
G1 X-15 Y60 F2000 ; fast wipe
G1 X-17 Y55 F2000 ; fast wipe
G1 X-15 Y50 F2000 ; fast wipe
G1 X-17 Y40 F2000 ; fast wipe
G1 X-15 Y45 F2000 ; fast wipe
G1 X-17 Y35 F2000 ; fast wipe
G1 X-15 Y40 F2000 ; fast wipe
G1 X-17 Y70 F2000 ; fast wipe
G1 X-15 Y30 Z2 F2000 ; fast wipe
G1 X-17 Y35 F2000 ; fast wipe
G1 X-15 Y25 F2000 ; fast wipe
G1 X-17 Y30 F2000 ; fast wipe
G1 X-15 Y25 Z1.5 F1000 ; slow wipe
G1 X-17 Y23 F1000 ; slow wipe
G1 Z10 ; raise extruder
M109 R140 ; wait for extruder to reach probe temp
G1 X-9 Y-9 ; move above first probe point
M204 S100 ; set probing acceleration
G29 ; start auto-leveling sequence
M420 S1 ; activate bed level matrix
M425 Z			     ; use measured Z backlash for compensation
M425 Z F0		     ; turn off measured Z backlash compensation. (if activated in the quality settings, this command will automatically be ignored)
M204 S500 ; restore standard acceleration
G1 X0 Y0 Z15 F5000 ; move up off last probe point
G4 S1 ; pause
M400 ; wait for moves to finish
M117 Heating... ; progress indicator message on LCD
M109 R210 ; wait for extruder to reach printing temp
M190 R60.0 ; wait for bed to reach printing temp
G1 Z2 E0 F75 ; prime tiny bit of filament into the nozzle
M117 TAZ 6 Printing... ; progress indicator message on LCD

M221 S100 T0
G92 E0
G1 F600 E-1.75
;LAYER_COUNT:74
;LAYER:0
M107
G0 F2625 X73.425 Y110.711 Z0.425
;TYPE:SKIRT
G1 F600 E0
G1 F900 X73.86 Y110.445 E0.01698
G1 X74.33 Y110.249 E0.03395
G1 X74.825 Y110.13 E0.05091
G1 X75.338 Y110.089 E0.06805
G1 X204.86 Y110.09 E4.38247
G1 X205.368 Y110.13 E4.39945
G1 X205.863 Y110.249 E4.41641
G1 X206.334 Y110.444 E4.43339
G1 X206.769 Y110.71 E4.45037
G1 X207.156 Y111.04 E4.46731
G1 X207.488 Y111.427 E4.4843
G1 X207.754 Y111.862 E4.50128
G1 X207.95 Y112.332 E4.51824
G1 X208.069 Y112.827 E4.5352
G1 X208.11 Y113.34 E4.55234
G1 X208.11 Y166.661 E6.32849
G1 X208.07 Y167.169 E6.34546
G1 X207.951 Y167.664 E6.36242
G1 X207.756 Y168.135 E6.3794
G1 X207.49 Y168.57 E6.39638
G1 X207.16 Y168.957 E6.41333
G1 X206.773 Y169.289 E6.43031
G1 X206.338 Y169.555 E6.44729
G1 X205.868 Y169.751 E6.46426
G1 X205.373 Y169.87 E6.48122
G1 X204.86 Y169.911 E6.49836
G1 X153.293 Y169.906 E8.21607
G1 X152.64 Y169.84 E8.23794
G1 X148.599 Y169.011 E8.37535
G1 X143.175 Y168.162 E8.55822
G1 X137.718 Y167.621 E8.74089
G1 X134.998 Y167.466 E8.83164
G1 X130.894 Y167.38 E8.96837
G1 X75.337 Y167.37 E10.819
G1 X74.829 Y167.33 E10.83597
G1 X74.334 Y167.211 E10.85293
G1 X73.863 Y167.016 E10.86991
G1 X73.429 Y166.75 E10.88687
G1 X73.041 Y166.419 E10.90386
G1 X72.71 Y166.032 E10.92082
G1 X72.443 Y165.598 E10.93779
G1 X72.248 Y165.127 E10.95477
G1 X72.129 Y164.632 E10.97173
G1 X72.088 Y164.12 E10.98884
G1 X72.088 Y113.339 E12.68037
G1 X72.128 Y112.831 E12.69735
G1 X72.247 Y112.336 E12.71431
G1 X72.442 Y111.865 E12.73129
G1 X72.708 Y111.43 E12.74827
G1 X73.038 Y111.043 E12.76521
G1 X73.425 Y110.711 E12.7822
G1 F600 E11.0322
;MESH:
G0 F2625 X76.093 Y112.665
G0 X76.093 Y114.094
G0 X97.79 Y144.547
G0 X97.884 Y144.514
;TYPE:WALL-INNER
G1 F600 E12.7822
G1 F900 X98.227 Y145.271 E12.80988
G1 X98.693 Y145.96 E12.83759
G1 X99.267 Y146.56 E12.86525
G1 X99.936 Y147.055 E12.89297
G1 X100.679 Y147.43 E12.92069
G1 X101.474 Y147.673 E12.94838
G1 X102.299 Y147.778 E12.97609
G1 X103.13 Y147.743 E13.00379
G1 X103.942 Y147.568 E13.03146
G1 X104.714 Y147.258 E13.05917
G1 X105.422 Y146.823 E13.08685
G1 X106.046 Y146.273 E13.11456
G1 X106.569 Y145.625 E13.1423
G1 X106.975 Y144.899 E13.17001
G1 X107.252 Y144.115 E13.1977
G1 X107.389 Y143.312 E13.22484
G1 X107.407 Y142.88 E13.23924
G1 X107.389 Y142.448 E13.25364
G1 X107.252 Y141.645 E13.28078
G1 X106.975 Y140.861 E13.30848
G1 X106.569 Y140.135 E13.33618
G1 X106.046 Y139.487 E13.36392
G1 X105.422 Y138.937 E13.39163
G1 X104.714 Y138.502 E13.41931
G1 X103.942 Y138.192 E13.44702
G1 X103.13 Y138.017 E13.47469
G1 X102.299 Y137.982 E13.50239
G1 X101.474 Y138.087 E13.5301
G1 X100.679 Y138.33 E13.55779
G1 X99.936 Y138.705 E13.58551
G1 X99.267 Y139.2 E13.61323
G1 X98.693 Y139.8 E13.64089
G1 X98.227 Y140.489 E13.6686
G1 X97.884 Y141.246 E13.69628
G1 X97.675 Y142.052 E13.72402
G1 X97.604 Y142.88 E13.7517
G1 X97.675 Y143.708 E13.77938
G1 X97.884 Y144.514 E13.80712
G0 F2625 X97.79 Y144.547
G0 X98.193 Y145.29
G0 X98.662 Y145.985
G0 X99.241 Y146.59
G0 X99.916 Y147.089
G0 X100.522 Y147.394
G0 X154.127 Y163.31
G0 X154.057 Y163.38
G1 F900 X76.079 Y163.38 E16.40459
G1 X76.079 Y114.08 E18.0468
G1 X204.119 Y114.08 E22.31185
G1 X204.119 Y165.92 E24.03866
G1 X154.057 Y165.92 E25.70625
G1 X154.057 Y163.38 E25.79085
G0 F2625 X153.557 Y163.88
;TYPE:WALL-OUTER
G1 F900 X75.579 Y163.88 E28.38833
G1 X75.579 Y113.58 E30.06384
G1 X204.619 Y113.58 E34.36221
G1 X204.619 Y166.42 E36.12233
G1 X153.557 Y166.42 E37.82322
G1 X153.557 Y163.88 E37.90783
G0 F2625 X153.307 Y163.88
G0 X153.307 Y163.28
G0 X100.665 Y147.467
G0 X99.916 Y147.089
G0 X99.241 Y146.59
G0 X98.662 Y145.985
G0 X98.193 Y145.29
G0 X97.847 Y144.527
G0 X97.636 Y143.714
G0 X97.564 Y142.88
G0 X97.778 Y141.261
G0 X98.357 Y141.413
G1 F900 X98.17 Y142.137 E37.93274
G1 X98.106 Y142.88 E37.95758
G1 X98.17 Y143.623 E37.98242
G1 X98.357 Y144.347 E38.00733
G1 X98.665 Y145.026 E38.03217
G1 X99.083 Y145.645 E38.05705
G1 X99.599 Y146.183 E38.08188
G1 X100.199 Y146.628 E38.10676
G1 X100.866 Y146.964 E38.13164
G1 X101.58 Y147.182 E38.15651
G1 X102.32 Y147.277 E38.18136
G1 X103.066 Y147.245 E38.20623
G1 X103.795 Y147.088 E38.23107
G1 X104.488 Y146.81 E38.25594
G1 X105.124 Y146.419 E38.28081
G1 X105.684 Y145.926 E38.30566
G1 X106.153 Y145.344 E38.33056
G1 X106.518 Y144.692 E38.35545
G1 X106.766 Y143.989 E38.38028
G1 X106.891 Y143.259 E38.40495
G1 X106.907 Y142.88 E38.41759
G1 X106.891 Y142.501 E38.43023
G1 X106.766 Y141.771 E38.4549
G1 X106.518 Y141.068 E38.47973
G1 X106.153 Y140.416 E38.50462
G1 X105.684 Y139.834 E38.52952
G1 X105.124 Y139.341 E38.55437
G1 X104.488 Y138.95 E38.57924
G1 X103.795 Y138.672 E38.60411
G1 X103.066 Y138.515 E38.62895
G1 X102.32 Y138.483 E38.65382
G1 X101.58 Y138.578 E38.67867
G1 X100.866 Y138.796 E38.70354
G1 X100.199 Y139.132 E38.72842
G1 X99.599 Y139.577 E38.7533
G1 X99.083 Y140.115 E38.77813
G1 X98.665 Y140.734 E38.80301
G1 X98.357 Y141.413 E38.82785
G0 F2625 X98.295 Y141.655
G0 X97.715 Y141.503
G0 X97.42 Y141.082
;TYPE:SKIN
G1 F900 X97.191 Y141.969 E38.85836
G1 X97.112 Y142.88 E38.88882
G1 X97.191 Y143.791 E38.91928
G1 X97.42 Y144.678 E38.9498
G1 X97.798 Y145.511 E38.98027
G1 X98.311 Y146.269 E39.01076
G1 X98.942 Y146.929 E39.04117
G1 X99.678 Y147.474 E39.07168
G1 X100.495 Y147.887 E39.10217
G1 X101.37 Y148.153 E39.13264
G1 X102.278 Y148.27 E39.16313
G1 X103.193 Y148.231 E39.19364
G1 X104.086 Y148.038 E39.22407
G1 X104.935 Y147.697 E39.25455
G1 X105.714 Y147.219 E39.28499
G1 X106.401 Y146.614 E39.31549
G1 X106.977 Y145.901 E39.34602
G1 X107.423 Y145.101 E39.37653
G1 X107.728 Y144.239 E39.40699
G1 X107.877 Y143.363 E39.43659
G1 X107.897 Y142.88 E39.45269
G1 X107.877 Y142.397 E39.46879
G1 X107.728 Y141.521 E39.49839
G1 X107.423 Y140.659 E39.52885
G1 X106.977 Y139.859 E39.55936
G1 X106.401 Y139.146 E39.58989
G1 X105.714 Y138.541 E39.62038
G1 X104.935 Y138.063 E39.65083
G1 X104.086 Y137.722 E39.6813
G1 X103.193 Y137.529 E39.71174
G1 X102.278 Y137.49 E39.74224
G1 X101.37 Y137.607 E39.77274
G1 X100.495 Y137.873 E39.8032
G1 X99.678 Y138.286 E39.8337
G1 X98.942 Y138.831 E39.8642
G1 X98.311 Y139.491 E39.89462
G1 X97.798 Y140.249 E39.92511
G1 X97.42 Y141.082 E39.95558
G0 F2625 X76.569 Y162.89
G1 F900 X76.569 Y114.57 E41.56513
G1 X203.629 Y114.57 E45.79755
G1 X203.629 Y165.43 E47.49171
G1 X154.547 Y165.43 E49.12665
G1 X154.547 Y162.89 E49.21126
G1 X76.569 Y162.89 E51.80874
G0 F2625 X77.104 Y162.664
G1 F900 X76.793 Y162.353 E51.82339
G0 F2625 X76.793 Y161.646
G1 F900 X77.811 Y162.664 E51.87134
G0 F2625 X78.518 Y162.664
G1 F900 X76.793 Y160.939 E51.9526
G0 F2625 X76.793 Y160.232
G1 F900 X79.225 Y162.664 E52.06717
G0 F2625 X79.932 Y162.664
G1 F900 X76.793 Y159.525 E52.21504
G0 F2625 X76.793 Y158.818
G1 F900 X80.639 Y162.664 E52.39622
G0 F2625 X81.346 Y162.664
G1 F900 X76.793 Y158.111 E52.6107
G0 F2625 X76.793 Y157.404
G1 F900 X82.054 Y162.664 E52.85851
G0 F2625 X82.761 Y162.664
G1 F900 X76.793 Y156.696 E53.13965
G0 F2625 X76.793 Y155.989
G1 F900 X83.468 Y162.664 E53.4541
G0 F2625 X84.175 Y162.664
G1 F900 X76.793 Y155.282 E53.80185
G0 F2625 X76.793 Y154.575
G1 F900 X84.882 Y162.664 E54.18291
G0 F2625 X85.589 Y162.664
G1 F900 X76.793 Y153.868 E54.59727
G0 F2625 X76.793 Y153.161
G1 F900 X86.296 Y162.664 E55.04494
G0 F2625 X87.003 Y162.664
G1 F900 X76.793 Y152.454 E55.52591
G0 F2625 X76.793 Y151.747
G1 F900 X87.71 Y162.664 E56.04019
G0 F2625 X88.418 Y162.664
G1 F900 X76.793 Y151.04 E56.58779
G0 F2625 X76.793 Y150.333
G1 F900 X89.125 Y162.664 E57.1687
G0 F2625 X89.832 Y162.664
G1 F900 X76.793 Y149.625 E57.78294
G0 F2625 X76.793 Y148.918
G1 F900 X90.539 Y162.664 E58.43049
G0 F2625 X91.246 Y162.664
G1 F900 X76.793 Y148.211 E59.11134
G0 F2625 X76.793 Y147.504
G1 F900 X91.953 Y162.664 E59.8255
G0 F2625 X92.66 Y162.664
G1 F900 X76.793 Y146.797 E60.57296
G0 F2625 X76.793 Y146.09
G1 F900 X93.367 Y162.664 E61.35373
G0 F2625 X94.074 Y162.664
G1 F900 X76.793 Y145.383 E62.1678
G0 F2625 X76.793 Y144.676
G1 F900 X94.782 Y162.664 E63.0152
G0 F2625 X95.489 Y162.664
G1 F900 X76.793 Y143.969 E63.89591
G0 F2625 X76.793 Y143.261
G1 F900 X96.196 Y162.664 E64.80995
G0 F2625 X96.903 Y162.664
G1 F900 X76.793 Y142.554 E65.75729
G0 F2625 X76.793 Y141.847
G1 F900 X97.61 Y162.664 E66.73793
G0 F2625 X98.317 Y162.664
G1 F900 X76.793 Y141.14 E67.75188
G0 F2625 X76.793 Y140.433
G1 F900 X99.024 Y162.664 E68.79914
G0 F2625 X99.731 Y162.664
G1 F900 X76.793 Y139.726 E69.8797
G0 F2625 X76.793 Y139.019
G1 F900 X100.438 Y162.664 E70.99357
G0 F2625 X101.145 Y162.664
G1 F900 X76.793 Y138.312 E72.14075
G0 F2625 X76.793 Y137.605
G1 F900 X101.853 Y162.664 E73.32125
G0 F2625 X102.56 Y162.664
G1 F900 X76.793 Y136.897 E74.53508
G0 F2625 X76.793 Y136.19
G1 F900 X103.267 Y162.664 E75.78221
G0 F2625 X103.974 Y162.664
G1 F900 X76.793 Y135.483 E77.06266
G0 F2625 X76.793 Y134.776
G1 F900 X104.681 Y162.664 E78.3764
G0 F2625 X105.388 Y162.664
G1 F900 X76.793 Y134.069 E79.72345
G0 F2625 X76.793 Y133.362
G1 F900 X106.095 Y162.664 E81.10381
G0 F2625 X106.802 Y162.664
G1 F900 X76.793 Y132.655 E82.51748
G0 F2625 X76.793 Y131.948
G1 F900 X107.509 Y162.664 E83.96444
G0 F2625 X108.217 Y162.664
G1 F900 X76.793 Y131.241 E85.44474
G0 F2625 X76.793 Y130.534
G1 F900 X108.924 Y162.664 E86.95834
G0 F2625 X109.631 Y162.664
G1 F900 X76.793 Y129.826 E88.50527
G0 F2625 X76.793 Y129.119
G1 F900 X110.338 Y162.664 E90.08551
G0 F2625 X111.045 Y162.664
G1 F900 X76.793 Y128.412 E91.69905
G0 F2625 X76.793 Y127.705
G1 F900 X111.752 Y162.664 E93.3459
G0 F2625 X112.459 Y162.664
G1 F900 X76.793 Y126.998 E95.02605
G0 F2625 X76.793 Y126.291
G1 F900 X113.166 Y162.664 E96.73951
G0 F2625 X113.873 Y162.664
G1 F900 X76.793 Y125.584 E98.48627
G0 F2625 X76.793 Y124.877
G1 F900 X97.733 Y145.816 E99.47269
G1 X97.821 Y145.904
G0 F2625 X97.147 Y144.523
G1 F900 X76.793 Y124.17 E100.4315
G0 F2625 X76.793 Y123.462
G1 F900 X96.95 Y143.619 E101.38106
G0 F2625 X96.888 Y142.85
G1 F900 X76.793 Y122.755 E102.32769
G0 F2625 X76.793 Y122.048
G1 F900 X96.945 Y142.2 E103.27701
G0 F2625 X97.053 Y141.601
G1 F900 X76.793 Y121.341 E104.23142
G0 F2625 X76.793 Y120.634
G1 F900 X97.198 Y141.038 E105.19263
G0 F2625 X97.414 Y140.548
G1 F900 X76.793 Y119.927 E106.16405
G0 F2625 X76.793 Y119.22
G1 F900 X97.645 Y140.072 E107.14634
G0 F2625 X97.931 Y139.65
G1 F900 X76.793 Y118.513 E108.14209
G0 F2625 X76.793 Y117.806
G1 F900 X98.233 Y139.245 E109.15206
G0 F2625 X98.579 Y138.884
G1 F900 X76.793 Y117.099 E110.17833
G0 F2625 X76.793 Y116.391
G1 F900 X98.947 Y138.545 E111.22196
G0 F2625 X99.354 Y138.245
G1 F900 X76.793 Y115.684 E112.28476
G0 F2625 X76.793 Y114.977
G1 F900 X99.791 Y137.974 E113.36813
G0 F2625 X100.261 Y137.738
G1 F900 X77.317 Y114.794 E114.44897
G0 F2625 X78.024 Y114.794
G1 F900 X100.781 Y137.55 E115.52098
G0 F2625 X101.323 Y137.385
G1 F900 X78.732 Y114.794 E116.5852
G0 F2625 X79.439 Y114.794
G1 F900 X101.949 Y137.304 E117.6456
G0 F2625 X102.63 Y137.278
G1 F900 X80.146 Y114.794 E118.70478
G0 F2625 X80.853 Y114.794
G1 F900 X103.4 Y137.342 E119.76694
G0 F2625 X104.349 Y137.583
G1 F900 X81.56 Y114.794 E120.84049
G0 F2625 X82.267 Y114.794
G1 F900 X105.805 Y138.332 E121.94931
G1 X105.893 Y138.42
G0 F2625 X106.99 Y139.517
G1 F900 X130.137 Y162.664 E123.03972
G0 F2625 X130.844 Y162.664
G1 F900 X82.974 Y114.794 E125.29478
G0 F2625 X83.681 Y114.794
G1 F900 X131.551 Y162.664 E127.54984
G0 F2625 X132.258 Y162.664
G1 F900 X84.388 Y114.794 E129.8049
G0 F2625 X85.096 Y114.794
G1 F900 X132.965 Y162.664 E132.05993
G0 F2625 X133.672 Y162.664
G1 F900 X85.803 Y114.794 E134.31497
G0 F2625 X86.51 Y114.794
G1 F900 X134.379 Y162.664 E136.57
G0 F2625 X135.087 Y162.664
G1 F900 X87.217 Y114.794 E138.82506
G0 F2625 X87.924 Y114.794
G1 F900 X135.794 Y162.664 E141.08012
G0 F2625 X136.501 Y162.664
G1 F900 X88.631 Y114.794 E143.33518
G0 F2625 X89.338 Y114.794
G1 F900 X137.208 Y162.664 E145.59023
G0 F2625 X137.915 Y162.664
G1 F900 X90.045 Y114.794 E147.84529
G0 F2625 X90.752 Y114.794
G1 F900 X138.622 Y162.664 E150.10035
G0 F2625 X139.329 Y162.664
G1 F900 X91.46 Y114.794 E152.35538
G0 F2625 X92.167 Y114.794
G1 F900 X140.036 Y162.664 E154.61042
G0 F2625 X140.743 Y162.664
G1 F900 X92.874 Y114.794 E156.86545
G0 F2625 X93.581 Y114.794
G1 F900 X141.451 Y162.664 E159.12051
G0 F2625 X142.158 Y162.664
G1 F900 X94.288 Y114.794 E161.37557
G0 F2625 X94.995 Y114.794
G1 F900 X142.865 Y162.664 E163.63063
G0 F2625 X143.572 Y162.664
G1 F900 X95.702 Y114.794 E165.88569
G0 F2625 X96.409 Y114.794
G1 F900 X144.279 Y162.664 E168.14075
G0 F2625 X144.986 Y162.664
G1 F900 X97.116 Y114.794 E170.3958
G0 F2625 X97.823 Y114.794
G1 F900 X145.693 Y162.664 E172.65086
G0 F2625 X146.4 Y162.664
G1 F900 X98.531 Y114.794 E174.9059
G0 F2625 X99.238 Y114.794
G1 F900 X147.107 Y162.664 E177.16093
G0 F2625 X147.815 Y162.664
G1 F900 X99.945 Y114.794 E179.41599
G0 F2625 X100.652 Y114.794
G1 F900 X148.522 Y162.664 E181.67105
G0 F2625 X149.229 Y162.664
G1 F900 X101.359 Y114.794 E183.92611
G0 F2625 X102.066 Y114.794
G1 F900 X149.936 Y162.664 E186.18116
G0 F2625 X150.643 Y162.664
G1 F900 X102.773 Y114.794 E188.43622
G0 F2625 X103.48 Y114.794
G1 F900 X151.35 Y162.664 E190.69128
G0 F2625 X152.057 Y162.664
G1 F900 X104.187 Y114.794 E192.94634
G0 F2625 X104.895 Y114.794
G1 F900 X152.764 Y162.664 E195.20137
G0 F2625 X153.471 Y162.664
G1 F900 X105.602 Y114.794 E197.45641
G0 F2625 X106.309 Y114.794
G1 F900 X154.178 Y162.664 E199.71144
G0 F2625 X154.771 Y163.256
G1 F900 X156.718 Y165.204 E199.80319
G0 F2625 X156.011 Y165.204
G1 F900 X154.771 Y163.963 E199.86162
G0 F2625 X154.771 Y164.671
G1 F900 X155.304 Y165.204 E199.88673
G0 F2625 X157.426 Y165.204
G1 F900 X107.016 Y114.794 E202.26144
G0 F2625 X107.723 Y114.794
G1 F900 X158.133 Y165.204 E204.63616
G0 F2625 X158.84 Y165.204
G1 F900 X108.43 Y114.794 E207.01087
G0 F2625 X109.137 Y114.794
