;Generated by Cura LulzBot Edition GCodeWriter Version: 3.6.18
;FLAVOR:Marlin
;TIME:3588
;Filament used: 1.32505m
;Layer height: 0.18
;Generated with Cura_SteamEngine 3.6.18
M82 ;absolute extrusion mode
;This G-Code has been generated specifically for the LulzBot TAZ 6 with standard extruder
M73 P0 ; clear GLCD progress bar
M75 ; start GLCD timer
G26 ; clear potential 'probe fail' condition
M107 ; disable fans
M420 S0 ; disable previous leveling matrix
G90 ; absolute positioning
M82 ; set extruder to absolute mode
G92 E0 ; set extruder position to 0
M140 S60.0 ; start bed heating up
M109 R140 ; soften filament before homing Z
G28 ; Home all axis
G1 E-30 F100 ; retract filament
M109 R140 ; wait for extruder to reach wiping temp
G1 X-15 Y100 F3000 ; move above wiper pad
G1 Z1 ; push nozzle into wiper
G1 X-17 Y95 F1000 ; slow wipe
G1 X-17 Y90 F1000 ; slow wipe
G1 X-17 Y85 F1000 ; slow wipe
G1 X-15 Y90 F1000 ; slow wipe
G1 X-17 Y80 F1000 ; slow wipe
G1 X-15 Y95 F1000 ; slow wipe
G1 X-17 Y75 F2000 ; fast wipe
G1 X-15 Y65 F2000 ; fast wipe
G1 X-17 Y70 F2000 ; fast wipe
G1 X-15 Y60 F2000 ; fast wipe
G1 X-17 Y55 F2000 ; fast wipe
G1 X-15 Y50 F2000 ; fast wipe
G1 X-17 Y40 F2000 ; fast wipe
G1 X-15 Y45 F2000 ; fast wipe
G1 X-17 Y35 F2000 ; fast wipe
G1 X-15 Y40 F2000 ; fast wipe
G1 X-17 Y70 F2000 ; fast wipe
G1 X-15 Y30 Z2 F2000 ; fast wipe
G1 X-17 Y35 F2000 ; fast wipe
G1 X-15 Y25 F2000 ; fast wipe
G1 X-17 Y30 F2000 ; fast wipe
G1 X-15 Y25 Z1.5 F1000 ; slow wipe
G1 X-17 Y23 F1000 ; slow wipe
G1 Z10 ; raise extruder
M109 R140 ; wait for extruder to reach probe temp
G1 X-9 Y-9 ; move above first probe point
M204 S100 ; set probing acceleration
G29 ; start auto-leveling sequence
M420 S1 ; activate bed level matrix
M425 Z			     ; use measured Z backlash for compensation
M425 Z F0		     ; turn off measured Z backlash compensation. (if activated in the quality settings, this command will automatically be ignored)
M204 S500 ; restore standard acceleration
G1 X0 Y0 Z15 F5000 ; move up off last probe point
G4 S1 ; pause
M400 ; wait for moves to finish
M117 Heating... ; progress indicator message on LCD
M109 R210 ; wait for extruder to reach printing temp
M190 R60.0 ; wait for bed to reach printing temp
G1 Z2 E0 F75 ; prime tiny bit of filament into the nozzle
M117 TAZ 6 Printing... ; progress indicator message on LCD

M221 S100 T0
G92 E0
G1 F600 E-1.75
;LAYER_COUNT:27
;LAYER:0
M107
G0 F2625 X89.705 Y131.061 Z0.425
;TYPE:SKIRT
G1 F600 E0
G1 F900 X90.261 Y130.723 E0.02167
G1 X91.316 Y130.203 E0.06085
G1 X91.815 Y130.001 E0.07879
G1 X93.147 Y129.568 E0.12544
G1 X93.284 Y129.526 E0.13021
G1 X96.771 Y128.539 E0.25093
G1 X102.054 Y126.9 E0.43518
G1 X107.144 Y125 E0.61616
G1 X112.114 Y122.817 E0.79698
G1 X116.989 Y120.338 E0.97916
G1 X121.696 Y117.6 E1.16055
G1 X124.935 Y115.525 E1.28868
G1 X125.187 Y115.377 E1.29841
G1 X127.455 Y114.162 E1.38412
G1 X127.664 Y114.059 E1.39188
G1 X128.904 Y113.491 E1.43731
G1 X129.237 Y113.357 E1.44927
G1 X131.705 Y112.501 E1.53628
G1 X131.99 Y112.415 E1.5462
G1 X133.92 Y111.913 E1.61263
G1 X134.28 Y111.838 E1.62488
G1 X136.768 Y111.446 E1.70878
G1 X137.062 Y111.411 E1.71864
G1 X138.469 Y111.302 E1.76565
G1 X138.766 Y111.291 E1.77555
G1 X141.384 Y111.296 E1.86275
G1 X141.685 Y111.309 E1.87279
G1 X142.972 Y111.415 E1.9158
G1 X143.259 Y111.449 E1.92543
G1 X145.88 Y111.87 E2.01386
G1 X146.176 Y111.93 E2.02392
G1 X147.406 Y112.231 E2.0661
G1 X147.681 Y112.31 E2.07563
G1 X150.206 Y113.136 E2.16412
G1 X150.596 Y113.288 E2.17807
G1 X152.778 Y114.283 E2.25795
G1 X153.003 Y114.395 E2.26632
G1 X154.737 Y115.331 E2.33196
G1 X155.094 Y115.55 E2.34591
G1 X157.449 Y117.184 E2.44139
G1 X157.645 Y117.33 E2.44953
G1 X158.533 Y118.036 E2.48732
G1 X158.811 Y118.28 E2.49964
G1 X161.165 Y120.565 E2.60892
G1 X161.508 Y120.947 E2.62602
G1 X163.54 Y123.547 E2.73594
G1 X163.709 Y123.781 E2.74556
G1 X164.441 Y124.883 E2.78962
G1 X164.623 Y125.187 E2.80143
G1 X165.838 Y127.455 E2.88713
G1 X165.941 Y127.663 E2.89486
G1 X166.504 Y128.891 E2.93986
G1 X166.638 Y129.224 E2.95182
G1 X167.499 Y131.704 E3.03927
G1 X167.585 Y131.989 E3.04918
G1 X168.086 Y133.913 E3.11541
G1 X168.169 Y134.325 E3.12941
G1 X168.624 Y137.494 E3.23605
G1 X168.661 Y137.956 E3.25149
G1 X168.714 Y140.752 E3.34464
G1 X168.711 Y140.996 E3.35277
G1 X168.657 Y142.162 E3.39165
G1 X168.624 Y142.511 E3.40333
G1 X168.237 Y145.264 E3.49593
G1 X168.197 Y145.499 E3.50388
G1 X167.968 Y146.61 E3.54166
G1 X167.877 Y146.961 E3.55374
G1 X166.934 Y150.009 E3.66002
G1 X166.816 Y150.338 E3.67166
G1 X166.27 Y151.654 E3.71912
G1 X166.145 Y151.923 E3.729
G1 X164.96 Y154.242 E3.81575
G1 X164.749 Y154.605 E3.82973
G1 X163.397 Y156.649 E3.91137
G1 X163.251 Y156.854 E3.91975
G1 X162.063 Y158.412 E3.98501
G1 X161.822 Y158.697 E3.99745
G1 X160.531 Y160.08 E4.06047
G1 X160.38 Y160.233 E4.06763
G1 X158.907 Y161.64 E4.13548
G1 X158.612 Y161.894 E4.14845
G1 X156.922 Y163.202 E4.21963
G1 X156.753 Y163.325 E4.2266
G1 X155.309 Y164.319 E4.28499
G1 X154.944 Y164.541 E4.29922
G1 X151.98 Y166.117 E4.41104
G1 X151.504 Y166.329 E4.4284
G1 X148.351 Y167.479 E4.5402
G1 X148.01 Y167.585 E4.55209
G1 X146.08 Y168.087 E4.61852
G1 X145.72 Y168.162 E4.63077
G1 X143.232 Y168.554 E4.71467
G1 X142.938 Y168.589 E4.72453
G1 X141.534 Y168.698 E4.77144
G1 X141.244 Y168.709 E4.7811
G1 X138.741 Y168.709 E4.86448
G1 X138.447 Y168.697 E4.87428
G1 X137.05 Y168.587 E4.92096
G1 X136.705 Y168.544 E4.93254
G1 X133.508 Y167.991 E5.04062
G1 X132.991 Y167.863 E5.05836
G1 X125.783 Y165.527 E5.31075
G1 X120.502 Y164.048 E5.49343
G1 X115.151 Y162.871 E5.67594
G1 X112.545 Y162.415 E5.76406
G1 X107.096 Y161.694 E5.94715
G1 X101.683 Y161.287 E6.12797
G1 X96.68 Y161.176 E6.29466
G1 X96.237 Y161.14 E6.30947
G1 X95.172 Y160.989 E6.3453
G1 X94.65 Y160.877 E6.36308
G1 X92.966 Y160.387 E6.4215
G1 X92.66 Y160.283 E6.43227
G1 X91.022 Y159.649 E6.49078
G1 X90.589 Y159.449 E6.50667
G1 X89.932 Y159.093 E6.53156
G1 X89.519 Y158.833 E6.54781
G1 X87.6 Y157.443 E6.62674
G1 X87.186 Y157.095 E6.64476
G1 X86.072 Y156.012 E6.69651
G1 X85.655 Y155.531 E6.71772
G1 X84.816 Y154.379 E6.76519
G1 X84.713 Y154.23 E6.77122
G1 X83.774 Y152.801 E6.82818
G1 X83.523 Y152.356 E6.8452
G1 X83.186 Y151.649 E6.87129
G1 X83.005 Y151.194 E6.8876
G1 X82.23 Y148.81 E6.9711
G1 X82.093 Y148.241 E6.9906
G1 X81.871 Y146.847 E7.03762
G1 X81.824 Y146.259 E7.05726
G1 X81.823 Y143.76 E7.14051
G1 X81.861 Y143.227 E7.15831
G1 X82.016 Y142.144 E7.19475
G1 X82.156 Y141.534 E7.2156
G1 X83.085 Y138.625 E7.31732
G1 X83.335 Y138.027 E7.33891
G1 X83.892 Y136.963 E7.37891
G1 X84.18 Y136.498 E7.39713
G1 X85.639 Y134.489 E7.47984
G1 X85.988 Y134.075 E7.49788
G1 X86.774 Y133.269 E7.53538
G1 X87.245 Y132.861 E7.55613
G1 X89.705 Y131.061 E7.65767
G0 F2625 X90 Y131.464
G1 F900 X90.482 Y131.172 E7.67644
G1 X91.537 Y130.652 E7.71562
G1 X91.969 Y130.476 E7.73116
G1 X93.301 Y130.043 E7.77782
G1 X93.421 Y130.007 E7.78199
G1 X96.923 Y129.016 E7.90322
G1 X102.198 Y127.379 E8.0872
G1 X107.331 Y125.463 E8.26971
G1 X112.347 Y123.26 E8.4522
G1 X117.224 Y120.78 E8.63445
G1 X121.957 Y118.027 E8.81684
G1 X125.205 Y115.946 E8.94533
G1 X125.423 Y115.818 E8.95375
G1 X127.691 Y114.603 E9.03946
G1 X127.873 Y114.513 E9.04622
G1 X129.113 Y113.945 E9.09165
G1 X129.401 Y113.829 E9.10199
G1 X131.869 Y112.973 E9.18901
G1 X132.116 Y112.899 E9.1976
G1 X134.046 Y112.397 E9.26403
G1 X134.358 Y112.332 E9.27464
G1 X136.846 Y111.94 E9.35854
G1 X137.101 Y111.91 E9.36709
G1 X138.508 Y111.801 E9.4141
G1 X138.765 Y111.791 E9.42267
G1 X141.383 Y111.796 E9.50988
G1 X141.644 Y111.807 E9.51858
G1 X142.931 Y111.913 E9.56159
G1 X143.179 Y111.943 E9.56991
G1 X145.8 Y112.364 E9.65834
G1 X146.058 Y112.416 E9.66711
G1 X147.288 Y112.717 E9.70929
G1 X147.525 Y112.785 E9.7175
G1 X150.05 Y113.611 E9.80599
G1 X150.388 Y113.743 E9.81808
G1 X152.57 Y114.738 E9.89797
G1 X152.766 Y114.835 E9.90525
G1 X154.5 Y115.771 E9.97089
G1 X154.809 Y115.961 E9.98297
G1 X157.164 Y117.595 E10.07845
G1 X157.334 Y117.721 E10.0855
G1 X158.222 Y118.427 E10.12329
G1 X158.463 Y118.639 E10.13398
G1 X160.817 Y120.924 E10.24326
G1 X161.114 Y121.255 E10.25807
G1 X163.146 Y123.855 E10.36799
G1 X163.292 Y124.058 E10.37632
G1 X164.024 Y125.16 E10.42039
G1 X164.182 Y125.423 E10.43061
G1 X165.397 Y127.691 E10.51631
G1 X165.486 Y127.872 E10.52303
G1 X166.049 Y129.1 E10.56803
G1 X166.165 Y129.388 E10.57837
G1 X167.026 Y131.868 E10.66582
G1 X167.101 Y132.115 E10.67442
G1 X167.602 Y134.039 E10.74065
G1 X167.674 Y134.396 E10.75278
G1 X168.129 Y137.565 E10.85942
G1 X168.161 Y137.965 E10.87279
G1 X168.214 Y140.761 E10.96594
G1 X168.212 Y140.973 E10.973
G1 X168.158 Y142.139 E11.01188
G1 X168.129 Y142.441 E11.02199
G1 X167.742 Y145.194 E11.11459
G1 X167.707 Y145.398 E11.12149
G1 X167.478 Y146.509 E11.15927
G1 X167.4 Y146.814 E11.16976
G1 X166.457 Y149.862 E11.27604
G1 X166.354 Y150.146 E11.2861
G1 X165.808 Y151.462 E11.33356
G1 X165.7 Y151.696 E11.34215
G1 X164.515 Y154.015 E11.42889
G1 X164.332 Y154.329 E11.441
G1 X162.98 Y156.373 E11.52263
G1 X162.853 Y156.551 E11.52992
G1 X161.665 Y158.109 E11.59518
G1 X161.457 Y158.356 E11.60594
G1 X160.166 Y159.739 E11.66896
G1 X160.035 Y159.871 E11.67515
G1 X158.562 Y161.278 E11.74301
G1 X158.306 Y161.498 E11.75425
G1 X156.616 Y162.806 E11.82544
G1 X156.47 Y162.913 E11.83147
G1 X155.026 Y163.907 E11.88986
G1 X154.709 Y164.1 E11.90222
G1 X151.745 Y165.676 E12.01404
G1 X151.333 Y165.859 E12.02906
G1 X148.18 Y167.009 E12.14086
G1 X147.884 Y167.101 E12.15118
G1 X145.954 Y167.603 E12.21761
G1 X145.642 Y167.668 E12.22822
G1 X143.154 Y168.06 E12.31212
G1 X142.9 Y168.09 E12.32064
G1 X141.496 Y168.199 E12.36755
G1 X141.244 Y168.209 E12.37595
G1 X138.741 Y168.209 E12.45933
G1 X138.486 Y168.199 E12.46783
G1 X137.089 Y168.089 E12.51451
G1 X136.79 Y168.051 E12.52455
G1 X133.593 Y167.498 E12.63262
G1 X133.145 Y167.388 E12.64799
G1 X125.922 Y165.047 E12.90091
G1 X120.623 Y163.564 E13.0842
G1 X115.229 Y162.376 E13.26819
G1 X112.623 Y161.92 E13.35631
G1 X107.165 Y161.198 E13.5397
G1 X101.693 Y160.787 E13.72249
G1 X96.691 Y160.676 E13.88915
G1 X96.307 Y160.645 E13.90198
G1 X95.242 Y160.494 E13.93781
G1 X94.79 Y160.397 E13.95321
G1 X93.106 Y159.907 E14.01163
G1 X92.841 Y159.817 E14.02096
G1 X91.203 Y159.183 E14.07946
G1 X90.828 Y159.009 E14.09323
G1 X90.171 Y158.653 E14.11813
G1 X89.813 Y158.428 E14.13221
G1 X87.894 Y157.038 E14.21114
G1 X87.535 Y156.736 E14.22677
G1 X86.421 Y155.653 E14.27852
G1 X86.059 Y155.236 E14.29691
G1 X85.22 Y154.084 E14.34439
G1 X85.131 Y153.956 E14.34958
G1 X84.192 Y152.527 E14.40654
G1 X83.974 Y152.14 E14.42133
G1 X83.637 Y151.433 E14.44742
G1 X83.48 Y151.04 E14.46152
G1 X82.705 Y148.656 E14.54502
G1 X82.586 Y148.162 E14.56195
G1 X82.364 Y146.768 E14.60897
G1 X82.324 Y146.258 E14.62601
G1 X82.323 Y143.759 E14.70925
G1 X82.356 Y143.298 E14.72465
G1 X82.511 Y142.215 E14.76109
G1 X82.632 Y141.686 E14.77916
G1 X83.561 Y138.777 E14.88089
G1 X83.778 Y138.259 E14.89959
G1 X84.335 Y137.195 E14.9396
G1 X84.584 Y136.792 E14.95538
G1 X86.043 Y134.783 E15.03808
G1 X86.346 Y134.424 E15.05373
G1 X87.132 Y133.618 E15.09123
G1 X87.54 Y133.264 E15.10923
G1 X90 Y131.464 E15.21076
G1 F600 E13.46076
;MESH:
G0 F2625 X94.713 Y133.48
G0 X96.14 Y133.415
G0 X96.281 Y135.047
G0 X96.346 Y135.122
;TYPE:WALL-INNER
G1 F600 E15.21076
G1 F900 X96.207 Y135.266 E15.21743
G1 X96.202 Y135.128 E15.21758
G1 X96.193 Y134.938 E15.2202
G1 X96.125 Y133.403 E15.27138
G1 X96.2 Y133.391 E15.27391
G1 X96.622 Y134.918 E15.30107
G1 X96.346 Y135.122 E15.30912
G0 F2625 X96.281 Y135.047
G0 X99.548 Y134.908
G0 X99.489 Y134.988
G1 F900 X99.378 Y134.92 E15.31345
G1 X99.8 Y133.391 E15.36629
G1 X99.875 Y133.403 E15.36882
G1 X99.808 Y134.939 E15.39444
G1 X99.805 Y135.003 E15.39586
G1 X99.793 Y135.257 E15.40433
G1 X99.489 Y134.988 E15.41102
G0 F2625 X99.548 Y134.908
G0 X104.474 Y138.206
G0 X104.473 Y138.107
G1 F900 X104.807 Y137.84 E15.42527
G1 X106.281 Y136.666 E15.48804
G1 X106.334 Y136.719 E15.49053
G1 X105.16 Y138.193 E15.52673
G1 X104.893 Y138.527 E15.54098
G1 X106.286 Y140.445 E15.61994
G1 X106.685 Y140.295 E15.63414
G1 X108.451 Y139.632 E15.69697
G1 X108.486 Y139.7 E15.69952
G1 X106.912 Y140.738 E15.73585
G1 X106.556 Y140.973 E15.75006
G1 X107.009 Y142.367 E15.79888
G1 X107.052 Y142.502 E15.8036
G1 X107.141 Y142.774 E15.81314
G1 X106.732 Y142.607 E15.82051
G1 X106.594 Y142.577 E15.82454
G1 X106.318 Y142.517 E15.83395
G1 X105.894 Y142.5 E15.84809
G1 X105.473 Y142.553 E15.86222
G1 X105.067 Y142.677 E15.87636
G1 X104.687 Y142.869 E15.89055
G1 X104.346 Y143.122 E15.90469
G1 X104.052 Y143.428 E15.91882
G1 X103.815 Y143.78 E15.93296
G1 X103.64 Y144.166 E15.94708
G1 X103.533 Y144.578 E15.96126
G1 X103.497 Y145 E15.97536
G1 X103.533 Y145.422 E15.98947
G1 X103.64 Y145.834 E16.00365
G1 X103.815 Y146.22 E16.01777
G1 X104.052 Y146.572 E16.0319
G1 X104.346 Y146.878 E16.04604
G1 X104.687 Y147.131 E16.06018
G1 X105.067 Y147.323 E16.07436
G1 X105.473 Y147.447 E16.08851
G1 X105.894 Y147.5 E16.10264
G1 X106.318 Y147.483 E16.11677
G1 X106.594 Y147.423 E16.12618
G1 X106.732 Y147.393 E16.13089
G1 X107.141 Y147.226 E16.1456
G1 X107.053 Y147.497 E16.14776
G1 X107.01 Y147.631 E16.15178
G1 X106.556 Y149.027 E16.20068
G1 X106.912 Y149.262 E16.21489
G1 X108.486 Y150.3 E16.2777
G1 X108.451 Y150.368 E16.28024
G1 X106.685 Y149.705 E16.31661
G1 X106.286 Y149.555 E16.3308
G1 X104.893 Y151.473 E16.40977
G1 X105.16 Y151.807 E16.42401
G1 X106.334 Y153.281 E16.48678
G1 X106.281 Y153.334 E16.48928
G1 X104.807 Y152.16 E16.52548
G1 X104.473 Y151.893 E16.53972
G1 X102.555 Y153.286 E16.61868
G1 X102.705 Y153.685 E16.63288
G1 X103.368 Y155.451 E16.69572
G1 X103.3 Y155.486 E16.69826
G1 X102.262 Y153.912 E16.73459
G1 X102.027 Y153.556 E16.7488
G1 X100.613 Y154.016 E16.79833
G1 X100.555 Y154.034 E16.80036
G1 X100.309 Y154.114 E16.80897
G1 X100.218 Y154.144 E16.81217
G1 X100.281 Y154.031 E16.81264
G1 X100.423 Y153.63 E16.82179
G1 X100.433 Y153.57 E16.82368
G1 X100.491 Y153.226 E16.83531
G1 X100.5 Y153 E16.84284
G1 X100.491 Y152.774 E16.85037
G1 X100.423 Y152.37 E16.86402
G1 X100.281 Y151.969 E16.87819
G1 X100.073 Y151.598 E16.89236
G1 X99.806 Y151.268 E16.9065
G1 X99.489 Y150.988 E16.92059
G1 X99.126 Y150.765 E16.93478
G1 X98.732 Y150.607 E16.94892
G1 X98.318 Y150.517 E16.96303
G1 X97.894 Y150.5 E16.97717
G1 X97.473 Y150.553 E16.9913
G1 X97.067 Y150.677 E17.00544
G1 X96.687 Y150.869 E17.01962
G1 X96.346 Y151.122 E17.03377
G1 X96.052 Y151.428 E17.0479
G1 X95.815 Y151.78 E17.06204
G1 X95.64 Y152.166 E17.07615
G1 X95.533 Y152.578 E17.09033
G1 X95.497 Y153 E17.10444
G1 X95.533 Y153.422 E17.11855
G1 X95.583 Y153.613 E17.12513
G1 X95.64 Y153.834 E17.13273
G1 X95.78 Y154.143 E17.14403
G1 X95.564 Y154.073 E17.14511
G1 X95.348 Y154.003 E17.15101
G1 X93.973 Y153.556 E17.19917
G1 X93.738 Y153.912 E17.21338
G1 X92.7 Y155.486 E17.27618
G1 X92.632 Y155.451 E17.27873
G1 X93.295 Y153.685 E17.31509
G1 X93.445 Y153.286 E17.32929
G1 X91.527 Y151.893 E17.40826
G1 X91.193 Y152.16 E17.4225
G1 X89.719 Y153.334 E17.48527
G1 X89.666 Y153.281 E17.48777
G1 X90.84 Y151.807 E17.52397
G1 X91.107 Y151.473 E17.53821
G1 X89.714 Y149.555 E17.61717
G1 X89.315 Y149.705 E17.63137
G1 X87.549 Y150.368 E17.69421
G1 X87.514 Y150.3 E17.69675
G1 X89.088 Y149.262 E17.73308
G1 X89.444 Y149.027 E17.74729
G1 X89.006 Y147.678 E17.79454
G1 X88.908 Y147.375 E17.80515
G1 X88.856 Y147.216 E17.81072
G1 X89.067 Y147.323 E17.8134
G1 X89.372 Y147.416 E17.82088
G1 X89.473 Y147.447 E17.8244
G1 X89.894 Y147.5 E17.83853
G1 X90.318 Y147.483 E17.85266
G1 X90.732 Y147.393 E17.86678
G1 X91.126 Y147.235 E17.88092
G1 X91.489 Y147.012 E17.89511
G1 X91.806 Y146.732 E17.9092
G1 X92.073 Y146.402 E17.92334
G1 X92.281 Y146.031 E17.93751
G1 X92.423 Y145.63 E17.95168
G1 X92.491 Y145.226 E17.96532
G1 X92.5 Y145 E17.97286
G1 X92.491 Y144.774 E17.98039
G1 X92.423 Y144.37 E17.99404
G1 X92.281 Y143.969 E18.00821
G1 X92.073 Y143.598 E18.02238
G1 X91.806 Y143.268 E18.03651
G1 X91.489 Y142.988 E18.0506
G1 X91.126 Y142.765 E18.06479
G1 X90.732 Y142.607 E18.07893
G1 X90.318 Y142.517 E18.09305
G1 X89.894 Y142.5 E18.10718
G1 X89.473 Y142.553 E18.12132
G1 X89.372 Y142.584 E18.12484
