;Generated by Cura LulzBot Edition GCodeWriter Version: 3.6.18
;FLAVOR:Marlin
;TIME:2868
;Filament used: 1.56396m
;Layer height: 0.25
;Generated with Cura_SteamEngine 3.6.18
M82 ;absolute extrusion mode
;This G-Code has been generated specifically for the LulzBot TAZ 6 with standard extruder
M73 P0 ; clear GLCD progress bar
M75 ; start GLCD timer
G26 ; clear potential 'probe fail' condition
M107 ; disable fans
M420 S0 ; disable previous leveling matrix
G90 ; absolute positioning
M82 ; set extruder to absolute mode
G92 E0 ; set extruder position to 0
M140 S60.0 ; start bed heating up
M109 R140 ; soften filament before homing Z
G28 ; Home all axis
G1 E-30 F100 ; retract filament
M109 R140 ; wait for extruder to reach wiping temp
G1 X-15 Y100 F3000 ; move above wiper pad
G1 Z1 ; push nozzle into wiper
G1 X-17 Y95 F1000 ; slow wipe
G1 X-17 Y90 F1000 ; slow wipe
G1 X-17 Y85 F1000 ; slow wipe
G1 X-15 Y90 F1000 ; slow wipe
G1 X-17 Y80 F1000 ; slow wipe
G1 X-15 Y95 F1000 ; slow wipe
G1 X-17 Y75 F2000 ; fast wipe
G1 X-15 Y65 F2000 ; fast wipe
G1 X-17 Y70 F2000 ; fast wipe
G1 X-15 Y60 F2000 ; fast wipe
G1 X-17 Y55 F2000 ; fast wipe
G1 X-15 Y50 F2000 ; fast wipe
G1 X-17 Y40 F2000 ; fast wipe
G1 X-15 Y45 F2000 ; fast wipe
G1 X-17 Y35 F2000 ; fast wipe
G1 X-15 Y40 F2000 ; fast wipe
G1 X-17 Y70 F2000 ; fast wipe
G1 X-15 Y30 Z2 F2000 ; fast wipe
G1 X-17 Y35 F2000 ; fast wipe
G1 X-15 Y25 F2000 ; fast wipe
G1 X-17 Y30 F2000 ; fast wipe
G1 X-15 Y25 Z1.5 F1000 ; slow wipe
G1 X-17 Y23 F1000 ; slow wipe
G1 Z10 ; raise extruder
M109 R140 ; wait for extruder to reach probe temp
G1 X-9 Y-9 ; move above first probe point
M204 S100 ; set probing acceleration
G29 ; start auto-leveling sequence
M420 S1 ; activate bed level matrix
M425 Z			     ; use measured Z backlash for compensation
M425 Z F0		     ; turn off measured Z backlash compensation. (if activated in the quality settings, this command will automatically be ignored)
M204 S500 ; restore standard acceleration
G1 X0 Y0 Z15 F5000 ; move up off last probe point
G4 S1 ; pause
M400 ; wait for moves to finish
M117 Heating... ; progress indicator message on LCD
M109 R210 ; wait for extruder to reach printing temp
M190 R60.0 ; wait for bed to reach printing temp
G1 Z2 E0 F75 ; prime tiny bit of filament into the nozzle
M117 TAZ 6 Printing... ; progress indicator message on LCD

M221 S100 T0
G92 E0
G1 F600 E-1.75
;LAYER_COUNT:35
;LAYER:0
M107
G0 F2625 X102.156 Y101.43 Z0.425
;TYPE:SKIRT
G1 F600 E0
G1 F900 X102.404 Y101.188 E0.01154
G1 X106.562 Y97.559 E0.19538
G1 X106.828 Y97.351 E0.20663
G1 X111.063 Y94.369 E0.37916
G1 X111.347 Y94.19 E0.39034
G1 X115.922 Y91.63 E0.56497
G1 X116.222 Y91.482 E0.57612
G1 X121.029 Y89.409 E0.75049
G1 X121.357 Y89.288 E0.76214
G1 X126.623 Y87.662 E0.94572
G1 X126.944 Y87.58 E0.95676
G1 X131.97 Y86.574 E1.1275
G1 X132.298 Y86.526 E1.13854
G1 X137.585 Y86.019 E1.31546
G1 X137.89 Y86.004 E1.32563
G1 X141.864 Y85.998 E1.45801
G1 X142.187 Y86.014 E1.46878
G1 X148.364 Y86.621 E1.67553
G1 X148.727 Y86.677 E1.68776
G1 X153.866 Y87.778 E1.86283
G1 X154.179 Y87.862 E1.87363
G1 X158.907 Y89.381 E2.03905
G1 X159.214 Y89.497 E2.04998
G1 X164.021 Y91.596 E2.2247
G1 X164.329 Y91.75 E2.23617
G1 X169.05 Y94.441 E2.41718
G1 X169.328 Y94.619 E2.42818
G1 X173.404 Y97.526 E2.59494
G1 X173.662 Y97.731 E2.60592
G1 X177.603 Y101.194 E2.78068
G1 X177.855 Y101.44 E2.79241
G1 X181.627 Y105.56 E2.97848
G1 X181.832 Y105.808 E2.98919
G1 X184.739 Y109.694 E3.15085
G1 X184.924 Y109.969 E3.16189
G1 X187.615 Y114.453 E3.33609
G1 X187.776 Y114.756 E3.34752
G1 X190.088 Y119.736 E3.53041
G1 X190.215 Y120.053 E3.54178
G1 X191.907 Y124.997 E3.71585
G1 X191.996 Y125.307 E3.72659
G1 X193.134 Y130.162 E3.89269
G1 X193.195 Y130.499 E3.9041
G1 X193.878 Y135.941 E4.0868
G1 X193.902 Y136.278 E4.09805
G1 X194.011 Y141.503 E4.27214
G1 X194.002 Y141.828 E4.28297
G1 X193.61 Y146.778 E4.44837
G1 X193.567 Y147.104 E4.45932
G1 X192.629 Y152.247 E4.63347
G1 X192.553 Y152.572 E4.64458
G1 X191.092 Y157.594 E4.8188
G1 X190.977 Y157.921 E4.83035
G1 X188.891 Y163.001 E5.01328
G1 X188.751 Y163.299 E5.02424
G1 X186.403 Y167.69 E5.19011
G1 X186.228 Y167.979 E5.20136
G1 X183.179 Y172.482 E5.38251
G1 X182.974 Y172.754 E5.39385
G1 X179.589 Y176.772 E5.56886
G1 X179.367 Y177.01 E5.5797
G1 X175.77 Y180.503 E5.74672
G1 X175.522 Y180.72 E5.7577
G1 X171.443 Y183.946 E5.93093
G1 X171.17 Y184.14 E5.94208
G1 X166.763 Y186.941 E6.11602
G1 X166.474 Y187.105 E6.12709
G1 X161.805 Y189.441 E6.301
G1 X161.499 Y189.575 E6.31212
G1 X156.612 Y191.42 E6.48613
G1 X156.293 Y191.522 E6.49728
G1 X151.218 Y192.86 E6.67211
G1 X150.87 Y192.931 E6.68394
G1 X145.279 Y193.767 E6.87225
G1 X144.94 Y193.8 E6.88359
G1 X139.752 Y194.027 E7.05657
G1 X139.41 Y194.024 E7.06797
G1 X134.049 Y193.693 E7.24688
G1 X133.733 Y193.658 E7.25747
G1 X128.885 Y192.878 E7.42104
G1 X128.569 Y192.811 E7.4318
G1 X123.734 Y191.53 E7.59841
G1 X123.41 Y191.425 E7.60976
G1 X118.273 Y189.469 E7.79286
G1 X117.962 Y189.332 E7.80418
G1 X113.307 Y186.977 E7.97795
G1 X113.016 Y186.81 E7.98913
G1 X108.597 Y183.968 E8.16414
G1 X108.325 Y183.773 E8.17529
G1 X104.237 Y180.502 E8.34969
G1 X103.986 Y180.279 E8.36087
G1 X100.265 Y176.612 E8.53489
G1 X100.04 Y176.366 E8.546
G1 X96.718 Y172.342 E8.71981
G1 X96.525 Y172.083 E8.73057
G1 X93.76 Y167.96 E8.89593
G1 X93.59 Y167.677 E8.90693
G1 X91.13 Y163.057 E9.08128
G1 X90.989 Y162.755 E9.09238
G1 X89.016 Y157.906 E9.26676
G1 X88.905 Y157.588 E9.27798
G1 X87.445 Y152.563 E9.45229
G1 X87.369 Y152.239 E9.46338
G1 X86.433 Y147.102 E9.63731
G1 X86.39 Y146.77 E9.64846
G1 X85.987 Y141.56 E9.82253
G1 X85.978 Y141.225 E9.83369
G1 X86.113 Y135.996 E10.00793
G1 X86.139 Y135.663 E10.01905
G1 X86.81 Y130.477 E10.19324
G1 X86.87 Y130.147 E10.20441
G1 X88.074 Y125.05 E10.37887
G1 X88.167 Y124.73 E10.38997
G1 X89.88 Y119.804 E10.56369
G1 X90.007 Y119.493 E10.57488
G1 X92.229 Y114.747 E10.74944
G1 X92.392 Y114.442 E10.76096
G1 X95.242 Y109.734 E10.94428
G1 X95.426 Y109.461 E10.95525
G1 X98.409 Y105.502 E11.12037
G1 X98.62 Y105.251 E11.13129
G1 X102.156 Y101.43 E11.30471
G1 F600 E9.55471
;MESH:
G0 F2625 X108.001 Y99.696
G0 X108.948 Y100.774
G0 X142.564 Y90.116
G0 X142.57 Y90.017
;TYPE:WALL-INNER
G1 F600 E11.30471
G1 F900 X147.704 Y90.547 E11.47663
G1 X152.748 Y91.601 E11.64828
G1 X157.654 Y93.168 E11.81983
G1 X162.372 Y95.23 E11.99135
G1 X166.854 Y97.766 E12.16289
G1 X171.064 Y100.759 E12.33495
G1 X174.928 Y104.155 E12.50631
G1 X178.436 Y107.945 E12.67833
G1 X181.525 Y112.061 E12.84975
G1 X184.178 Y116.48 E13.02144
G1 X186.363 Y121.147 E13.1931
G1 X188.054 Y126.007 E13.3645
G1 X189.238 Y131.025 E13.53625
G1 X189.899 Y136.136 E13.70791
G1 X190.032 Y141.289 E13.87962
G1 X189.635 Y146.426 E14.05124
G1 X188.71 Y151.498 E14.22298
G1 X187.27 Y156.443 E14.39454
G1 X185.331 Y161.215 E14.56612
G1 X182.907 Y165.766 E14.73788
G1 X180.03 Y170.042 E14.90955
G1 X176.733 Y173.993 E15.08097
G1 X173.035 Y177.598 E15.25299
G1 X169.002 Y180.79 E15.42432
G1 X164.656 Y183.554 E15.59588
G1 X160.039 Y185.862 E15.76782
G1 X155.218 Y187.679 E15.93944
G1 X150.239 Y188.991 E16.11095
G1 X145.147 Y189.783 E16.28261
G1 X140 Y190.049 E16.45429
G1 X134.853 Y189.783 E16.62596
G1 X129.761 Y188.991 E16.79762
G1 X124.782 Y187.679 E16.96913
G1 X119.961 Y185.862 E17.14075
G1 X115.344 Y183.554 E17.31269
G1 X110.998 Y180.79 E17.48425
G1 X106.965 Y177.598 E17.65558
G1 X103.267 Y173.993 E17.82761
G1 X99.97 Y170.042 E17.99902
G1 X97.093 Y165.766 E18.1707
G1 X94.669 Y161.215 E18.34245
G1 X92.73 Y156.443 E18.51403
G1 X91.29 Y151.498 E18.68559
G1 X90.365 Y146.426 E18.85733
G1 X89.968 Y141.289 E19.02896
G1 X90.101 Y136.136 E19.20066
G1 X90.762 Y131.025 E19.37233
G1 X91.946 Y126.007 E19.54407
G1 X93.637 Y121.147 E19.71548
G1 X95.822 Y116.48 E19.88713
G1 X98.475 Y112.061 E20.05882
G1 X101.564 Y107.945 E20.23024
G1 X105.072 Y104.155 E20.40227
G1 X108.936 Y100.759 E20.57362
G1 X113.146 Y97.766 E20.74569
G1 X117.628 Y95.23 E20.91723
G1 X122.346 Y93.168 E21.08874
G1 X127.252 Y91.601 E21.26029
G1 X132.296 Y90.547 E21.43194
G1 X137.43 Y90.017 E21.60386
G1 X140 Y89.95 E21.6895
G1 X142.57 Y90.017 E21.77514
G0 F2625 X142.564 Y90.116
G0 X122.75 Y96.806
G0 X118.171 Y98.93
G0 X113.849 Y101.537
G0 X109.837 Y104.597
G0 X106.178 Y108.073
G0 X102.918 Y111.926
G0 X100.094 Y116.109
G0 X97.741 Y120.574
G0 X95.886 Y125.267
G0 X94.548 Y130.134
G0 X93.747 Y135.116
G0 X93.489 Y140.157
G0 X93.78 Y145.195
G0 X94.615 Y150.172
G0 X95.985 Y155.029
G0 X97.871 Y159.709
G0 X100.255 Y164.158
G0 X103.108 Y168.322
G0 X106.394 Y172.153
G0 X110.273 Y175.787
G0 X124.68 Y177.48
G0 X124.75 Y177.55
G1 F900 X124.75 Y182.05 E21.92503
G1 X155.25 Y182.05 E22.941
G1 X155.25 Y177.55 E23.0909
G1 X124.75 Y177.55 E24.10686
G0 F2625 X124.68 Y177.48
G0 X169.749 Y175.842
G0 X169.713 Y175.75
G1 F900 X173.578 Y172.126 E24.28335
G1 X176.861 Y168.298 E24.45133
G1 X179.711 Y164.138 E24.61931
G1 X182.093 Y159.693 E24.78729
G1 X183.978 Y155.017 E24.95523
G1 X185.346 Y150.164 E25.12318
G1 X186.181 Y145.191 E25.29116
G1 X186.471 Y140.157 E25.45912
G1 X186.214 Y135.12 E25.62712
G1 X185.413 Y130.142 E25.79507
G1 X184.077 Y125.279 E25.96306
G1 X182.223 Y120.59 E26.13102
G1 X179.872 Y116.129 E26.29899
G1 X177.051 Y111.95 E26.46694
G1 X173.793 Y108.1 E26.63494
G1 X170.138 Y104.627 E26.80289
G1 X166.129 Y101.57 E26.97083
G1 X161.811 Y98.965 E27.13881
G1 X157.236 Y96.843 E27.3068
G1 X152.458 Y95.231 E27.47477
G1 X147.534 Y94.144 E27.64274
G1 X142.522 Y93.597 E27.81068
G1 X137.478 Y93.597 E27.9787
G1 X132.466 Y94.144 E28.14664
G1 X127.542 Y95.231 E28.31461
G1 X122.764 Y96.843 E28.48258
G1 X118.189 Y98.965 E28.65057
G1 X113.871 Y101.57 E28.81855
G1 X109.862 Y104.627 E28.98649
G1 X106.207 Y108.1 E29.15444
G1 X102.949 Y111.95 E29.32244
G1 X100.128 Y116.129 E29.49039
G1 X97.777 Y120.59 E29.65836
G1 X95.923 Y125.279 E29.82632
G1 X94.587 Y130.142 E29.99431
G1 X93.786 Y135.12 E30.16226
G1 X93.529 Y140.157 E30.33027
G1 X93.819 Y145.191 E30.49823
G1 X94.654 Y150.164 E30.6662
G1 X96.022 Y155.017 E30.83415
G1 X97.907 Y159.693 E31.00209
G1 X100.289 Y164.138 E31.17008
G1 X103.139 Y168.298 E31.33805
G1 X106.422 Y172.126 E31.50603
G1 X110.287 Y175.75 E31.68252
G1 X169.713 Y175.75 E33.66202
G0 F2625 X169.749 Y175.842
G0 X125.25 Y177.45
G0 X125.25 Y178.05
;TYPE:WALL-OUTER
G1 F900 X125.25 Y181.55 E33.77861
G1 X154.75 Y181.55 E34.76126
G1 X154.75 Y178.05 E34.87785
G1 X125.25 Y178.05 E35.86051
G0 F2625 X125.25 Y178.3
G0 X124.65 Y178.3
G0 X110.485 Y175.85
G0 X110.485 Y175.25
G1 F900 X169.515 Y175.25 E37.82682
G1 X173.216 Y171.78 E37.99581
G1 X176.464 Y167.993 E38.162
G1 X179.283 Y163.878 E38.32815
G1 X181.639 Y159.481 E38.49431
G1 X183.504 Y154.855 E38.66046
G1 X184.857 Y150.054 E38.82661
G1 X185.683 Y145.135 E38.99276
G1 X185.97 Y140.155 E39.15892
G1 X185.716 Y135.173 E39.32509
G1 X184.924 Y130.248 E39.49125
G1 X183.602 Y125.438 E39.65741
G1 X181.768 Y120.799 E39.82358
G1 X179.442 Y116.386 E39.98975
G1 X176.652 Y112.252 E40.15588
G1 X173.429 Y108.444 E40.32206
G1 X169.813 Y105.008 E40.48821
G1 X165.847 Y101.984 E40.65435
G1 X161.576 Y99.407 E40.82051
G1 X157.05 Y97.308 E40.98669
G1 X152.324 Y95.713 E41.15284
G1 X147.453 Y94.638 E41.319
G1 X142.495 Y94.097 E41.48513
G1 X137.505 Y94.097 E41.65135
G1 X132.547 Y94.638 E41.81748
G1 X127.676 Y95.713 E41.98364
G1 X122.95 Y97.308 E42.14979
G1 X118.424 Y99.407 E42.31598
G1 X114.153 Y101.984 E42.48214
G1 X110.187 Y105.008 E42.64827
G1 X106.571 Y108.444 E42.81443
G1 X103.348 Y112.252 E42.98061
G1 X100.558 Y116.386 E43.14674
G1 X98.232 Y120.799 E43.31291
G1 X96.398 Y125.438 E43.47907
G1 X95.076 Y130.248 E43.64523
G1 X94.284 Y135.173 E43.8114
G1 X94.03 Y140.155 E43.97756
G1 X94.317 Y145.135 E44.14372
G1 X95.143 Y150.054 E44.30987
G1 X96.496 Y154.855 E44.47602
G1 X98.361 Y159.481 E44.64217
G1 X100.717 Y163.878 E44.80834
G1 X103.536 Y167.993 E44.97449
G1 X106.784 Y171.78 E45.14067
G1 X110.485 Y175.25 E45.30967
G0 F2625 X110.735 Y175.25
G0 X110.735 Y175.85
G0 X110.273 Y175.787
G0 X106.394 Y172.153
G0 X103.108 Y168.322
G0 X100.255 Y164.158
G0 X97.871 Y159.709
G0 X95.985 Y155.029
G0 X94.615 Y150.172
G0 X93.78 Y145.195
G0 X93.489 Y140.157
G0 X93.747 Y135.116
G0 X94.548 Y130.134
G0 X95.886 Y125.267
G0 X97.741 Y120.574
G0 X100.094 Y116.109
G0 X102.918 Y111.926
G0 X106.178 Y108.073
G0 X109.837 Y104.597
G0 X113.849 Y101.537
G0 X118.171 Y98.93
G0 X122.75 Y96.806
G0 X142.564 Y90.116
G0 X142.595 Y89.517
G1 F900 X147.78 Y90.053 E45.4833
G1 X152.877 Y91.118 E45.65675
G1 X157.831 Y92.7 E45.82998
G1 X162.596 Y94.782 E46.0032
G1 X167.13 Y97.348 E46.17673
G1 X171.373 Y100.364 E46.35014
G1 X175.278 Y103.796 E46.52331
G1 X178.819 Y107.622 E46.69696
G1 X181.941 Y111.782 E46.87022
G1 X184.62 Y116.245 E47.04361
G1 X186.825 Y120.954 E47.21681
G1 X188.537 Y125.874 E47.39034
G1 X189.73 Y130.933 E47.56348
G1 X190.398 Y136.098 E47.73696
G1 X190.533 Y141.305 E47.91046
G1 X190.132 Y146.487 E48.08359
G1 X189.198 Y151.611 E48.25709
G1 X187.744 Y156.605 E48.43035
G1 X185.784 Y161.427 E48.60373
G1 X183.334 Y166.027 E48.77734
G1 X180.432 Y170.341 E48.95053
G1 X177.1 Y174.334 E49.12376
G1 X173.367 Y177.973 E49.29741
G1 X169.291 Y181.199 E49.47057
G1 X164.902 Y183.99 E49.64382
G1 X160.239 Y186.321 E49.81748
G1 X155.376 Y188.154 E49.99059
G1 X150.336 Y189.482 E50.1642
G1 X145.201 Y190.281 E50.33731
G1 X140 Y190.549 E50.51079
G1 X134.799 Y190.281 E50.68426
G1 X129.664 Y189.482 E50.85737
G1 X124.624 Y188.154 E51.03099
G1 X119.761 Y186.321 E51.2041
G1 X115.098 Y183.99 E51.37775
G1 X110.709 Y181.199 E51.55101
G1 X106.633 Y177.973 E51.72416
G1 X102.9 Y174.334 E51.89781
G1 X99.568 Y170.341 E52.07105
G1 X96.666 Y166.027 E52.24424
G1 X94.216 Y161.427 E52.41784
G1 X92.256 Y156.605 E52.59123
G1 X90.802 Y151.611 E52.76449
G1 X89.868 Y146.487 E52.93798
G1 X89.467 Y141.305 E53.11111
G1 X89.602 Y136.098 E53.28462
G1 X90.27 Y130.933 E53.4581
G1 X91.463 Y125.874 E53.63124
G1 X93.175 Y120.954 E53.80476
G1 X95.38 Y116.245 E53.97797
G1 X98.059 Y111.782 E54.15136
G1 X101.181 Y107.622 E54.32461
G1 X104.722 Y103.796 E54.49826
G1 X108.627 Y100.364 E54.67144
G1 X112.87 Y97.348 E54.84484
G1 X117.404 Y94.782 E55.01838
G1 X122.169 Y92.7 E55.19159
G1 X127.123 Y91.118 E55.36482
G1 X132.22 Y90.053 E55.53827
G1 X137.405 Y89.517 E55.71191
G1 X140 Y89.45 E55.79838
G1 X142.595 Y89.517 E55.88484
G0 F2625 X142.843 Y89.542
G0 X142.78 Y90.138
G0 X142.533 Y90.507
;TYPE:SKIN
G1 F900 X147.631 Y91.033 E56.05556
G1 X152.624 Y92.076 E56.22547
G1 X157.483 Y93.628 E56.39538
G1 X162.149 Y95.667 E56.565
G1 X166.589 Y98.179 E56.73493
G1 X170.767 Y101.149 E56.90568
G1 X174.586 Y104.506 E57.07505
G1 X178.057 Y108.257 E57.24529
G1 X181.116 Y112.333 E57.41504
G1 X183.749 Y116.719 E57.58545
G1 X185.906 Y121.324 E57.75483
G1 X187.584 Y126.146 E57.9249
G1 X188.755 Y131.112 E58.09486
G1 X189.409 Y136.173 E58.26485
G1 X189.542 Y141.283 E58.43512
G1 X189.149 Y146.358 E58.60468
G1 X188.232 Y151.389 E58.77502
G1 X186.807 Y156.279 E58.94468
G1 X184.89 Y160.999 E59.11438
G1 X182.481 Y165.521 E59.28505
G1 X179.638 Y169.748 E59.45474
G1 X176.379 Y173.653 E59.62417
G1 X172.703 Y177.236 E59.79516
G1 X168.724 Y180.386 E59.96421
G1 X164.415 Y183.126 E60.1343
G1 X159.842 Y185.412 E60.3046
G1 X155.066 Y187.212 E60.47462
G1 X150.135 Y188.512 E60.64448
G1 X145.104 Y189.293 E60.81407
G1 X140 Y189.557 E60.98432
G1 X134.896 Y189.293 E61.15456
G1 X129.865 Y188.512 E61.32415
G1 X124.934 Y187.212 E61.49402
G1 X120.158 Y185.412 E61.66403
G1 X115.585 Y183.126 E61.83433
G1 X111.276 Y180.386 E62.00443
G1 X107.297 Y177.236 E62.17347
G1 X103.621 Y173.653 E62.34447
G1 X100.362 Y169.748 E62.51389
G1 X97.519 Y165.521 E62.68358
G1 X95.11 Y160.999 E62.85425
G1 X93.193 Y156.279 E63.02395
G1 X91.768 Y151.389 E63.19361
G1 X90.851 Y146.358 E63.36396
G1 X90.458 Y141.283 E63.53351
G1 X90.591 Y136.173 E63.70379
G1 X91.245 Y131.112 E63.87377
G1 X92.416 Y126.146 E64.04373
G1 X94.094 Y121.324 E64.2138
G1 X96.251 Y116.719 E64.38319
G1 X98.884 Y112.333 E64.55359
G1 X101.943 Y108.257 E64.72335
G1 X105.414 Y104.506 E64.89358
G1 X109.233 Y101.149 E65.06295
G1 X113.411 Y98.179 E65.2337
G1 X117.851 Y95.667 E65.40363
G1 X122.517 Y93.628 E65.57325
G1 X127.376 Y92.076 E65.74316
