;Generated by Cura LulzBot Edition GCodeWriter Version: 3.6.18
;FLAVOR:Marlin
;TIME:6345
;Filament used: 2.45237m
;Layer height: 0.25
;Generated with Cura_SteamEngine 3.6.18
M82 ;absolute extrusion mode
;This G-Code has been generated specifically for the LulzBot TAZ 6 with standard extruder
M73 P0 ; clear GLCD progress bar
M75 ; start GLCD timer
G26 ; clear potential 'probe fail' condition
M107 ; disable fans
M420 S0 ; disable previous leveling matrix
G90 ; absolute positioning
M82 ; set extruder to absolute mode
G92 E0 ; set extruder position to 0
M140 S60.0 ; start bed heating up
M109 R140 ; soften filament before homing Z
G28 ; Home all axis
G1 E-30 F100 ; retract filament
M109 R140 ; wait for extruder to reach wiping temp
G1 X-15 Y100 F3000 ; move above wiper pad
G1 Z1 ; push nozzle into wiper
G1 X-17 Y95 F1000 ; slow wipe
G1 X-17 Y90 F1000 ; slow wipe
G1 X-17 Y85 F1000 ; slow wipe
G1 X-15 Y90 F1000 ; slow wipe
G1 X-17 Y80 F1000 ; slow wipe
G1 X-15 Y95 F1000 ; slow wipe
G1 X-17 Y75 F2000 ; fast wipe
G1 X-15 Y65 F2000 ; fast wipe
G1 X-17 Y70 F2000 ; fast wipe
G1 X-15 Y60 F2000 ; fast wipe
G1 X-17 Y55 F2000 ; fast wipe
G1 X-15 Y50 F2000 ; fast wipe
G1 X-17 Y40 F2000 ; fast wipe
G1 X-15 Y45 F2000 ; fast wipe
G1 X-17 Y35 F2000 ; fast wipe
G1 X-15 Y40 F2000 ; fast wipe
G1 X-17 Y70 F2000 ; fast wipe
G1 X-15 Y30 Z2 F2000 ; fast wipe
G1 X-17 Y35 F2000 ; fast wipe
G1 X-15 Y25 F2000 ; fast wipe
G1 X-17 Y30 F2000 ; fast wipe
G1 X-15 Y25 Z1.5 F1000 ; slow wipe
G1 X-17 Y23 F1000 ; slow wipe
G1 Z10 ; raise extruder
M109 R140 ; wait for extruder to reach probe temp
G1 X-9 Y-9 ; move above first probe point
M204 S100 ; set probing acceleration
G29 ; start auto-leveling sequence
M420 S1 ; activate bed level matrix
M425 Z			     ; use measured Z backlash for compensation
M425 Z F0		     ; turn off measured Z backlash compensation. (if activated in the quality settings, this command will automatically be ignored)
M204 S500 ; restore standard acceleration
G1 X0 Y0 Z15 F5000 ; move up off last probe point
G4 S1 ; pause
M400 ; wait for moves to finish
M117 Heating... ; progress indicator message on LCD
M109 R210 ; wait for extruder to reach printing temp
M190 R60.0 ; wait for bed to reach printing temp
G1 Z2 E0 F75 ; prime tiny bit of filament into the nozzle
M117 TAZ 6 Printing... ; progress indicator message on LCD

M221 S100 T0
G92 E0
G1 F600 E-1.75
;LAYER_COUNT:200
;LAYER:0
M107
G0 F2625 X107.271 Y93.92 Z0.425
;TYPE:SKIRT
G1 F600 E0
G1 F900 X107.555 Y93.597 E0.01433
G1 X108.822 Y92.332 E0.07397
G1 X109.159 Y92.038 E0.08886
G1 X112.251 Y89.703 E0.21793
G1 X112.6 Y89.474 E0.23183
G1 X113.882 Y88.743 E0.28099
G1 X114.285 Y88.549 E0.29589
G1 X118.054 Y87.041 E0.43111
G1 X118.444 Y86.912 E0.4448
G1 X119.711 Y86.583 E0.4884
G1 X120.105 Y86.507 E0.50177
G1 X123.663 Y86.04 E0.6213
G1 X124.086 Y86.012 E0.63542
G1 X125.877 Y86.012 E0.69508
G1 X126.301 Y86.04 E0.70923
G1 X129.846 Y86.506 E0.82834
G1 X130.234 Y86.581 E0.8415
G1 X131.296 Y86.855 E0.87803
G1 X131.589 Y86.946 E0.88825
G1 X133.328 Y87.575 E0.94985
G1 X133.501 Y87.643 E0.95604
G1 X135.961 Y88.695 E1.04517
G1 X136.326 Y88.879 E1.05878
G1 X137.64 Y89.649 E1.10951
G1 X137.975 Y89.874 E1.12296
G1 X140.818 Y92.054 E1.24229
G1 X141.113 Y92.31 E1.2553
G1 X141.897 Y93.077 E1.29184
G1 X142.166 Y93.375 E1.30521
G1 X144.815 Y96.7 E1.44682
G1 X145.085 Y97.095 E1.46276
G1 X145.983 Y98.644 E1.5224
G1 X146.173 Y99.029 E1.5367
G1 X147.551 Y102.351 E1.6565
G1 X147.689 Y102.757 E1.67078
G1 X148.145 Y104.464 E1.72964
G1 X148.227 Y104.877 E1.74366
G1 X148.699 Y108.444 E1.86352
G1 X148.727 Y108.818 E1.87601
G1 X148.776 Y111.891 E1.97839
G1 X149.087 Y117.383 E2.16162
G1 X149.704 Y122.814 E2.34369
G1 X150.632 Y128.227 E2.52663
G1 X151.195 Y130.842 E2.61574
G1 X151.851 Y133.521 E2.70761
G1 X153.382 Y138.789 E2.89035
G1 X155.209 Y143.965 E3.07319
G1 X157.313 Y148.996 E3.25484
G1 X159.709 Y153.924 E3.43737
G1 X162.375 Y158.701 E3.61959
G1 X165.312 Y163.327 E3.80212
G1 X168.492 Y167.759 E3.98382
G1 X171.946 Y172.04 E4.16705
G1 X175.617 Y176.099 E4.34935
G1 X177.631 Y178.141 E4.44489
G1 X177.959 Y178.531 E4.46186
G1 X178.223 Y178.967 E4.47884
G1 X178.414 Y179.439 E4.4958
G1 X178.53 Y179.935 E4.51277
G1 X178.567 Y180.443 E4.52974
G1 X178.524 Y180.951 E4.54672
G1 X178.402 Y181.446 E4.5637
G1 X178.128 Y182.055 E4.58595
G1 X174.93 Y187.563 E4.7981
G1 X172.442 Y192.14 E4.97163
G1 X172.165 Y192.567 E4.98859
G1 X171.824 Y192.946 E5.00557
G1 X171.428 Y193.267 E5.02255
G1 X170.986 Y193.521 E5.03953
G1 X170.308 Y193.757 E5.06345
G1 X169.943 Y193.84 E5.07591
G1 X169.438 Y193.914 E5.09292
G1 X168.929 Y193.908 E5.10987
G1 X168.427 Y193.822 E5.12684
G1 X167.944 Y193.659 E5.14382
G1 X167.569 Y193.469 E5.15782
G1 X137.571 Y175.747 E6.31841
G1 X137.154 Y175.454 E6.33539
G1 X136.788 Y175.1 E6.35235
G1 X136.482 Y174.693 E6.36931
G1 X136.203 Y174.147 E6.38974
G1 X135.862 Y173.287 E6.42055
G1 X135.787 Y173.076 E6.42801
G1 X133.399 Y165.586 E6.68988
G1 X131.46 Y160.435 E6.87322
G1 X129.246 Y155.434 E7.0554
G1 X126.759 Y150.578 E7.23713
G1 X123.988 Y145.846 E7.41979
G1 X120.959 Y141.287 E7.60212
G1 X117.673 Y136.902 E7.78465
G1 X114.156 Y132.723 E7.96659
G1 X110.396 Y128.736 E8.14914
G1 X109.455 Y127.827 E8.19272
G1 X109.412 Y127.784 E8.19474
G1 X107.548 Y125.913 E8.28272
G1 X107.272 Y125.598 E8.29667
G1 X105.09 Y122.755 E8.41605
G1 X104.854 Y122.402 E8.43019
G1 X103.972 Y120.876 E8.4889
G1 X103.774 Y120.47 E8.50395
G1 X102.313 Y116.863 E8.63358
G1 X102.181 Y116.466 E8.64752
G1 X101.804 Y115.025 E8.69713
G1 X101.726 Y114.625 E8.71071
G1 X101.268 Y111.139 E8.82783
G1 X101.24 Y110.734 E8.84135
G1 X101.23 Y108.898 E8.90251
G1 X101.264 Y108.41 E8.9188
G1 X101.862 Y104.319 E9.05652
G1 X101.948 Y103.913 E9.07035
G1 X102.289 Y102.694 E9.11251
G1 X102.417 Y102.324 E9.12555
G1 X103.788 Y99.02 E9.24471
G1 X103.977 Y98.639 E9.25888
G1 X104.86 Y97.112 E9.31763
G1 X105.093 Y96.762 E9.33164
G1 X107.271 Y93.92 E9.45091
G1 F600 E7.70091
G0 F2625 X110.096 Y95.991
;TYPE:SUPPORT
G1 F600 E9.45091
G1 F900 X111.211 Y94.876 E9.50344
G1 X113.06 Y94.765 E9.56514
G1 X113.577 Y94.37 E9.58681
G1 X114.163 Y92.611 E9.64857
G1 X115.532 Y91.82 E9.70124
G1 X117.342 Y92.188 E9.76276
G1 X117.944 Y91.94 E9.78445
G1 X118.968 Y90.395 E9.84619
G1 X120.499 Y89.985 E9.89899
G1 X122.157 Y90.817 E9.96078
G1 X122.805 Y90.732 E9.98255
G1 X124.187 Y89.501 E10.0442
G1 X125.772 Y89.501 E10.09699
G1 X127.154 Y90.732 E10.15864
G1 X127.801 Y90.817 E10.18038
G1 X129.453 Y89.985 E10.24199
G1 X130.987 Y90.396 E10.29489
G1 X132.011 Y91.942 E10.35666
G1 X132.613 Y92.19 E10.37835
G1 X134.426 Y91.821 E10.43998
G1 X135.794 Y92.611 E10.4926
G1 X136.379 Y94.37 E10.55435
G1 X136.896 Y94.765 E10.57602
G1 X138.746 Y94.876 E10.63776
G1 X139.861 Y95.991 E10.69028
G1 X139.972 Y97.84 E10.75199
G1 X140.367 Y98.357 E10.77366
G1 X142.125 Y98.944 E10.8354
G1 X142.916 Y100.314 E10.88809
G1 X142.547 Y102.125 E10.94966
G1 X142.795 Y102.727 E10.97134
G1 X144.342 Y103.751 E11.03314
G1 X144.752 Y105.28 E11.08587
G1 X143.921 Y106.935 E11.14756
G1 X144.006 Y107.583 E11.16933
G1 X145.237 Y108.965 E11.23098
G1 X145.237 Y110.551 E11.28381
G1 X144.006 Y111.933 E11.34546
G1 X143.921 Y112.581 E11.36723
G1 X144.752 Y114.236 E11.42892
G1 X144.342 Y115.766 E11.48168
G1 X142.795 Y116.791 E11.5435
G1 X142.547 Y117.393 E11.56518
G1 X142.916 Y119.207 E11.62685
G1 X142.128 Y120.572 E11.67935
G1 X140.367 Y121.158 E11.74117
G1 X139.972 Y121.674 E11.76282
G1 X139.861 Y123.525 E11.82458
G1 X138.745 Y124.641 E11.87716
G1 X138.59 Y124.65 E11.88233
G1 X136.269 Y122.828 E11.98062
G1 X135.573 Y122.9 E12.00393
G1 X133.904 Y124.88 E12.09019
G1 X133.781 Y125.495 E12.11108
G1 X145.48 Y162.832 E13.41441
G1 X152.628 Y167.059 E13.69103
G1 X147.776 Y175.262 E14.0085
G1 X148.193 Y176.865 E14.06367
G1 X169.854 Y189.673 E14.9019
G1 X169.437 Y190.378 E14.92919
G1 X169.273 Y190.421 E14.93483
G1 X139.379 Y172.761 E16.09139
G1 X139.343 Y172.716 E16.09331
G1 X125.129 Y127.36 E17.67659
G1 X124.615 Y126.957 E17.69835
G1 X122.123 Y126.801 E17.78152
G1 X121.565 Y127.154 E17.80351
G1 X120.637 Y129.461 E17.88634
G1 X120.502 Y129.528 E17.89136
G1 X118.964 Y129.116 E17.9444
G1 X117.945 Y127.578 E18.00586
G1 X117.343 Y127.33 E18.02755
G1 X115.534 Y127.698 E18.08904
G1 X114.167 Y126.908 E18.14163
G1 X113.581 Y125.147 E18.20345
G1 X113.064 Y124.752 E18.22513
G1 X111.214 Y124.641 E18.28686
G1 X110.091 Y123.521 E18.33969
G1 X109.98 Y121.678 E18.40119
G1 X109.585 Y121.161 E18.42287
G1 X107.83 Y120.577 E18.48448
G1 X107.04 Y119.21 E18.53707
G1 X107.41 Y117.391 E18.5989
G1 X107.162 Y116.789 E18.62059
G1 X105.615 Y115.765 E18.68239
G1 X105.205 Y114.236 E18.73512
G1 X106.036 Y112.581 E18.79681
G1 X105.951 Y111.933 E18.81858
G1 X104.72 Y110.551 E18.88023
G1 X104.72 Y108.965 E18.93306
G1 X105.951 Y107.583 E18.99471
G1 X106.036 Y106.935 E19.01648
G1 X105.205 Y105.28 E19.07816
G1 X105.615 Y103.751 E19.13089
G1 X107.162 Y102.727 E19.19269
G1 X107.41 Y102.125 E19.21438
G1 X107.041 Y100.314 E19.27594
G1 X107.832 Y98.944 E19.32864
G1 X109.59 Y98.357 E19.39038
G1 X109.985 Y97.84 E19.41205
G1 X110.096 Y95.991 E19.47375
G1 F600 E17.72375
G0 F2625 X121.79 Y106.514
G1 F600 E19.47375
G1 F900 X121.305 Y107.069 E19.4983
G1 X120.937 Y107.674 E19.52189
G1 X120.639 Y108.416 E19.54853
G1 X120.466 Y109.183 E19.57472
G1 X120.431 Y109.972 E19.60102
G1 X120.517 Y110.67 E19.62445
G1 X120.761 Y111.468 E19.65225
G1 X121.112 Y112.146 E19.67768
G1 X121.528 Y112.726 E19.70145
G1 X121.831 Y113.041 E19.71601
G1 X122.098 Y113.281 E19.72797
G1 X122.78 Y113.729 E19.75515
G1 X123.454 Y114.048 E19.77999
G1 X124.257 Y114.251 E19.80758
G1 X124.962 Y114.311 E19.83115
G1 X125.754 Y114.246 E19.85762
G1 X126.484 Y114.051 E19.88279
G1 X127.196 Y113.726 E19.90886
G1 X127.843 Y113.289 E19.93487
G1 X128.345 Y112.834 E19.95744
G1 X128.831 Y112.166 E19.98495
G1 X129.199 Y111.465 E20.01133
G1 X129.428 Y110.696 E20.03805
G1 X129.527 Y109.934 E20.06365
G1 X129.492 Y109.155 E20.08962
G1 X129.326 Y108.436 E20.11421
G1 X129.069 Y107.742 E20.13886
G1 X128.597 Y106.997 E20.16823
G1 X128.127 Y106.474 E20.19166
G1 X127.545 Y106.001 E20.21664
G1 X126.83 Y105.603 E20.2439
G1 X126.155 Y105.366 E20.26773
G1 X125.375 Y105.222 E20.29415
G1 X124.988 Y105.21 E20.30705
G1 X124.534 Y105.23 E20.32218
G1 X123.838 Y105.356 E20.34574
G1 X123.056 Y105.63 E20.37334
G1 X122.453 Y105.964 E20.39631
G1 X121.79 Y106.514 E20.425
G1 F600 E18.675
G0 F2625 X125 Y105.01
G1 F600 E20.425
G1 F900 X125 Y89.701 E20.93495
G1 F600 E19.18495
G0 F2625 X126.033 Y90
G1 F600 E20.93495
G1 F900 X123.927 Y90 E21.0051
G1 F600 E19.2551
G0 F2625 X120 Y90.325
G1 F600 E21.0051
G1 F900 X120 Y129.186 E22.29958
G1 F600 E20.54958
G0 F2625 X115 Y127.159
G1 F600 E22.29958
G1 F900 X115 Y92.357 E23.45884
G1 F600 E21.70884
G0 F2625 X112.483 Y95
G1 F600 E23.45884
G1 F900 X137.491 Y95 E24.29187
G1 F600 E22.54187
G0 F2625 X135 Y92.383
G1 F600 E24.29187
G1 F900 X135 Y123.27 E25.32072
G1 F600 E23.57072
G0 F2625 X133.675 Y125
G1 F600 E25.32072
G1 F900 X113.716 Y125 E25.98557
G1 F600 E24.23557
G0 F2625 X110 Y121.374
G1 F600 E25.98557
G1 F900 X110 Y98.149 E26.7592
G1 F600 E25.0092
G0 F2625 X107.454 Y100
G1 F600 E26.7592
G1 F900 X142.504 Y100 E27.92673
G1 F600 E26.17673
G0 F2625 X140 Y98.207
G1 F600 E27.92673
G1 F900 X140 Y121.309 E28.69626
G1 F600 E26.94626
G0 F2625 X142.226 Y120
G1 F600 E28.69626
G1 F900 X107.725 Y120 E29.8455
G1 F600 E28.0955
G0 F2625 X105.617 Y115
G1 F600 E29.8455
G1 F900 X144.339 Y115 E31.13535
G1 F600 E29.38535
G0 F2625 X145 Y110.517
G1 F600 E31.13535
G1 F900 X145 Y109 E31.18588
G1 F600 E29.43588
G0 F2625 X145.037 Y110
G1 F600 E31.18588
G1 F900 X129.72 Y110 E31.69609
G1 F600 E29.94609
G0 F2625 X125 Y114.508
G1 F600 E31.69609
G1 F900 X125 Y127.004 E32.11234
G1 F600 E30.36234
G0 F2625 X126.164 Y130
G1 F600 E32.11234
G1 F900 X134.984 Y130 E32.40614
G0 F2625 X135 Y130.054
G1 F900 X135 Y158.188 E33.34329
G1 F600 E31.59329
G0 F2625 X135.567 Y160
G1 F600 E33.34329
G1 F900 X144.384 Y160 E33.63699
G1 F600 E31.88699
G0 F2625 X145 Y161.97
G1 F600 E33.63699
G1 F900 X145 Y175.849 E34.0993
G1 F600 E32.3493
G0 F2625 X143.561 Y175
G1 F600 E34.0993
G1 F900 X147.698 Y175 E34.23711
G1 F600 E32.48711
G0 F2625 X150 Y178.167
G1 F600 E34.23711
G1 F900 X150 Y178.803 E34.25829
G1 F600 E32.50829
G0 F2625 X152.025 Y180
G1 F600 E34.25829
G1 F900 X153.101 Y180 E34.29414
G1 F600 E32.54414
G0 F2625 X155 Y181.123
G1 F600 E34.29414
G1 F900 X155 Y181.756 E34.31522
G1 F600 E32.56522
G0 F2625 X160 Y184.079
G1 F600 E34.31522
G1 F900 X160 Y184.71 E34.33624
G0 F2625 X160.489 Y185
G1 F900 X161.558 Y185 E34.37185
G1 F600 E32.62185
G0 F2625 X165 Y187.036
G1 F600 E34.37185
G1 F900 X165 Y187.664 E34.39277
G1 F600 E32.64277
G0 F2625 X168.953 Y190
G1 F600 E34.39277
G1 F900 X169.428 Y190 E34.40859
G1 F600 E32.65859
G0 F2625 X149.134 Y176.157
G0 X148.964 Y175.501
G0 X150 Y171.109
G1 F600 E34.40859
G1 F900 X150 Y165.738 E34.5875
G1 F600 E32.8375
G0 F2625 X148.754 Y165
G1 F600 E34.5875
G1 F900 X137.134 Y165 E34.97457
G1 F600 E33.22457
G0 F2625 X138.702 Y170
G1 F600 E34.97457
G1 F900 X150.655 Y170 E35.37273
G1 F600 E33.62273
G0 F2625 X140 Y172.895
G1 F600 E35.37273
G1 F900 X140 Y146.012 E36.26821
G1 F600 E34.51821
G0 F2625 X139.684 Y145
G1 F600 E36.26821
G1 F900 X130.865 Y145 E36.56197
G1 F600 E34.81197
G0 F2625 X130 Y142.235
G1 F600 E36.56197
G1 F900 X130 Y90.339 E38.29065
G1 F600 E36.54065
G0 F2625 X144.471 Y105
G1 F600 E38.29065
G1 F900 X105.488 Y105 E39.58918
G1 F600 E37.83918
G0 F2625 X105 Y108.951
G1 F600 E39.58918
G1 F900 X105 Y110.564 E39.64291
G0 F2625 X104.92 Y110
G1 F900 X120.234 Y110 E40.15303
G1 F600 E38.40303
G0 F2625 X127.731 Y135
G1 F600 E40.15303
G1 F900 X136.55 Y135 E40.44679
G1 F600 E38.69679
G0 F2625 X138.117 Y140
G1 F600 E40.44679
G1 F900 X129.298 Y140 E40.74056
G1 F600 E38.99056
G0 F2625 X132.433 Y150
G1 F600 E40.74056
G1 F900 X141.25 Y150 E41.03425
G1 F600 E39.28425
G0 F2625 X142.817 Y155
G1 F600 E41.03425
G1 F900 X134 Y155 E41.32795
G1 F600 E39.57795
;MESH:
G0 F2625 X153.198 Y168.225
G0 X154.427 Y168.95
G0 X170.527 Y186.877
G0 X170.612 Y186.928
;TYPE:WALL-INNER
G1 F600 E41.32795
G1 F900 X170.485 Y187.143 E41.33627
G1 X170.27 Y187.016 E41.34164
G1 X150.605 Y175.388 E42.10264
G1 X154.423 Y168.931 E42.35251
G1 X174.303 Y180.685 E43.1218
G1 X170.612 Y186.928 E43.36339
G0 F2625 X170.527 Y186.877
G0 X174.207 Y180.709
G0 X174.773 Y180.383
;TYPE:WALL-OUTER
G1 F900 X174.988 Y180.51 E43.37171
G1 X174.861 Y180.725 E43.37708
G1 X170.661 Y187.827 E43.65192
G1 X149.921 Y175.564 E44.4545
G1 X154.12 Y168.462 E44.72933
G1 X154.247 Y168.247 E44.73765
G1 X154.462 Y168.374 E44.74302
G1 X174.773 Y180.383 E45.52899
G0 F2625 X174.988 Y180.51
G0 X174.207 Y180.709
G0 X173.632 Y180.858
;TYPE:SKIN
G1 F900 X170.312 Y186.472 E45.74625
G1 X151.276 Y175.215 E46.48292
G1 X154.596 Y169.602 E46.70015
G1 X173.632 Y180.858 E47.43681
G0 F2625 X173.263 Y181.041
G1 F900 X172.919 Y180.697 E47.45301
G0 F2625 X173 Y181.485
G1 F900 X171.189 Y179.674 E47.53832
G1 X171.101 Y179.586
G0 F2625 X169.458 Y178.651
G1 F900 X172.736 Y181.929 E47.69274
G0 F2625 X172.474 Y182.374
G1 F900 X167.728 Y177.628 E47.91632
G1 X167.64 Y177.54
G0 F2625 X165.998 Y176.604
G1 F900 X172.211 Y182.818 E48.20902
G0 F2625 X171.948 Y183.262
G1 F900 X164.267 Y175.581 E48.57086
G1 X164.179 Y175.493
G0 F2625 X162.537 Y174.558
G1 F900 X171.686 Y183.707 E49.00185
G0 F2625 X171.423 Y184.151
G1 F900 X160.807 Y173.535 E49.50195
G1 X160.719 Y173.447
G0 F2625 X159.077 Y172.512
G1 F900 X171.16 Y184.595 E50.07115
G0 F2625 X170.897 Y185.039
G1 F900 X157.347 Y171.489 E50.70947
G1 X157.259 Y171.401
G0 F2625 X155.617 Y170.466
G1 F900 X170.634 Y185.484 E51.41691
G0 F2625 X170.372 Y185.928
G1 F900 X154.555 Y170.111 E52.16202
G0 F2625 X154.292 Y170.555
G1 F900 X169.416 Y185.679 E52.87448
G1 X169.504 Y185.767
G0 F2625 X167.685 Y184.655
G1 F900 X154.029 Y171 E53.51776
G0 F2625 X153.766 Y171.444
G1 F900 X165.955 Y183.632 E54.09194
G1 X166.043 Y183.72
G0 F2625 X164.224 Y182.609
G1 F900 X153.503 Y171.888 E54.59698
G0 F2625 X153.24 Y172.332
G1 F900 X162.494 Y181.586 E55.03292
G1 X162.582 Y181.674
G0 F2625 X160.764 Y180.563
G1 F900 X152.978 Y172.777 E55.3997
