;Generated by Cura LulzBot Edition GCodeWriter Version: 3.6.18
;FLAVOR:Marlin
;TIME:8999
;Filament used: 8.16776m
;Layer height: 0.38
;Generated with Cura_SteamEngine 3.6.18
M82 ;absolute extrusion mode
;This G-Code has been generated specifically for the LulzBot TAZ 6 with standard extruder
M73 P0 ; clear GLCD progress bar
M75 ; start GLCD timer
G26 ; clear potential 'probe fail' condition
M107 ; disable fans
M420 S0 ; disable previous leveling matrix
G90 ; absolute positioning
M82 ; set extruder to absolute mode
G92 E0 ; set extruder position to 0
M140 S60.0 ; start bed heating up
M109 R140 ; soften filament before homing Z
G28 ; Home all axis
G1 E-30 F100 ; retract filament
M109 R140 ; wait for extruder to reach wiping temp
G1 X-15 Y100 F3000 ; move above wiper pad
G1 Z1 ; push nozzle into wiper
G1 X-17 Y95 F1000 ; slow wipe
G1 X-17 Y90 F1000 ; slow wipe
G1 X-17 Y85 F1000 ; slow wipe
G1 X-15 Y90 F1000 ; slow wipe
G1 X-17 Y80 F1000 ; slow wipe
G1 X-15 Y95 F1000 ; slow wipe
G1 X-17 Y75 F2000 ; fast wipe
G1 X-15 Y65 F2000 ; fast wipe
G1 X-17 Y70 F2000 ; fast wipe
G1 X-15 Y60 F2000 ; fast wipe
G1 X-17 Y55 F2000 ; fast wipe
G1 X-15 Y50 F2000 ; fast wipe
G1 X-17 Y40 F2000 ; fast wipe
G1 X-15 Y45 F2000 ; fast wipe
G1 X-17 Y35 F2000 ; fast wipe
G1 X-15 Y40 F2000 ; fast wipe
G1 X-17 Y70 F2000 ; fast wipe
G1 X-15 Y30 Z2 F2000 ; fast wipe
G1 X-17 Y35 F2000 ; fast wipe
G1 X-15 Y25 F2000 ; fast wipe
G1 X-17 Y30 F2000 ; fast wipe
G1 X-15 Y25 Z1.5 F1000 ; slow wipe
G1 X-17 Y23 F1000 ; slow wipe
G1 Z10 ; raise extruder
M109 R140 ; wait for extruder to reach probe temp
G1 X-9 Y-9 ; move above first probe point
M204 S100 ; set probing acceleration
G29 ; start auto-leveling sequence
M420 S1 ; activate bed level matrix
M425 Z			     ; use measured Z backlash for compensation
M425 Z F0		     ; turn off measured Z backlash compensation. (if activated in the quality settings, this command will automatically be ignored)
M204 S500 ; restore standard acceleration
G1 X0 Y0 Z15 F5000 ; move up off last probe point
G4 S1 ; pause
M400 ; wait for moves to finish
M117 Heating... ; progress indicator message on LCD
M109 R210 ; wait for extruder to reach printing temp
M190 R60.0 ; wait for bed to reach printing temp
G1 Z2 E0 F75 ; prime tiny bit of filament into the nozzle
M117 TAZ 6 Printing... ; progress indicator message on LCD

M221 S100 T0
G92 E0
G1 F600 E-1.75
;LAYER_COUNT:127
;LAYER:0
M107
G0 F2625 X105.21 Y100.213 Z0.425
;TYPE:SKIRT
G1 F600 E0
G1 F900 X105.597 Y99.882 E0.01696
G1 X106.031 Y99.615 E0.03394
G1 X106.502 Y99.419 E0.05093
G1 X106.997 Y99.3 E0.06789
G1 X107.51 Y99.259 E0.08503
G1 X172.491 Y99.26 E2.24957
G1 X172.999 Y99.3 E2.26655
G1 X173.494 Y99.419 E2.2835
G1 X173.965 Y99.614 E2.30048
G1 X174.4 Y99.88 E2.31747
G1 X174.787 Y100.21 E2.33441
G1 X175.119 Y100.597 E2.3514
G1 X175.385 Y101.032 E2.36838
G1 X175.581 Y101.502 E2.38534
G1 X175.7 Y101.997 E2.4023
G1 X175.741 Y102.51 E2.41944
G1 X175.741 Y177.488 E4.91699
G1 X175.701 Y177.996 E4.93396
G1 X175.582 Y178.491 E4.95092
G1 X175.387 Y178.962 E4.9679
G1 X175.121 Y179.397 E4.98489
G1 X174.791 Y179.784 E5.00183
G1 X174.404 Y180.116 E5.01881
G1 X173.969 Y180.382 E5.0358
G1 X173.499 Y180.578 E5.05276
G1 X173.004 Y180.697 E5.06972
G1 X172.496 Y180.738 E5.08669
G1 X171.988 Y180.699 E5.10367
G1 X171.469 Y180.573 E5.12146
G1 X169.497 Y179.92 E5.19065
G1 X164.186 Y178.387 E5.37478
G1 X158.836 Y177.165 E5.55758
G1 X156.177 Y176.677 E5.64764
G1 X150.766 Y175.916 E5.82965
G1 X145.299 Y175.461 E6.01239
G1 X139.837 Y175.316 E6.1944
G1 X134.355 Y175.48 E6.37708
G1 X128.911 Y175.953 E6.55911
G1 X123.482 Y176.735 E6.74182
G1 X118.109 Y177.824 E6.92443
G1 X115.506 Y178.466 E7.01374
G1 X112.845 Y179.204 E7.10572
G1 X108.503 Y180.58 E7.25745
G1 X108.007 Y180.696 E7.27441
G1 X107.498 Y180.732 E7.29141
G1 X106.991 Y180.688 E7.30836
G1 X106.496 Y180.566 E7.32534
G1 X106.027 Y180.368 E7.3423
G1 X105.594 Y180.099 E7.35928
G1 X105.209 Y179.766 E7.37624
G1 X104.88 Y179.376 E7.39323
G1 X104.616 Y178.94 E7.41021
G1 X104.424 Y178.468 E7.42719
G1 X104.308 Y177.972 E7.44415
G1 X104.271 Y177.482 E7.46052
G1 X104.26 Y102.509 E9.9579
G1 X104.3 Y102.002 E9.97484
G1 X104.419 Y101.506 E9.99183
G1 X104.613 Y101.035 E10.0088
G1 X104.879 Y100.601 E10.02576
G1 X105.21 Y100.213 E10.04274
G1 F600 E8.29274
;MESH:
G0 F2625 X108.264 Y101.835
G0 X108.264 Y103.264
G0 X130.689 Y144.921
G0 X130.733 Y145.01
;TYPE:WALL-INNER
G1 F600 E10.04274
G1 F900 X108.25 Y175.236 E11.29758
G1 X108.25 Y103.25 E13.69546
G1 X171.75 Y103.25 E15.81066
G1 X171.75 Y175.236 E18.20854
G1 X149.267 Y145.01 E19.46337
G1 X130.733 Y145.01 E20.08075
G0 F2625 X130.984 Y145.51
;TYPE:WALL-OUTER
G1 F900 X107.75 Y176.745 E21.37748
G1 X107.75 Y102.75 E23.84228
G1 X172.25 Y102.75 E25.9908
G1 X172.25 Y176.745 E28.4556
G1 X149.016 Y145.51 E29.75232
G1 X130.984 Y145.51 E30.35298
G0 F2625 X130.835 Y145.71
G0 X130.355 Y145.352
G0 X130.486 Y144.52
;TYPE:SKIN
G1 F900 X108.74 Y173.756 E31.5667
G1 X108.74 Y103.74 E33.89895
G1 X171.26 Y103.74 E35.98152
G1 X171.26 Y173.756 E38.31378
G1 X149.514 Y144.52 E39.5275
G1 X130.486 Y144.52 E40.16133
G0 F2625 X109.165 Y172.805
G0 X109.064 Y172.704
G1 F900 X109.215 Y172.148 E40.19668
G1 X109.366 Y171.591 E40.23209
G0 F2625 X110.071 Y171.589
G1 F900 X108.964 Y170.482 E40.28424
G0 F2625 X108.964 Y169.775
G1 F900 X110.372 Y171.183 E40.35057
G0 F2625 X110.674 Y170.778
G1 F900 X108.964 Y169.068 E40.43112
G0 F2625 X108.964 Y168.361
G1 F900 X110.975 Y170.372 E40.52585
G0 F2625 X111.277 Y169.967
G1 F900 X108.964 Y167.654 E40.63482
G0 F2625 X108.964 Y166.947
G1 F900 X111.578 Y169.561 E40.75796
G0 F2625 X111.88 Y169.156
G1 F900 X108.964 Y166.24 E40.89532
G0 F2625 X108.964 Y165.532
G1 F900 X112.181 Y168.75 E41.04689
G0 F2625 X112.483 Y168.345
G1 F900 X108.964 Y164.825 E41.21269
G0 F2625 X108.964 Y164.118
G1 F900 X112.785 Y167.939 E41.39269
G0 F2625 X113.086 Y167.534
G1 F900 X108.964 Y163.411 E41.58689
G0 F2625 X108.964 Y162.704
G1 F900 X113.388 Y167.128 E41.7953
G0 F2625 X113.69 Y166.723
G1 F900 X108.964 Y161.997 E42.01793
G0 F2625 X108.964 Y161.29
G1 F900 X113.991 Y166.317 E42.25474
G0 F2625 X114.293 Y165.911
G1 F900 X108.964 Y160.583 E42.50576
G0 F2625 X108.964 Y159.876
G1 F900 X114.595 Y165.506 E42.771
G0 F2625 X114.896 Y165.1
G1 F900 X108.964 Y159.169 E43.05042
G0 F2625 X108.964 Y158.461
G1 F900 X115.198 Y164.695 E43.34409
G0 F2625 X115.499 Y164.289
G1 F900 X108.964 Y157.754 E43.65194
G0 F2625 X108.964 Y157.047
G1 F900 X115.801 Y163.884 E43.97402
G0 F2625 X116.103 Y163.479
G1 F900 X108.964 Y156.34 E44.31032
G0 F2625 X108.964 Y155.633
G1 F900 X116.404 Y163.073 E44.6608
G0 F2625 X116.706 Y162.668
G1 F900 X108.964 Y154.926 E45.02551
G0 F2625 X108.964 Y154.219
G1 F900 X117.007 Y162.262 E45.4044
G0 F2625 X117.309 Y161.857
G1 F900 X108.964 Y153.512 E45.79752
G0 F2625 X108.964 Y152.805
G1 F900 X117.61 Y161.451 E46.20481
G0 F2625 X117.912 Y161.046
G1 F900 X108.964 Y152.097 E46.62636
G0 F2625 X108.964 Y151.39
G1 F900 X118.214 Y160.64 E47.06211
G0 F2625 X118.516 Y160.235
G1 F900 X108.964 Y150.683 E47.51208
G0 F2625 X108.964 Y149.976
G1 F900 X118.817 Y159.83 E47.97626
G0 F2625 X119.119 Y159.424
G1 F900 X108.964 Y149.269 E48.45464
G0 F2625 X108.964 Y148.562
G1 F900 X119.421 Y159.019 E48.94725
G0 F2625 X119.722 Y158.613
G1 F900 X108.964 Y147.855 E49.45404
G0 F2625 X108.964 Y147.148
G1 F900 X120.024 Y158.208 E49.97505
G0 F2625 X120.325 Y157.802
G1 F900 X108.964 Y146.441 E50.51025
G0 F2625 X108.964 Y145.734
G1 F900 X120.627 Y157.397 E51.05967
G0 F2625 X120.928 Y156.991
G1 F900 X108.964 Y145.026 E51.62329
G0 F2625 X108.964 Y144.319
G1 F900 X121.23 Y156.585 E52.20112
G0 F2625 X121.531 Y156.18
G1 F900 X108.964 Y143.612 E52.79315
G0 F2625 X108.964 Y142.905
G1 F900 X121.833 Y155.774 E53.39938
G0 F2625 X122.135 Y155.369
G1 F900 X108.964 Y142.198 E54.01984
G0 F2625 X108.964 Y141.491
G1 F900 X122.436 Y154.963 E54.65448
G0 F2625 X122.738 Y154.558
G1 F900 X108.964 Y140.784 E55.30334
G0 F2625 X108.964 Y140.077
G1 F900 X123.04 Y154.152 E55.96641
G0 F2625 X123.342 Y153.747
G1 F900 X108.964 Y139.37 E56.6437
G0 F2625 X108.964 Y138.662
G1 F900 X123.643 Y153.341 E57.3352
G0 F2625 X123.945 Y152.936
G1 F900 X108.964 Y137.955 E58.04093
G0 F2625 X108.964 Y137.248
G1 F900 X124.246 Y152.53 E58.76083
G0 F2625 X124.548 Y152.125
G1 F900 X108.964 Y136.541 E59.49496
G0 F2625 X108.964 Y135.834
G1 F900 X124.85 Y151.72 E60.24332
G0 F2625 X125.151 Y151.314
G1 F900 X108.964 Y135.127 E61.00585
G0 F2625 X108.964 Y134.42
G1 F900 X125.453 Y150.909 E61.78262
G0 F2625 X125.754 Y150.503
G1 F900 X108.964 Y133.713 E62.57356
G0 F2625 X108.964 Y133.006
G1 F900 X126.056 Y150.098 E63.37873
G0 F2625 X126.357 Y149.692
G1 F900 X108.964 Y132.298 E64.1981
G0 F2625 X108.964 Y131.591
G1 F900 X126.659 Y149.287 E65.0317
G0 F2625 X126.961 Y148.881
G1 F900 X108.964 Y130.884 E65.8795
G0 F2625 X108.964 Y130.177
G1 F900 X127.262 Y148.476 E66.74151
G0 F2625 X127.564 Y148.07
G1 F900 X108.964 Y129.47 E67.61772
G0 F2625 X108.964 Y128.763
G1 F900 X127.866 Y147.665 E68.50815
G0 F2625 X128.168 Y147.259
G1 F900 X108.964 Y128.056 E69.41279
G0 F2625 X108.964 Y127.349
G1 F900 X128.469 Y146.854 E70.33163
G0 F2625 X128.771 Y146.448
G1 F900 X108.964 Y126.642 E71.26467
G0 F2625 X108.964 Y125.935
G1 F900 X129.072 Y146.043 E72.21192
G0 F2625 X129.374 Y145.637
G1 F900 X108.964 Y125.227 E73.17339
G0 F2625 X108.964 Y124.52
G1 F900 X129.675 Y145.231 E74.14905
G0 F2625 X129.977 Y144.826
G1 F900 X108.964 Y123.813 E75.13893
G0 F2625 X108.964 Y123.106
G1 F900 X130.278 Y144.42 E76.14298
G0 F2625 X130.859 Y144.294
G1 F900 X108.964 Y122.399 E77.17441
G0 F2625 X108.964 Y121.692
G1 F900 X131.566 Y144.294 E78.23915
G0 F2625 X132.273 Y144.294
G1 F900 X108.964 Y120.985 E79.33719
G0 F2625 X108.964 Y120.278
G1 F900 X132.98 Y144.294 E80.46853
G0 F2625 X133.687 Y144.294
G1 F900 X108.964 Y119.571 E81.63318
G0 F2625 X108.964 Y118.863
G1 F900 X134.394 Y144.294 E82.83116
G0 F2625 X135.101 Y144.294
G1 F900 X108.964 Y118.156 E84.06245
G0 F2625 X108.964 Y117.449
G1 F900 X135.809 Y144.294 E85.32706
G0 F2625 X136.516 Y144.294
G1 F900 X108.964 Y116.742 E86.62498
G0 F2625 X108.964 Y116.035
G1 F900 X137.223 Y144.294 E87.9562
G0 F2625 X137.93 Y144.294
G1 F900 X108.964 Y115.328 E89.32073
G0 F2625 X108.964 Y114.621
G1 F900 X138.637 Y144.294 E90.71857
G0 F2625 X139.344 Y144.294
G1 F900 X108.964 Y113.914 E92.14971
G0 F2625 X108.964 Y113.207
G1 F900 X140.051 Y144.294 E93.61415
G0 F2625 X140.758 Y144.294
G1 F900 X108.964 Y112.499 E95.11193
G0 F2625 X108.964 Y111.792
G1 F900 X141.465 Y144.294 E96.643
G0 F2625 X142.173 Y144.294
G1 F900 X108.964 Y111.085 E98.20741
G0 F2625 X108.964 Y110.378
G1 F900 X142.88 Y144.294 E99.80513
G0 F2625 X143.587 Y144.294
G1 F900 X108.964 Y109.671 E101.43615
G0 F2625 X108.964 Y108.964
G1 F900 X144.294 Y144.294 E103.10047
G0 F2625 X145.001 Y144.294
G1 F900 X108.964 Y108.257 E104.7981
G0 F2625 X108.964 Y107.55
G1 F900 X145.708 Y144.294 E106.52903
G0 F2625 X146.415 Y144.294
G1 F900 X108.964 Y106.843 E108.29328
G0 F2625 X108.964 Y106.136
G1 F900 X147.122 Y144.294 E110.09082
G0 F2625 X147.829 Y144.294
G1 F900 X108.964 Y105.428 E111.9217
G0 F2625 X108.964 Y104.721
G1 F900 X148.536 Y144.294 E113.78588
G0 F2625 X149.244 Y144.294
G1 F900 X108.964 Y104.014 E115.68338
G0 F2625 X109.622 Y103.965
G1 F900 X171.034 Y165.378 E118.5764
G0 F2625 X171.034 Y164.671
G1 F900 X110.329 Y103.965 E121.43611
G0 F2625 X111.036 Y103.965
G1 F900 X171.034 Y163.963 E124.2625
G0 F2625 X171.034 Y163.256
G1 F900 X111.743 Y103.965 E127.05558
G0 F2625 X112.45 Y103.965
G1 F900 X171.034 Y162.549 E129.81535
G0 F2625 X171.034 Y161.842
G1 F900 X113.157 Y103.965 E132.54182
G0 F2625 X113.864 Y103.965
G1 F900 X171.034 Y161.135 E135.23498
G0 F2625 X171.034 Y160.428
G1 F900 X114.571 Y103.965 E137.89484
G0 F2625 X115.278 Y103.965
G1 F900 X171.034 Y159.721 E140.52139
G0 F2625 X171.034 Y159.014
G1 F900 X115.986 Y103.965 E143.11461
G0 F2625 X116.693 Y103.965
G1 F900 X171.034 Y158.307 E145.67453
G0 F2625 X171.034 Y157.599
G1 F900 X117.4 Y103.965 E148.20112
G0 F2625 X118.107 Y103.965
G1 F900 X171.034 Y156.892 E150.6944
G0 F2625 X171.034 Y156.185
G1 F900 X118.814 Y103.965 E153.15438
G0 F2625 X119.521 Y103.965
G1 F900 X171.034 Y155.478 E155.58105
G0 F2625 X171.034 Y154.771
G1 F900 X120.228 Y103.965 E157.97442
G0 F2625 X120.935 Y103.965
G1 F900 X171.034 Y154.064 E160.33448
G0 F2625 X171.034 Y153.357
G1 F900 X121.642 Y103.965 E162.66124
G0 F2625 X122.349 Y103.965
G1 F900 X171.034 Y152.65 E164.95469
G0 F2625 X171.034 Y151.943
G1 F900 X123.057 Y103.965 E167.21481
G0 F2625 X123.764 Y103.965
G1 F900 X171.034 Y151.235 E169.4416
G0 F2625 X171.034 Y150.528
G1 F900 X124.471 Y103.965 E171.63509
G0 F2625 X125.178 Y103.965
G1 F900 X171.034 Y149.821 E173.79527
G0 F2625 X171.034 Y149.114
G1 F900 X125.885 Y103.965 E175.92215
G0 F2625 X126.592 Y103.965
G1 F900 X171.034 Y148.407 E178.01572
G0 F2625 X171.034 Y147.7
G1 F900 X127.299 Y103.965 E180.07599
G0 F2625 X128.006 Y103.965
G1 F900 X171.034 Y146.993 E182.10295
G0 F2625 X171.034 Y146.286
G1 F900 X128.713 Y103.965 E184.09661
G0 F2625 X129.421 Y103.965
G1 F900 X171.034 Y145.579 E186.05693
G0 F2625 X171.034 Y144.872
G1 F900 X130.128 Y103.965 E187.98396
G0 F2625 X130.835 Y103.965
G1 F900 X171.034 Y144.164 E189.87765
G0 F2625 X171.034 Y143.457
G1 F900 X131.542 Y103.965 E191.73804
G0 F2625 X132.249 Y103.965
G1 F900 X171.034 Y142.75 E193.56512
G0 F2625 X171.034 Y142.043
G1 F900 X132.956 Y103.965 E195.3589
G0 F2625 X133.663 Y103.965
G1 F900 X171.034 Y141.336 E197.11937
G0 F2625 X171.034 Y140.629
G1 F900 X134.37 Y103.965 E198.84653
G0 F2625 X135.077 Y103.965
G1 F900 X171.034 Y139.922 E200.5404
G0 F2625 X171.034 Y139.215
G1 F900 X135.785 Y103.965 E202.20093
G0 F2625 X136.492 Y103.965
G1 F900 X171.034 Y138.508 E203.82815
G0 F2625 X171.034 Y137.8
G1 F900 X137.199 Y103.965 E205.42205
G0 F2625 X137.906 Y103.965
G1 F900 X171.034 Y137.093 E206.98265
G0 F2625 X171.034 Y136.386
G1 F900 X138.613 Y103.965 E208.50993
G0 F2625 X139.32 Y103.965
G1 F900 X171.034 Y135.679 E210.00391
G0 F2625 X171.034 Y134.972
G1 F900 X140.027 Y103.965 E211.46459
G0 F2625 X140.734 Y103.965
G1 F900 X171.034 Y134.265 E212.89196
G0 F2625 X171.034 Y133.558
G1 F900 X141.441 Y103.965 E214.28603
G0 F2625 X142.148 Y103.965
G1 F900 X171.034 Y132.851 E215.64679
G0 F2625 X171.034 Y132.144
G1 F900 X142.856 Y103.965 E216.97422
G0 F2625 X143.563 Y103.965
G1 F900 X171.034 Y131.437 E218.26835
G0 F2625 X171.034 Y130.729
G1 F900 X144.27 Y103.965 E219.52914
G0 F2625 X144.977 Y103.965
G1 F900 X171.034 Y130.022 E220.75664
G0 F2625 X171.034 Y129.315
G1 F900 X145.684 Y103.965 E221.95082
G0 F2625 X146.391 Y103.965
G1 F900 X171.034 Y128.608 E223.11171
G0 F2625 X171.034 Y127.901
G1 F900 X147.098 Y103.965 E224.23928
G0 F2625 X147.805 Y103.965
G1 F900 X171.034 Y127.194 E225.33355
G0 F2625 X171.034 Y126.487
G1 F900 X148.512 Y103.965 E226.39452
G0 F2625 X149.22 Y103.965
G1 F900 X171.034 Y125.78 E227.42215
G0 F2625 X171.034 Y125.073
G1 F900 X149.927 Y103.965 E228.41649
G0 F2625 X150.634 Y103.965
G1 F900 X171.034 Y124.365 E229.37749
G0 F2625 X171.034 Y123.658
G1 F900 X151.341 Y103.965 E230.30519
G0 F2625 X152.048 Y103.965
G1 F900 X171.034 Y122.951 E231.19958
G0 F2625 X171.034 Y122.244
G1 F900 X152.755 Y103.965 E232.06066
G0 F2625 X153.462 Y103.965
G1 F900 X171.034 Y121.537 E232.88844
G0 F2625 X171.034 Y120.83
G1 F900 X154.169 Y103.965 E233.68292
G0 F2625 X154.876 Y103.965
G1 F900 X171.034 Y120.123 E234.44409
G0 F2625 X171.034 Y119.416
G1 F900 X155.583 Y103.965 E235.17196
G0 F2625 X156.291 Y103.965
G1 F900 X171.034 Y118.709 E235.86649
G0 F2625 X171.034 Y118.001
G1 F900 X156.998 Y103.965 E236.5277
G0 F2625 X157.705 Y103.965
G1 F900 X171.034 Y117.294 E237.1556
G0 F2625 X171.034 Y116.587
G1 F900 X158.412 Y103.965 E237.7502
G0 F2625 X159.119 Y103.965
G1 F900 X171.034 Y115.88 E238.31149
G0 F2625 X171.034 Y115.173
G1 F900 X159.826 Y103.965 E238.83948
G0 F2625 X160.533 Y103.965
G1 F900 X171.034 Y114.466 E239.33416
G0 F2625 X171.034 Y113.759
G1 F900 X161.24 Y103.965 E239.79553
G0 F2625 X161.947 Y103.965
G1 F900 X171.034 Y113.052 E240.2236
G0 F2625 X171.034 Y112.345
G1 F900 X162.655 Y103.965 E240.61834
