;Generated by Cura LulzBot Edition GCodeWriter Version: 3.6.18
;FLAVOR:Marlin
;TIME:17268
;Filament used: 10.1892m
;Layer height: 0.25
;Generated with Cura_SteamEngine 3.6.18
M82 ;absolute extrusion mode
;This G-Code has been generated specifically for the LulzBot TAZ 6 with standard extruder
M73 P0 ; clear GLCD progress bar
M75 ; start GLCD timer
G26 ; clear potential 'probe fail' condition
M107 ; disable fans
M420 S0 ; disable previous leveling matrix
G90 ; absolute positioning
M82 ; set extruder to absolute mode
G92 E0 ; set extruder position to 0
M140 S60.0 ; start bed heating up
M109 R140 ; soften filament before homing Z
G28 ; Home all axis
G1 E-30 F100 ; retract filament
M109 R140 ; wait for extruder to reach wiping temp
G1 X-15 Y100 F3000 ; move above wiper pad
G1 Z1 ; push nozzle into wiper
G1 X-17 Y95 F1000 ; slow wipe
G1 X-17 Y90 F1000 ; slow wipe
G1 X-17 Y85 F1000 ; slow wipe
G1 X-15 Y90 F1000 ; slow wipe
G1 X-17 Y80 F1000 ; slow wipe
G1 X-15 Y95 F1000 ; slow wipe
G1 X-17 Y75 F2000 ; fast wipe
G1 X-15 Y65 F2000 ; fast wipe
G1 X-17 Y70 F2000 ; fast wipe
G1 X-15 Y60 F2000 ; fast wipe
G1 X-17 Y55 F2000 ; fast wipe
G1 X-15 Y50 F2000 ; fast wipe
G1 X-17 Y40 F2000 ; fast wipe
G1 X-15 Y45 F2000 ; fast wipe
G1 X-17 Y35 F2000 ; fast wipe
G1 X-15 Y40 F2000 ; fast wipe
G1 X-17 Y70 F2000 ; fast wipe
G1 X-15 Y30 Z2 F2000 ; fast wipe
G1 X-17 Y35 F2000 ; fast wipe
G1 X-15 Y25 F2000 ; fast wipe
G1 X-17 Y30 F2000 ; fast wipe
G1 X-15 Y25 Z1.5 F1000 ; slow wipe
G1 X-17 Y23 F1000 ; slow wipe
G1 Z10 ; raise extruder
M109 R140 ; wait for extruder to reach probe temp
G1 X-9 Y-9 ; move above first probe point
M204 S100 ; set probing acceleration
G29 ; start auto-leveling sequence
M420 S1 ; activate bed level matrix
M425 Z			     ; use measured Z backlash for compensation
M425 Z F0		     ; turn off measured Z backlash compensation. (if activated in the quality settings, this command will automatically be ignored)
M204 S500 ; restore standard acceleration
G1 X0 Y0 Z15 F5000 ; move up off last probe point
G4 S1 ; pause
M400 ; wait for moves to finish
M117 Heating... ; progress indicator message on LCD
M109 R210 ; wait for extruder to reach printing temp
M190 R60.0 ; wait for bed to reach printing temp
G1 Z2 E0 F75 ; prime tiny bit of filament into the nozzle
M117 TAZ 6 Printing... ; progress indicator message on LCD

M221 S100 T0
G92 E0
G1 F600 E-1.75
;LAYER_COUNT:232
;LAYER:0
M107
G0 F2625 X69.348 Y100.425 Z0.425
;TYPE:SKIRT
G1 F600 E0
G1 F900 X69.782 Y100.158 E0.01697
G1 X70.252 Y99.961 E0.03395
G1 X70.747 Y99.841 E0.05092
G1 X71.264 Y99.8 E0.06819
G1 X140.606 Y99.799 E2.378
G1 X140.908 Y99.813 E2.38807
G1 X145.626 Y100.253 E2.54591
G1 X151.119 Y100.482 E2.72904
G1 X223.04 Y100.487 E5.12476
G1 X223.548 Y100.527 E5.14173
G1 X224.044 Y100.646 E5.15872
G1 X224.514 Y100.841 E5.17567
G1 X224.949 Y101.107 E5.19265
G1 X225.326 Y101.426 E5.20911
G1 X225.603 Y101.7 E5.22208
G1 X225.936 Y102.086 E5.23906
G1 X226.204 Y102.519 E5.25603
G1 X226.402 Y102.989 E5.27302
G1 X226.524 Y103.483 E5.28997
G1 X226.567 Y104.011 E5.30761
G1 X226.569 Y125.867 E6.03564
G1 X226.483 Y126.61 E6.06056
G1 X225.542 Y130.617 E6.19766
G1 X225.006 Y133.283 E6.28825
G1 X224.552 Y135.949 E6.37833
G1 X223.853 Y141.409 E6.56169
G1 X223.466 Y146.881 E6.74442
G1 X223.38 Y150.956 E6.88019
G1 X223.37 Y173.919 E7.64509
G1 X223.33 Y174.427 E7.66207
G1 X223.211 Y174.923 E7.67906
G1 X223.016 Y175.393 E7.69601
G1 X222.75 Y175.828 E7.71299
G1 X222.419 Y176.215 E7.72996
G1 X222.031 Y176.546 E7.74694
G1 X221.597 Y176.813 E7.76392
G1 X221.127 Y177.008 E7.78087
G1 X220.631 Y177.128 E7.79787
G1 X220.12 Y177.168 E7.81494
G1 X156.619 Y177.166 E9.93018
G1 X156.246 Y177.145 E9.94263
G1 X153.135 Y176.785 E10.04695
G1 X147.667 Y176.398 E10.22954
G1 X142.176 Y176.319 E10.41247
G1 X137.485 Y176.487 E10.56883
G1 X137.368 Y176.489 E10.57273
G1 X74.207 Y176.479 E12.67664
G1 X73.7 Y176.439 E12.69358
G1 X73.204 Y176.32 E12.71057
G1 X72.733 Y176.125 E12.72755
G1 X72.299 Y175.859 E12.74451
G1 X71.911 Y175.528 E12.7615
G1 X71.58 Y175.141 E12.77846
G1 X71.314 Y174.707 E12.79542
G1 X71.118 Y174.236 E12.81241
G1 X70.999 Y173.741 E12.82937
G1 X70.958 Y173.235 E12.84628
G1 X70.909 Y147.489 E13.70389
G1 X70.599 Y142.011 E13.88666
G1 X69.982 Y136.58 E14.06873
G1 X69.054 Y131.167 E14.25167
G1 X68.491 Y128.551 E14.3408
G1 X67.854 Y125.923 E14.43088
G1 X67.774 Y125.42 E14.44784
G1 X67.763 Y125.159 E14.45654
G1 X67.759 Y103.307 E15.18444
G1 X67.799 Y102.799 E15.20142
G1 X67.918 Y102.303 E15.21841
G1 X68.112 Y101.832 E15.23538
G1 X68.378 Y101.398 E15.25233
G1 X68.706 Y101.012 E15.2692
G1 X68.961 Y100.756 E15.28124
G1 X69.348 Y100.425 E15.2982
G1 F600 E13.5482
G0 F2625 X71.366 Y103.289
;TYPE:SUPPORT
G1 F600 E15.2982
G1 F900 X140.511 Y103.289 E17.60145
G1 X140.646 Y103.424 E17.60781
G1 X140.649 Y125.072 E18.32891
G1 X140.532 Y125.189 E18.33442
G1 X139.449 Y125.189 E18.3705
G1 X139.449 Y124.66 E18.38812
G1 X138.278 Y123.489 E18.44328
G1 X73.62 Y123.489 E20.59706
G1 X72.449 Y124.66 E20.65223
G1 X72.449 Y125.189 E20.66985
G1 X71.387 Y125.189 E20.70522
G1 X71.252 Y125.054 E20.71158
G1 X71.249 Y103.406 E21.43269
G1 X71.366 Y103.289 E21.4382
G1 F600 E19.6882
G0 F2625 X101.981 Y111.858
G1 F600 E21.4382
G1 F900 X101.818 Y112.49 E21.45994
G1 X101.754 Y113.161 E21.48239
G1 X101.8 Y113.903 E21.50715
G1 X101.965 Y114.522 E21.52849
G1 X102.105 Y114.901 E21.54195
G1 X102.29 Y115.298 E21.55654
G1 X102.696 Y115.902 E21.58078
G1 X103.159 Y116.363 E21.60255
G1 X103.734 Y116.804 E21.62669
G1 X104.455 Y117.16 E21.65347
G1 X105.044 Y117.336 E21.67395
G1 X105.753 Y117.438 E21.69781
G1 X106.513 Y117.404 E21.72315
G1 X107.178 Y117.256 E21.74584
G1 X107.84 Y116.992 E21.76958
G1 X108.486 Y116.592 E21.79489
G1 X108.96 Y116.148 E21.81653
G1 X109.423 Y115.593 E21.8406
G1 X109.775 Y114.971 E21.86441
G1 X110.017 Y114.293 E21.88839
G1 X110.12 Y113.674 E21.90929
G1 X110.134 Y113.394 E21.91863
G1 X110.136 Y112.903 E21.93499
G1 X110.025 Y112.22 E21.95804
G1 X109.741 Y111.455 E21.98522
G1 X109.438 Y110.903 E22.00619
G1 X108.978 Y110.331 E22.03064
G1 X108.159 Y109.617 E22.06684
G1 X107.171 Y109.218 E22.10233
G1 X106.453 Y109.074 E22.12672
G1 X105.794 Y109.045 E22.14869
G1 X105.037 Y109.139 E22.1741
G1 X104.345 Y109.365 E22.19835
G1 X103.435 Y109.808 E22.23207
G1 X103.008 Y110.255 E22.25266
G1 X102.58 Y110.558 E22.27013
G1 X101.981 Y111.858 E22.31781
G1 F600 E20.56781
G0 F2625 X102.974 Y110
G1 F600 E22.31781
G1 F900 X71.449 Y110 E23.36791
G1 F600 E21.61791
G0 F2625 X71.449 Y105
G1 F600 E23.36791
G1 F900 X140.447 Y105 E25.66626
G1 F600 E23.91626
G0 F2625 X140 Y103.489
G1 F600 E25.66626
G1 F900 X140 Y124.989 E26.38244
G1 F600 E24.63244
G0 F2625 X140.449 Y120
G1 F600 E26.38244
G1 F900 X71.45 Y120 E28.68082
G1 F600 E26.93082
G0 F2625 X75 Y123.289
G1 F600 E28.68082
G1 F900 X75 Y103.489 E29.34036
G1 F600 E27.59036
G0 F2625 X80 Y103.489
G1 F600 E29.34036
G1 F900 X80 Y123.289 E29.99991
G1 F600 E28.24991
G0 F2625 X85 Y123.289
G1 F600 E29.99991
G1 F900 X85 Y103.489 E30.65945
G1 F600 E28.90945
G0 F2625 X90 Y103.489
G1 F600 E30.65945
G1 F900 X90 Y123.289 E31.319
G1 F600 E29.569
G0 F2625 X95 Y123.289
G1 F600 E31.319
G1 F900 X95 Y103.489 E31.97854
G1 F600 E30.22854
G0 F2625 X100 Y103.489
G1 F600 E31.97854
G1 F900 X100 Y123.289 E32.63809
G1 F600 E30.88809
G0 F2625 X105 Y123.289
G1 F600 E32.63809
G1 F900 X105 Y117.532 E32.82986
G1 F600 E31.07986
G0 F2625 X101.931 Y115
G1 F600 E32.82986
G1 F900 X71.45 Y115 E33.84519
G1 F600 E32.09519
G0 F2625 X105 Y108.943
G1 F600 E33.84519
G1 F900 X105 Y103.489 E34.02686
G1 F600 E32.27686
G0 F2625 X110 Y103.489
G1 F600 E34.02686
G1 F900 X110 Y111.577 E34.29628
G1 F600 E32.54628
G0 F2625 X108.902 Y110
G1 F600 E34.29628
G1 F900 X140.447 Y110 E35.34705
G1 F600 E33.59705
G0 F2625 X140.448 Y115
G1 F600 E35.34705
G1 F900 X109.977 Y115 E36.36205
G0 F2625 X110 Y114.935
G1 F900 X110 Y123.289 E36.64033
G1 F600 E34.89033
G0 F2625 X115 Y123.289
G1 F600 E36.64033
G1 F900 X115 Y103.489 E37.29987
G1 F600 E35.54987
G0 F2625 X120 Y103.489
G1 F600 E37.29987
G1 F900 X120 Y123.289 E37.95942
G1 F600 E36.20942
G0 F2625 X125 Y123.289
G1 F600 E37.95942
G1 F900 X125 Y103.489 E38.61896
G1 F600 E36.86896
G0 F2625 X130 Y103.489
G1 F600 E38.61896
G1 F900 X130 Y123.289 E39.27851
G1 F600 E37.52851
G0 F2625 X135 Y123.289
G1 F600 E39.27851
G1 F900 X135 Y103.489 E39.93805
G1 F600 E38.18805
G0 F2625 X153.68 Y104.094
G1 F600 E39.93805
G1 F900 X153.797 Y103.977 E39.94356
G1 X222.942 Y103.977 E42.24681
G1 X223.077 Y104.112 E42.25317
G1 X223.08 Y125.76 E42.97427
G1 X222.963 Y125.877 E42.97978
G1 X221.88 Y125.877 E43.01586
G1 X221.88 Y125.348 E43.03348
G1 X220.709 Y124.177 E43.08864
G1 X156.051 Y124.177 E45.24242
G1 X154.88 Y125.348 E45.29759
G1 X154.88 Y125.877 E45.31521
G1 X153.818 Y125.877 E45.35058
G1 X153.683 Y125.742 E45.35694
G1 X153.68 Y104.094 E46.07805
G1 F600 E44.32805
G0 F2625 X184.273 Y113.104
G1 F600 E46.07805
G1 F900 X184.194 Y113.851 E46.10307
G1 X184.249 Y114.586 E46.12762
G1 X184.295 Y114.873 E46.1373
G1 X184.423 Y115.336 E46.1533
G1 X184.713 Y115.982 E46.17689
G1 X185.097 Y116.545 E46.19959
G1 X185.531 Y117.01 E46.22078
G1 X186.174 Y117.503 E46.24777
G1 X186.839 Y117.839 E46.27259
G1 X187.449 Y118.007 E46.29366
G1 X188.289 Y118.121 E46.3219
G1 X188.825 Y118.097 E46.33977
G1 X189.652 Y117.928 E46.36789
G1 X190.275 Y117.666 E46.3904
G1 X190.917 Y117.272 E46.41549
G1 X191.439 Y116.804 E46.43885
G1 X191.841 Y116.298 E46.46037
G1 X192.04 Y115.956 E46.47355
G1 X192.221 Y115.606 E46.48668
G1 X192.441 Y115.008 E46.5079
G1 X192.549 Y114.367 E46.52956
G1 X192.565 Y114.072 E46.5394
G1 X192.567 Y113.594 E46.55532
G1 X192.461 Y112.964 E46.5766
G1 X192.192 Y112.193 E46.6038
G1 X191.841 Y111.573 E46.62753
G1 X191.419 Y111.019 E46.65073
G1 X191.143 Y110.777 E46.66296
G1 X190.789 Y110.376 E46.68078
G1 X189.611 Y109.91 E46.72297
G1 X188.939 Y109.766 E46.74587
G1 X188.165 Y109.733 E46.77167
G1 X187.434 Y109.842 E46.79629
G1 X186.497 Y110.122 E46.82887
G1 X185.609 Y110.766 E46.86541
G1 X185.125 Y111.275 E46.8888
G1 X184.697 Y111.925 E46.91473
G1 X184.471 Y112.423 E46.93294
G1 X184.273 Y113.104 E46.95657
G1 F600 E45.20657
G0 F2625 X184.123 Y115
G1 F600 E46.95657
G1 F900 X153.881 Y115 E47.96394
G1 F600 E46.21394
G0 F2625 X153.88 Y110
G1 F600 E47.96394
G1 F900 X186.323 Y110 E49.04463
G1 F600 E47.29463
G0 F2625 X185 Y111.116
G1 F600 E49.04463
G1 F900 X185 Y104.177 E49.27577
G1 F600 E47.52577
G0 F2625 X180 Y104.177
G1 F600 E49.27577
G1 F900 X180 Y123.977 E49.93531
G1 F600 E48.18531
G0 F2625 X175 Y123.977
G1 F600 E49.93531
G1 F900 X175 Y104.177 E50.59486
G1 F600 E48.84486
G0 F2625 X170 Y104.177
G1 F600 E50.59486
G1 F900 X170 Y123.977 E51.2544
G1 F600 E49.5044
G0 F2625 X165 Y123.977
G1 F600 E51.2544
G1 F900 X165 Y104.177 E51.91395
G1 F600 E50.16395
G0 F2625 X160 Y104.177
G1 F600 E51.91395
G1 F900 X160 Y123.977 E52.57349
G1 F600 E50.82349
G0 F2625 X155 Y124.944
G1 F600 E52.57349
G1 F900 X155 Y104.177 E53.26525
G1 F600 E51.51525
G0 F2625 X153.88 Y105
G1 F600 E53.26525
G1 F900 X222.878 Y105 E55.5636
G1 F600 E53.8136
G0 F2625 X220 Y104.177
G1 F600 E55.5636
G1 F900 X220 Y123.977 E56.22314
G1 F600 E54.47314
G0 F2625 X221.817 Y125
G1 F600 E56.22314
G1 F900 X222.88 Y125 E56.25855
G1 F600 E54.50855
G0 F2625 X222.88 Y120
G1 F600 E56.25855
G1 F900 X153.882 Y120 E58.5569
G1 F600 E56.8069
G0 F2625 X153.882 Y125
G1 F600 E58.5569
G1 F900 X154.943 Y125 E58.59224
G1 F600 E56.84224
G0 F2625 X185 Y123.977
G1 F600 E58.59224
G1 F900 X185 Y116.735 E58.83348
G1 F600 E57.08348
G0 F2625 X190 Y117.998
G1 F600 E58.83348
G1 F900 X190 Y123.977 E59.03264
G1 F600 E57.28264
G0 F2625 X195 Y123.977
G1 F600 E59.03264
G1 F900 X195 Y104.177 E59.69219
G1 F600 E57.94219
G0 F2625 X190 Y104.177
G1 F600 E59.69219
G1 F900 X190 Y109.848 E59.88109
G0 F2625 X190.385 Y110
G1 F900 X222.878 Y110 E60.96344
G1 F600 E59.21344
G0 F2625 X222.879 Y115
G1 F600 E60.96344
G1 F900 X192.647 Y115 E61.97048
G1 F600 E60.22048
G0 F2625 X200 Y123.977
G1 F600 E61.97048
G1 F900 X200 Y104.177 E62.63003
G1 F600 E60.88003
G0 F2625 X205 Y104.177
G1 F600 E62.63003
G1 F900 X205 Y123.977 E63.28957
G1 F600 E61.53957
G0 F2625 X210 Y123.977
G1 F600 E63.28957
G1 F900 X210 Y104.177 E63.94912
G1 F600 E62.19912
G0 F2625 X215 Y104.177
G1 F600 E63.94912
G1 F900 X215 Y123.977 E64.60866
G1 F600 E62.85866
;MESH:
G0 F2625 X156.502 Y125.266
G0 X138.364 Y126.003
G0 X136.935 Y126.003
G0 X136.879 Y172.419
G0 X136.949 Y172.489
;TYPE:WALL-INNER
G1 F600 E64.60866
G1 F900 X74.949 Y172.489 E66.6739
G1 X74.949 Y125.989 E68.22284
G1 X136.949 Y125.989 E70.28808
G1 X136.949 Y172.489 E71.83701
G0 F2625 X137.449 Y172.989
;TYPE:WALL-OUTER
G1 F900 X74.449 Y172.989 E73.93556
G1 X74.449 Y125.489 E75.5178
G1 X137.449 Y125.489 E77.61636
G1 X137.449 Y172.989 E79.1986
G0 F2625 X137.199 Y172.989
G0 X136.879 Y172.419
G0 X136.459 Y171.999
;TYPE:SKIN
G1 F900 X75.439 Y171.999 E81.2312
G1 X75.439 Y126.479 E82.74749
G1 X136.459 Y126.479 E84.78008
G1 X136.459 Y171.999 E86.29637
G0 F2625 X136.234 Y127.041
G1 F900 X135.896 Y126.704 E86.31227
G0 F2625 X135.189 Y126.704
G1 F900 X136.234 Y127.748 E86.36147
G0 F2625 X136.234 Y128.455
G1 F900 X134.482 Y126.704 E86.44398
G0 F2625 X133.775 Y126.704
G1 F900 X136.234 Y129.162 E86.5598
G0 F2625 X136.234 Y129.87
G1 F900 X133.068 Y126.704 E86.70894
G0 F2625 X132.361 Y126.704
G1 F900 X136.234 Y130.577 E86.89139
G0 F2625 X136.234 Y131.284
G1 F900 X131.654 Y126.704 E87.10715
G0 F2625 X130.946 Y126.704
G1 F900 X136.234 Y131.991 E87.35623
G0 F2625 X136.234 Y132.698
G1 F900 X130.239 Y126.704 E87.63862
G0 F2625 X129.532 Y126.704
G1 F900 X136.234 Y133.405 E87.95431
G0 F2625 X136.234 Y134.112
G1 F900 X128.825 Y126.704 E88.30331
G0 F2625 X128.118 Y126.704
G1 F900 X136.234 Y134.819 E88.68562
G0 F2625 X136.234 Y135.526
G1 F900 X127.411 Y126.704 E89.10123
G0 F2625 X126.704 Y126.704
G1 F900 X136.234 Y136.234 E89.55017
G0 F2625 X136.234 Y136.941
G1 F900 X125.997 Y126.704 E90.03241
G0 F2625 X125.29 Y126.704
G1 F900 X136.234 Y137.648 E90.54796
G0 F2625 X136.234 Y138.355
G1 F900 X124.583 Y126.704 E91.09681
G0 F2625 X123.875 Y126.704
G1 F900 X136.234 Y139.062 E91.679
G0 F2625 X136.234 Y139.769
G1 F900 X123.168 Y126.704 E92.29449
G0 F2625 X122.461 Y126.704
G1 F900 X136.234 Y140.476 E92.94328
G0 F2625 X136.234 Y141.183
G1 F900 X121.754 Y126.704 E93.62538
G0 F2625 X121.047 Y126.704
G1 F900 X136.234 Y141.89 E94.34079
G0 F2625 X136.234 Y142.597
G1 F900 X120.34 Y126.704 E95.0895
G0 F2625 X119.633 Y126.704
G1 F900 X136.234 Y143.305 E95.87154
G0 F2625 X136.234 Y144.012
G1 F900 X118.926 Y126.704 E96.68688
G0 F2625 X118.219 Y126.704
G1 F900 X136.234 Y144.719 E97.53553
G0 F2625 X136.234 Y145.426
G1 F900 X117.511 Y126.704 E98.41751
G0 F2625 X116.804 Y126.704
G1 F900 X136.234 Y146.133 E99.33279
G0 F2625 X136.234 Y146.84
G1 F900 X116.097 Y126.704 E100.28138
G0 F2625 X115.39 Y126.704
G1 F900 X136.234 Y147.547 E101.26328
G0 F2625 X136.234 Y148.254
G1 F900 X114.683 Y126.704 E102.27848
G0 F2625 X113.976 Y126.704
G1 F900 X136.234 Y148.961 E103.32698
G0 F2625 X136.234 Y149.669
G1 F900 X113.269 Y126.704 E104.40882
G0 F2625 X112.562 Y126.704
G1 F900 X136.234 Y150.376 E105.52396
G0 F2625 X136.234 Y151.083
G1 F900 X111.855 Y126.704 E106.6724
G0 F2625 X111.147 Y126.704
G1 F900 X136.234 Y151.79 E107.85418
G0 F2625 X136.234 Y152.497
G1 F900 X110.44 Y126.704 E109.06926
G0 F2625 X109.733 Y126.704
G1 F900 X136.234 Y153.204 E110.31764
G0 F2625 X136.234 Y153.911
G1 F900 X109.026 Y126.704 E111.59933
G0 F2625 X108.319 Y126.704
G1 F900 X136.234 Y154.618 E112.91433
G0 F2625 X136.234 Y155.325
G1 F900 X107.612 Y126.704 E114.26263
G0 F2625 X106.905 Y126.704
G1 F900 X136.234 Y156.033 E115.64426
G0 F2625 X136.234 Y156.74
G1 F900 X106.198 Y126.704 E117.05919
G0 F2625 X105.49 Y126.703
G1 F900 X136.234 Y157.447 E118.50748
G0 F2625 X136.234 Y158.154
G1 F900 X104.783 Y126.703 E119.98907
G0 F2625 X104.076 Y126.703
G1 F900 X136.234 Y158.861 E121.50397
G0 F2625 X136.234 Y159.568
G1 F900 X103.369 Y126.703 E123.05217
G0 F2625 X102.662 Y126.703
G1 F900 X136.234 Y160.275 E124.63368
G0 F2625 X136.234 Y160.982
G1 F900 X101.954 Y126.703 E126.24852
G0 F2625 X101.247 Y126.703
