;Generated by Cura LulzBot Edition GCodeWriter Version: 3.6.18
;FLAVOR:Marlin
;TIME:996
;Filament used: 0.211981m
;Layer height: 0.18
;Generated with Cura_SteamEngine 3.6.18
M82 ;absolute extrusion mode
;This G-Code has been generated specifically for the LulzBot TAZ 6 with standard extruder
M73 P0 ; clear GLCD progress bar
M75 ; start GLCD timer
G26 ; clear potential 'probe fail' condition
M107 ; disable fans
M420 S0 ; disable previous leveling matrix
G90 ; absolute positioning
M82 ; set extruder to absolute mode
G92 E0 ; set extruder position to 0
M140 S60.0 ; start bed heating up
M109 R140 ; soften filament before homing Z
G28 ; Home all axis
G1 E-30 F100 ; retract filament
M109 R140 ; wait for extruder to reach wiping temp
G1 X-15 Y100 F3000 ; move above wiper pad
G1 Z1 ; push nozzle into wiper
G1 X-17 Y95 F1000 ; slow wipe
G1 X-17 Y90 F1000 ; slow wipe
G1 X-17 Y85 F1000 ; slow wipe
G1 X-15 Y90 F1000 ; slow wipe
G1 X-17 Y80 F1000 ; slow wipe
G1 X-15 Y95 F1000 ; slow wipe
G1 X-17 Y75 F2000 ; fast wipe
G1 X-15 Y65 F2000 ; fast wipe
G1 X-17 Y70 F2000 ; fast wipe
G1 X-15 Y60 F2000 ; fast wipe
G1 X-17 Y55 F2000 ; fast wipe
G1 X-15 Y50 F2000 ; fast wipe
G1 X-17 Y40 F2000 ; fast wipe
G1 X-15 Y45 F2000 ; fast wipe
G1 X-17 Y35 F2000 ; fast wipe
G1 X-15 Y40 F2000 ; fast wipe
G1 X-17 Y70 F2000 ; fast wipe
G1 X-15 Y30 Z2 F2000 ; fast wipe
G1 X-17 Y35 F2000 ; fast wipe
G1 X-15 Y25 F2000 ; fast wipe
G1 X-17 Y30 F2000 ; fast wipe
G1 X-15 Y25 Z1.5 F1000 ; slow wipe
G1 X-17 Y23 F1000 ; slow wipe
G1 Z10 ; raise extruder
M109 R140 ; wait for extruder to reach probe temp
G1 X-9 Y-9 ; move above first probe point
M204 S100 ; set probing acceleration
G29 ; start auto-leveling sequence
M420 S1 ; activate bed level matrix
M425 Z			     ; use measured Z backlash for compensation
M425 Z F0		     ; turn off measured Z backlash compensation. (if activated in the quality settings, this command will automatically be ignored)
M204 S500 ; restore standard acceleration
G1 X0 Y0 Z15 F5000 ; move up off last probe point
G4 S1 ; pause
M400 ; wait for moves to finish
M117 Heating... ; progress indicator message on LCD
M109 R210 ; wait for extruder to reach printing temp
M190 R60.0 ; wait for bed to reach printing temp
G1 Z2 E0 F75 ; prime tiny bit of filament into the nozzle
M117 TAZ 6 Printing... ; progress indicator message on LCD

M221 S100 T0
G92 E0
G1 F600 E-1.75
;LAYER_COUNT:27
;LAYER:0
M107
G0 F2625 X128.623 Y127.73 Z0.425
;TYPE:SKIRT
G1 F600 E0
G1 F900 X129.171 Y127.255 E0.02416
G1 X131.208 Y125.773 E0.10807
G1 X131.782 Y125.421 E0.1305
G1 X133.039 Y124.782 E0.17747
G1 X133.651 Y124.529 E0.19953
G1 X136.035 Y123.754 E0.28303
G1 X136.677 Y123.6 E0.30502
G1 X138.069 Y123.377 E0.35198
G1 X138.78 Y123.323 E0.37573
G1 X141.538 Y123.348 E0.46761
G1 X142.214 Y123.409 E0.49022
G1 X143.363 Y123.605 E0.52904
G1 X143.96 Y123.752 E0.54952
G1 X146.344 Y124.526 E0.63301
G1 X146.961 Y124.781 E0.65525
G1 X148.21 Y125.417 E0.70194
G1 X148.774 Y125.762 E0.72396
G1 X150.677 Y127.14 E0.80223
G1 X151.099 Y127.49 E0.82049
G1 X152.024 Y128.362 E0.86284
G1 X152.494 Y128.884 E0.88623
G1 X153.538 Y130.259 E0.94374
G1 X153.705 Y130.495 E0.95337
G1 X154.644 Y131.924 E1.01033
G1 X154.927 Y132.427 E1.02955
G1 X155.264 Y133.133 E1.05561
G1 X155.47 Y133.648 E1.07409
G1 X156.242 Y136.019 E1.15715
G1 X156.388 Y136.604 E1.17723
G1 X156.574 Y137.669 E1.21325
G1 X156.635 Y138.267 E1.23327
G1 X156.69 Y140.028 E1.29196
G1 X156.685 Y140.412 E1.30475
G1 X156.579 Y142.206 E1.36461
G1 X156.515 Y142.728 E1.38213
G1 X156.39 Y143.404 E1.40503
G1 X156.243 Y143.975 E1.42467
G1 X155.375 Y146.578 E1.51607
G1 X155.108 Y147.205 E1.53877
G1 X154.552 Y148.267 E1.5787
G1 X154.226 Y148.793 E1.59932
G1 X152.766 Y150.804 E1.6821
G1 X152.37 Y151.274 E1.70257
G1 X151.584 Y152.08 E1.74007
G1 X151.111 Y152.498 E1.76109
G1 X149.741 Y153.538 E1.81839
G1 X149.505 Y153.705 E1.82802
G1 X148.076 Y154.644 E1.88498
G1 X147.571 Y154.928 E1.90428
G1 X146.864 Y155.265 E1.93037
G1 X146.349 Y155.471 E1.94884
G1 X143.965 Y156.246 E2.03234
G1 X143.323 Y156.4 E2.05434
G1 X141.931 Y156.623 E2.1013
G1 X141.22 Y156.677 E2.12505
G1 X138.462 Y156.652 E2.21692
G1 X137.786 Y156.591 E2.23953
G1 X136.638 Y156.395 E2.27832
G1 X136.041 Y156.248 E2.2988
G1 X133.656 Y155.474 E2.38233
G1 X133.039 Y155.219 E2.40457
G1 X131.79 Y154.583 E2.45126
G1 X131.226 Y154.238 E2.47328
G1 X129.307 Y152.848 E2.55221
G1 X128.837 Y152.453 E2.57266
G1 X127.722 Y151.369 E2.62446
G1 X127.225 Y150.789 E2.6499
G1 X125.627 Y148.548 E2.74159
G1 X125.275 Y147.96 E2.76441
G1 X124.754 Y146.903 E2.80367
G1 X124.513 Y146.304 E2.82517
G1 X123.692 Y143.704 E2.916
G1 X123.54 Y143.041 E2.93865
G1 X123.368 Y141.868 E2.97815
G1 X123.323 Y141.249 E2.99882
G1 X123.324 Y138.746 E3.08219
G1 X123.376 Y138.086 E3.10425
G1 X123.596 Y136.69 E3.15132
G1 X123.751 Y136.041 E3.17355
G1 X124.524 Y133.658 E3.257
G1 X124.78 Y133.039 E3.27931
G1 X125.416 Y131.791 E3.32597
G1 X125.761 Y131.228 E3.34797
G1 X127.152 Y129.307 E3.42697
G1 X127.546 Y128.838 E3.44737
G1 X128.623 Y127.73 E3.49884
G0 F2625 X128.982 Y128.078
G1 F900 X129.465 Y127.66 E3.52012
G1 X131.502 Y126.178 E3.60403
G1 X132.009 Y125.867 E3.62384
G1 X133.266 Y125.228 E3.67081
G1 X133.806 Y125.005 E3.69028
G1 X136.19 Y124.23 E3.77378
G1 X136.756 Y124.093 E3.79318
G1 X138.148 Y123.87 E3.84014
G1 X138.775 Y123.823 E3.86108
G1 X141.533 Y123.848 E3.95295
G1 X142.13 Y123.901 E3.97292
G1 X143.279 Y124.097 E4.01174
G1 X143.806 Y124.227 E4.02983
G1 X146.19 Y125.001 E4.11332
G1 X146.734 Y125.226 E4.13293
G1 X147.983 Y125.862 E4.17962
G1 X148.48 Y126.167 E4.19904
G1 X150.383 Y127.545 E4.2773
G1 X150.756 Y127.853 E4.29342
G1 X151.681 Y128.725 E4.33576
G1 X152.096 Y129.186 E4.35642
G1 X153.14 Y130.561 E4.41393
G1 X153.287 Y130.77 E4.42244
G1 X154.226 Y132.199 E4.4794
G1 X154.476 Y132.643 E4.49637
G1 X154.813 Y133.349 E4.52243
G1 X154.995 Y133.803 E4.53872
G1 X155.767 Y136.174 E4.62178
G1 X155.895 Y136.69 E4.63949
G1 X156.081 Y137.755 E4.67551
G1 X156.135 Y138.283 E4.69319
G1 X156.19 Y140.044 E4.75187
G1 X156.185 Y140.382 E4.76313
G1 X156.079 Y142.176 E4.823
G1 X156.023 Y142.637 E4.83847
G1 X155.898 Y143.313 E4.86137
G1 X155.768 Y143.817 E4.8787
G1 X154.9 Y146.42 E4.9701
G1 X154.665 Y146.973 E4.99012
G1 X154.109 Y148.035 E5.03005
G1 X153.822 Y148.499 E5.04822
G1 X152.362 Y150.51 E5.131
G1 X152.012 Y150.925 E5.14909
G1 X151.226 Y151.731 E5.18659
G1 X150.808 Y152.1 E5.20516
G1 X149.438 Y153.14 E5.26246
G1 X149.23 Y153.287 E5.27094
G1 X147.801 Y154.226 E5.3279
G1 X147.356 Y154.477 E5.34492
G1 X146.649 Y154.814 E5.371
G1 X146.194 Y154.995 E5.38732
G1 X143.81 Y155.77 E5.47082
G1 X143.244 Y155.907 E5.49022
G1 X141.852 Y156.13 E5.53718
G1 X141.225 Y156.177 E5.55812
G1 X138.467 Y156.152 E5.64999
G1 X137.87 Y156.099 E5.66996
G1 X136.722 Y155.903 E5.70875
G1 X136.195 Y155.773 E5.72683
G1 X133.81 Y154.999 E5.81036
G1 X133.266 Y154.774 E5.82997
G1 X132.017 Y154.138 E5.87665
G1 X131.519 Y153.833 E5.89611
G1 X129.6 Y152.443 E5.97504
G1 X129.186 Y152.095 E5.99305
G1 X128.071 Y151.011 E6.04485
G1 X127.632 Y150.499 E6.06732
G1 X126.034 Y148.258 E6.159
G1 X125.723 Y147.739 E6.17916
G1 X125.202 Y146.682 E6.21841
G1 X124.99 Y146.153 E6.23739
G1 X124.169 Y143.553 E6.32821
G1 X124.035 Y142.968 E6.34821
G1 X123.863 Y141.795 E6.3877
G1 X123.823 Y141.25 E6.4059
G1 X123.824 Y138.747 E6.48928
G1 X123.87 Y138.164 E6.50876
G1 X124.09 Y136.768 E6.55583
G1 X124.227 Y136.195 E6.57546
G1 X125 Y133.812 E6.65891
G1 X125.226 Y133.266 E6.67859
G1 X125.862 Y132.018 E6.72525
G1 X126.166 Y131.522 E6.74463
G1 X127.557 Y129.601 E6.82363
G1 X127.905 Y129.186 E6.84167
G1 X128.982 Y128.078 E6.89314
G0 F2625 X129.341 Y128.427
G1 F900 X129.759 Y128.064 E6.91158
G1 X131.796 Y126.582 E6.99549
G1 X132.235 Y126.313 E7.01264
G1 X133.492 Y125.674 E7.05962
G1 X133.96 Y125.48 E7.07649
G1 X136.344 Y124.705 E7.15999
G1 X136.835 Y124.587 E7.17681
G1 X138.227 Y124.364 E7.22377
G1 X138.77 Y124.323 E7.24191
G1 X141.528 Y124.348 E7.33379
G1 X142.046 Y124.394 E7.35111
G1 X143.195 Y124.59 E7.38994
G1 X143.652 Y124.703 E7.40562
G1 X146.036 Y125.477 E7.48911
G1 X146.507 Y125.672 E7.50609
G1 X147.756 Y126.308 E7.55278
G1 X148.187 Y126.572 E7.56961
G1 X150.09 Y127.95 E7.64788
G1 X150.413 Y128.217 E7.66184
G1 X151.338 Y129.089 E7.70418
G1 X151.697 Y129.489 E7.72209
G1 X152.741 Y130.864 E7.77959
G1 X152.869 Y131.044 E7.78695
G1 X153.808 Y132.473 E7.84391
G1 X154.025 Y132.858 E7.85863
G1 X154.362 Y133.564 E7.88469
G1 X154.519 Y133.958 E7.89882
G1 X155.291 Y136.329 E7.98188
G1 X155.403 Y136.776 E7.99723
G1 X155.589 Y137.841 E8.03324
G1 X155.635 Y138.299 E8.04857
G1 X155.69 Y140.06 E8.10726
G1 X155.686 Y140.353 E8.11702
G1 X155.58 Y142.147 E8.17688
G1 X155.532 Y142.546 E8.19027
G1 X155.407 Y143.222 E8.21317
G1 X155.294 Y143.659 E8.2282
G1 X154.426 Y146.262 E8.31961
G1 X154.222 Y146.741 E8.33695
G1 X153.666 Y147.803 E8.37688
G1 X153.417 Y148.205 E8.39263
G1 X151.957 Y150.216 E8.47541
G1 X151.654 Y150.576 E8.49108
G1 X150.868 Y151.382 E8.52858
G1 X150.506 Y151.702 E8.54468
G1 X149.136 Y152.742 E8.60197
G1 X148.956 Y152.869 E8.60931
G1 X147.527 Y153.808 E8.66627
G1 X147.14 Y154.026 E8.68106
G1 X146.433 Y154.363 E8.70715
G1 X146.04 Y154.52 E8.72125
G1 X143.656 Y155.295 E8.80475
G1 X143.165 Y155.413 E8.82157
G1 X141.773 Y155.636 E8.86853
G1 X141.23 Y155.677 E8.88667
G1 X138.472 Y155.652 E8.97855
G1 X137.954 Y155.606 E8.99587
G1 X136.806 Y155.41 E9.03466
G1 X136.35 Y155.297 E9.05031
G1 X133.965 Y154.523 E9.13384
G1 X133.493 Y154.328 E9.15085
G1 X132.244 Y153.692 E9.19753
G1 X131.813 Y153.428 E9.21437
G1 X129.894 Y152.038 E9.2933
G1 X129.535 Y151.736 E9.30893
G1 X128.42 Y150.652 E9.36073
G1 X128.039 Y150.209 E9.38019
G1 X126.441 Y147.968 E9.47187
G1 X126.172 Y147.518 E9.48934
G1 X125.651 Y146.461 E9.52859
G1 X125.467 Y146.003 E9.54503
G1 X124.646 Y143.403 E9.63586
G1 X124.529 Y142.896 E9.65319
G1 X124.357 Y141.723 E9.69268
G1 X124.323 Y141.25 E9.70848
G1 X124.324 Y138.747 E9.79185
G1 X124.364 Y138.242 E9.80873
G1 X124.584 Y136.846 E9.8558
G1 X124.703 Y136.349 E9.87282
G1 X125.476 Y133.966 E9.95627
G1 X125.671 Y133.493 E9.97332
G1 X126.307 Y132.245 E10.01997
G1 X126.571 Y131.815 E10.03678
G1 X127.962 Y129.894 E10.11579
G1 X128.264 Y129.535 E10.13141
G1 X129.341 Y128.427 E10.18288
G1 F600 E8.43288
;MESH:
G0 F2625 X134.795 Y127.907
G0 X136.713 Y128.48
G0 X138.14 Y128.415
G0 X138.281 Y130.047
G0 X138.346 Y130.122
;TYPE:WALL-INNER
G1 F600 E10.18288
G1 F900 X138.207 Y130.266 E10.18955
G1 X138.202 Y130.128 E10.1897
G1 X138.193 Y129.938 E10.19232
G1 X138.125 Y128.403 E10.2435
G1 X138.2 Y128.391 E10.24603
G1 X138.622 Y129.918 E10.27319
G1 X138.346 Y130.122 E10.28124
G0 F2625 X138.281 Y130.047
G0 X141.548 Y129.908
G0 X141.489 Y129.988
G1 F900 X141.378 Y129.92 E10.28557
G1 X141.8 Y128.391 E10.33841
G1 X141.875 Y128.403 E10.34094
G1 X141.808 Y129.939 E10.36656
G1 X141.805 Y130.003 E10.36798
G1 X141.793 Y130.257 E10.37645
G1 X141.489 Y129.988 E10.38314
G0 F2625 X141.548 Y129.908
G0 X146.474 Y133.206
G0 X146.473 Y133.107
G1 F900 X146.807 Y132.84 E10.39739
G1 X148.281 Y131.666 E10.46016
G1 X148.334 Y131.719 E10.46265
G1 X147.16 Y133.193 E10.49885
G1 X146.893 Y133.527 E10.5131
G1 X148.286 Y135.445 E10.59206
G1 X148.685 Y135.295 E10.60626
G1 X150.451 Y134.632 E10.66909
G1 X150.486 Y134.7 E10.67164
G1 X148.912 Y135.738 E10.70797
G1 X148.556 Y135.973 E10.72218
G1 X149.009 Y137.367 E10.771
G1 X149.052 Y137.502 E10.77572
G1 X149.141 Y137.774 E10.78526
G1 X148.732 Y137.607 E10.79263
G1 X148.594 Y137.577 E10.79666
G1 X148.318 Y137.517 E10.80607
G1 X147.894 Y137.5 E10.82021
G1 X147.473 Y137.553 E10.83434
G1 X147.067 Y137.677 E10.84848
G1 X146.687 Y137.869 E10.86266
G1 X146.346 Y138.122 E10.87681
G1 X146.052 Y138.428 E10.89094
G1 X145.815 Y138.78 E10.90508
G1 X145.64 Y139.166 E10.9192
G1 X145.533 Y139.578 E10.93338
G1 X145.497 Y140 E10.94748
G1 X145.533 Y140.422 E10.96159
G1 X145.64 Y140.834 E10.97577
G1 X145.815 Y141.22 E10.98989
G1 X146.052 Y141.572 E11.00402
G1 X146.346 Y141.878 E11.01816
G1 X146.687 Y142.131 E11.0323
G1 X147.067 Y142.323 E11.04648
G1 X147.473 Y142.447 E11.06063
G1 X147.894 Y142.5 E11.07476
G1 X148.318 Y142.483 E11.08889
G1 X148.594 Y142.423 E11.0983
G1 X148.732 Y142.393 E11.10301
G1 X149.141 Y142.226 E11.11772
G1 X149.053 Y142.497 E11.11988
G1 X149.01 Y142.631 E11.1239
G1 X148.556 Y144.027 E11.1728
G1 X148.912 Y144.262 E11.18701
G1 X150.486 Y145.3 E11.24981
G1 X150.451 Y145.368 E11.25236
G1 X148.685 Y144.705 E11.28872
G1 X148.286 Y144.555 E11.30292
G1 X146.893 Y146.473 E11.38189
G1 X147.16 Y146.807 E11.39613
G1 X148.334 Y148.281 E11.4589
G1 X148.281 Y148.334 E11.4614
G1 X146.807 Y147.16 E11.4976
G1 X146.473 Y146.893 E11.51184
G1 X144.555 Y148.286 E11.5908
G1 X144.705 Y148.685 E11.605
G1 X145.368 Y150.451 E11.66784
G1 X145.3 Y150.486 E11.67038
G1 X144.262 Y148.912 E11.70671
G1 X144.027 Y148.556 E11.72092
G1 X142.613 Y149.016 E11.77045
G1 X142.555 Y149.034 E11.77248
G1 X142.309 Y149.114 E11.78109
G1 X142.218 Y149.144 E11.78429
G1 X142.281 Y149.031 E11.78476
G1 X142.423 Y148.63 E11.79391
G1 X142.433 Y148.57 E11.7958
G1 X142.491 Y148.226 E11.80743
G1 X142.5 Y148 E11.81496
G1 X142.491 Y147.774 E11.82249
G1 X142.423 Y147.37 E11.83614
G1 X142.281 Y146.969 E11.85031
G1 X142.073 Y146.598 E11.86448
G1 X141.806 Y146.268 E11.87862
G1 X141.489 Y145.988 E11.89271
G1 X141.126 Y145.765 E11.9069
G1 X140.732 Y145.607 E11.92104
G1 X140.318 Y145.517 E11.93515
G1 X139.894 Y145.5 E11.94929
G1 X139.473 Y145.553 E11.96342
G1 X139.067 Y145.677 E11.97756
G1 X138.687 Y145.869 E11.99174
G1 X138.346 Y146.122 E12.00589
G1 X138.052 Y146.428 E12.02002
G1 X137.815 Y146.78 E12.03416
G1 X137.64 Y147.166 E12.04827
G1 X137.533 Y147.578 E12.06245
G1 X137.497 Y148 E12.07656
G1 X137.533 Y148.422 E12.09067
G1 X137.583 Y148.613 E12.09725
G1 X137.64 Y148.834 E12.10485
G1 X137.78 Y149.143 E12.11615
G1 X137.564 Y149.073 E12.11723
G1 X137.348 Y149.003 E12.12313
G1 X135.973 Y148.556 E12.17129
G1 X135.738 Y148.912 E12.1855
G1 X134.7 Y150.486 E12.2483
G1 X134.632 Y150.451 E12.25085
G1 X135.295 Y148.685 E12.28721
G1 X135.445 Y148.286 E12.30141
G1 X133.527 Y146.893 E12.38037
G1 X133.193 Y147.16 E12.39462
G1 X131.719 Y148.334 E12.45739
G1 X131.666 Y148.281 E12.45989
G1 X132.84 Y146.807 E12.49609
G1 X133.107 Y146.473 E12.51033
G1 X131.714 Y144.555 E12.58929
G1 X131.315 Y144.705 E12.60349
G1 X129.549 Y145.368 E12.66632
G1 X129.514 Y145.3 E12.66887
G1 X131.088 Y144.262 E12.7052
G1 X131.444 Y144.027 E12.71941
G1 X131.006 Y142.678 E12.76666
G1 X130.908 Y142.375 E12.77727
G1 X130.856 Y142.216 E12.78284
G1 X131.067 Y142.323 E12.78552
G1 X131.372 Y142.416 E12.793
G1 X131.473 Y142.447 E12.79652
G1 X131.894 Y142.5 E12.81065
G1 X132.318 Y142.483 E12.82478
G1 X132.732 Y142.393 E12.8389
G1 X133.126 Y142.235 E12.85304
G1 X133.489 Y142.012 E12.86723
G1 X133.806 Y141.732 E12.88132
G1 X134.073 Y141.402 E12.89546
G1 X134.281 Y141.031 E12.90962
G1 X134.423 Y140.63 E12.9238
G1 X134.491 Y140.226 E12.93744
G1 X134.5 Y140 E12.94498
G1 X134.491 Y139.774 E12.95251
G1 X134.423 Y139.37 E12.96616
G1 X134.281 Y138.969 E12.98033
G1 X134.073 Y138.598 E12.99449
G1 X133.806 Y138.268 E13.00863
G1 X133.489 Y137.988 E13.02272
G1 X133.126 Y137.765 E13.03691
G1 X132.732 Y137.607 E13.05105
G1 X132.318 Y137.517 E13.06517
G1 X131.894 Y137.5 E13.0793
G1 X131.473 Y137.553 E13.09344
G1 X131.372 Y137.584 E13.09696
G1 X131.067 Y137.677 E13.10758
G1 X130.856 Y137.784 E13.11546
G1 X130.907 Y137.627 E13.11581
G1 X131.005 Y137.324 E13.12328
G1 X131.444 Y135.973 E13.1706
G1 X131.088 Y135.738 E13.1848
G1 X129.514 Y134.7 E13.24761
G1 X129.549 Y134.632 E13.25016
G1 X131.315 Y135.295 E13.28652
G1 X131.714 Y135.445 E13.30072
G1 X133.107 Y133.527 E13.37968
G1 X132.84 Y133.193 E13.39392
G1 X131.666 Y131.719 E13.45669
G1 X131.719 Y131.666 E13.45919
G1 X133.193 Y132.84 E13.49539
G1 X133.527 Y133.107 E13.50963
G1 X135.445 Y131.714 E13.5886
G1 X135.295 Y131.315 E13.60279
G1 X134.632 Y129.549 E13.66563
G1 X134.7 Y129.514 E13.66818
G1 X135.738 Y131.088 E13.70451
G1 X135.973 Y131.444 E13.71872
G1 X137.347 Y130.998 E13.76684
G1 X137.563 Y130.928 E13.7744
G1 X137.78 Y130.857 E13.78201
