;Generated by Cura LulzBot Edition GCodeWriter Version: 3.6.18
;FLAVOR:Marlin
;TIME:1768
;Filament used: 0.907423m
;Layer height: 0.38
;Generated with Cura_SteamEngine 3.6.18
M82 ;absolute extrusion mode
;This G-Code has been generated specifically for the LulzBot TAZ 6 with standard extruder
M73 P0 ; clear GLCD progress bar
M75 ; start GLCD timer
G26 ; clear potential 'probe fail' condition
M107 ; disable fans
M420 S0 ; disable previous leveling matrix
G90 ; absolute positioning
M82 ; set extruder to absolute mode
G92 E0 ; set extruder position to 0
M140 S60.0 ; start bed heating up
M109 R140 ; soften filament before homing Z
G28 ; Home all axis
G1 E-30 F100 ; retract filament
M109 R140 ; wait for extruder to reach wiping temp
G1 X-15 Y100 F3000 ; move above wiper pad
G1 Z1 ; push nozzle into wiper
G1 X-17 Y95 F1000 ; slow wipe
G1 X-17 Y90 F1000 ; slow wipe
G1 X-17 Y85 F1000 ; slow wipe
G1 X-15 Y90 F1000 ; slow wipe
G1 X-17 Y80 F1000 ; slow wipe
G1 X-15 Y95 F1000 ; slow wipe
G1 X-17 Y75 F2000 ; fast wipe
G1 X-15 Y65 F2000 ; fast wipe
G1 X-17 Y70 F2000 ; fast wipe
G1 X-15 Y60 F2000 ; fast wipe
G1 X-17 Y55 F2000 ; fast wipe
G1 X-15 Y50 F2000 ; fast wipe
G1 X-17 Y40 F2000 ; fast wipe
G1 X-15 Y45 F2000 ; fast wipe
G1 X-17 Y35 F2000 ; fast wipe
G1 X-15 Y40 F2000 ; fast wipe
G1 X-17 Y70 F2000 ; fast wipe
G1 X-15 Y30 Z2 F2000 ; fast wipe
G1 X-17 Y35 F2000 ; fast wipe
G1 X-15 Y25 F2000 ; fast wipe
G1 X-17 Y30 F2000 ; fast wipe
G1 X-15 Y25 Z1.5 F1000 ; slow wipe
G1 X-17 Y23 F1000 ; slow wipe
G1 Z10 ; raise extruder
M109 R140 ; wait for extruder to reach probe temp
G1 X-9 Y-9 ; move above first probe point
M204 S100 ; set probing acceleration
G29 ; start auto-leveling sequence
M420 S1 ; activate bed level matrix
M425 Z			     ; use measured Z backlash for compensation
M425 Z F0		     ; turn off measured Z backlash compensation. (if activated in the quality settings, this command will automatically be ignored)
M204 S500 ; restore standard acceleration
G1 X0 Y0 Z15 F5000 ; move up off last probe point
G4 S1 ; pause
M400 ; wait for moves to finish
M117 Heating... ; progress indicator message on LCD
M109 R210 ; wait for extruder to reach printing temp
M190 R60.0 ; wait for bed to reach printing temp
G1 Z2 E0 F75 ; prime tiny bit of filament into the nozzle
M117 TAZ 6 Printing... ; progress indicator message on LCD

M221 S100 T0
G92 E0
G1 F600 E-1.75
;LAYER_COUNT:51
;LAYER:0
M107
G0 F2625 X111.586 Y105.392 Z0.425
;TYPE:SKIRT
G1 F600 E0
G1 F900 X111.98 Y105.012 E0.01823
G1 X112.425 Y104.693 E0.03647
G1 X112.912 Y104.443 E0.05471
G1 X113.43 Y104.266 E0.07294
G1 X113.968 Y104.167 E0.09116
G1 X114.379 Y104.144 E0.10487
G1 X130.364 Y104.145 E0.63734
G1 X130.91 Y104.185 E0.65558
G1 X131.444 Y104.304 E0.6738
G1 X131.956 Y104.5 E0.69206
G1 X132.433 Y104.767 E0.71027
G1 X132.866 Y105.102 E0.72851
G1 X133.246 Y105.496 E0.74674
G1 X133.565 Y105.941 E0.76498
G1 X133.83 Y106.462 E0.78445
G1 X136.411 Y112.706 E1.00951
G1 X138.786 Y117.579 E1.19008
G1 X141.449 Y122.338 E1.37174
G1 X144.373 Y126.935 E1.55322
G1 X145.915 Y129.143 E1.64293
G1 X149.235 Y133.496 E1.82529
G1 X152.767 Y137.621 E2.00618
G1 X156.537 Y141.55 E2.18756
G1 X160.545 Y145.28 E2.36994
G1 X162.581 Y147.019 E2.45913
G1 X167.919 Y151.16 E2.68417
G1 X168.326 Y151.526 E2.7024
G1 X168.676 Y151.948 E2.72067
G1 X168.96 Y152.415 E2.73887
G1 X169.173 Y152.92 E2.75713
G1 X169.31 Y153.45 E2.77537
G1 X169.371 Y154.123 E2.79788
G1 X169.371 Y172.106 E3.3969
G1 X169.331 Y172.652 E3.41513
G1 X169.212 Y173.186 E3.43336
G1 X169.017 Y173.697 E3.45157
G1 X168.749 Y174.175 E3.46983
G1 X168.414 Y174.608 E3.48806
G1 X168.02 Y174.988 E3.5063
G1 X167.575 Y175.307 E3.52454
G1 X167.088 Y175.557 E3.54277
G1 X166.57 Y175.734 E3.56101
G1 X166.032 Y175.833 E3.57923
G1 X165.621 Y175.856 E3.59294
G1 X144.398 Y175.855 E4.29989
G1 X143.792 Y175.806 E4.32014
G1 X136.669 Y174.639 E4.56057
G1 X131.235 Y174.101 E4.74246
G1 X128.559 Y173.951 E4.83174
G1 X124.473 Y173.865 E4.96788
G1 X114.375 Y173.855 E5.30425
G1 X113.829 Y173.815 E5.32248
G1 X113.295 Y173.695 E5.34071
G1 X112.784 Y173.499 E5.35895
G1 X112.307 Y173.231 E5.37717
G1 X111.874 Y172.896 E5.39541
G1 X111.495 Y172.501 E5.41364
G1 X111.176 Y172.056 E5.43188
G1 X110.927 Y171.569 E5.4501
G1 X110.75 Y171.051 E5.46833
G1 X110.651 Y170.513 E5.48656
G1 X110.629 Y170.105 E5.50017
G1 X110.629 Y107.894 E7.57244
G1 X110.669 Y107.348 E7.59067
G1 X110.788 Y106.814 E7.6089
G1 X110.983 Y106.303 E7.62712
G1 X111.251 Y105.825 E7.64537
G1 X111.586 Y105.392 E7.66361
G0 F2625 X112.079 Y105.598
G1 F900 X112.466 Y105.266 E7.68059
G1 X112.901 Y105 E7.69758
G1 X113.371 Y104.804 E7.71454
G1 X113.866 Y104.685 E7.7315
G1 X114.379 Y104.644 E7.74864
G1 X130.364 Y104.645 E8.28111
G1 X130.872 Y104.685 E8.29808
G1 X131.368 Y104.804 E8.31507
G1 X131.838 Y104.999 E8.33202
G1 X132.273 Y105.265 E8.349
G1 X132.661 Y105.595 E8.36597
G1 X132.992 Y105.983 E8.38296
G1 X133.258 Y106.417 E8.39992
G1 X133.368 Y106.653 E8.40859
G1 X135.958 Y112.919 E8.63444
G1 X138.343 Y117.812 E8.81576
G1 X141.019 Y122.594 E8.99829
G1 X143.957 Y127.213 E9.18064
G1 X145.507 Y129.433 E9.27083
G1 X148.835 Y133.797 E9.45364
G1 X152.406 Y137.967 E9.63652
G1 X156.188 Y141.909 E9.81849
G1 X160.208 Y145.65 E10.00141
G1 X162.259 Y147.402 E10.09126
G1 X167.613 Y151.555 E10.31697
G1 X167.99 Y151.898 E10.33395
G1 X168.309 Y152.296 E10.35094
G1 X168.561 Y152.738 E10.36789
G1 X168.741 Y153.215 E10.38487
G1 X168.845 Y153.713 E10.40182
G1 X168.871 Y154.123 E10.4155
G1 X168.871 Y172.106 E11.01452
G1 X168.831 Y172.614 E11.03149
G1 X168.712 Y173.109 E11.04845
G1 X168.517 Y173.58 E11.06543
G1 X168.251 Y174.015 E11.08242
G1 X167.921 Y174.402 E11.09936
G1 X167.534 Y174.734 E11.11634
G1 X167.099 Y175 E11.13333
G1 X166.629 Y175.196 E11.15029
G1 X166.134 Y175.315 E11.16725
G1 X165.621 Y175.356 E11.18439
G1 X144.398 Y175.355 E11.89134
G1 X143.873 Y175.312 E11.90888
G1 X136.737 Y174.143 E12.14976
G1 X131.288 Y173.604 E12.33215
G1 X128.569 Y173.451 E12.42286
G1 X124.485 Y173.365 E12.55893
G1 X114.376 Y173.355 E12.89567
G1 X113.868 Y173.315 E12.91264
G1 X113.373 Y173.195 E12.92961
G1 X112.902 Y173 E12.94659
G1 X112.468 Y172.734 E12.96355
G1 X112.08 Y172.403 E12.98053
G1 X111.749 Y172.015 E12.99752
G1 X111.483 Y171.581 E13.01448
G1 X111.288 Y171.11 E13.03146
G1 X111.169 Y170.614 E13.04845
G1 X111.129 Y170.105 E13.06546
G1 X111.129 Y107.894 E15.13773
G1 X111.169 Y107.386 E15.1547
G1 X111.288 Y106.891 E15.17166
G1 X111.483 Y106.42 E15.18864
G1 X111.749 Y105.985 E15.20563
G1 X112.079 Y105.598 E15.22257
G1 F600 E13.47257
;MESH:
G0 F2625 X115.134 Y107.22
G0 X115.134 Y108.649
G0 X129.55 Y154.935
G0 X129.62 Y154.865
;TYPE:WALL-INNER
G1 F600 E15.22257
G1 F900 X164.88 Y154.865 E16.39709
G1 X164.88 Y171.365 E16.94671
G1 X145.14 Y171.365 E17.60426
G1 X145.14 Y169.365 E17.67088
G1 X115.12 Y169.365 E18.67086
G1 X115.12 Y108.635 E20.69379
G1 X129.62 Y108.635 E21.17679
G1 X129.62 Y154.865 E22.71673
G0 F2625 X130.12 Y154.365
;TYPE:WALL-OUTER
G1 F900 X165.38 Y154.365 E23.89125
G1 X165.38 Y171.865 E24.47419
G1 X144.64 Y171.865 E25.16504
G1 X144.64 Y169.865 E25.23166
G1 X114.62 Y169.865 E26.23164
G1 X114.62 Y108.135 E28.28789
G1 X130.12 Y108.135 E28.8042
G1 X130.12 Y154.365 E30.34414
G0 F2625 X130.37 Y154.365
G0 X130.37 Y154.965
G0 X129.13 Y155.355
;TYPE:SKIN
G1 F900 X164.39 Y155.355 E31.51866
G1 X164.39 Y170.875 E32.03564
G1 X145.63 Y170.875 E32.66054
G1 X145.63 Y168.875 E32.72716
G1 X115.61 Y168.875 E33.72714
G1 X115.61 Y109.125 E35.71743
G1 X129.13 Y109.125 E36.16779
G1 X129.13 Y155.355 E37.70773
G0 F2625 X116.323 Y168.649
G1 F900 X115.834 Y168.16 E37.73076
G0 F2625 X115.834 Y167.453
G1 F900 X117.03 Y168.649 E37.7871
G0 F2625 X117.737 Y168.649
G1 F900 X115.834 Y166.746 E37.87675
G0 F2625 X115.834 Y166.039
G1 F900 X118.444 Y168.649 E37.9997
G0 F2625 X119.151 Y168.649
G1 F900 X115.834 Y165.332 E38.15596
G0 F2625 X115.834 Y164.625
G1 F900 X119.858 Y168.649 E38.34552
G0 F2625 X120.565 Y168.649
G1 F900 X115.834 Y163.917 E38.56841
G0 F2625 X115.834 Y163.21
G1 F900 X121.273 Y168.649 E38.82463
G0 F2625 X121.98 Y168.649
G1 F900 X115.834 Y162.503 E39.11416
G0 F2625 X115.834 Y161.796
G1 F900 X122.687 Y168.649 E39.43699
G0 F2625 X123.394 Y168.649
G1 F900 X115.834 Y161.089 E39.79313
G0 F2625 X115.834 Y160.382
G1 F900 X124.101 Y168.649 E40.18257
G0 F2625 X124.808 Y168.649
G1 F900 X115.834 Y159.675 E40.60531
G0 F2625 X115.834 Y158.968
G1 F900 X125.515 Y168.649 E41.06137
G0 F2625 X126.222 Y168.649
G1 F900 X115.834 Y158.261 E41.55072
G0 F2625 X115.834 Y157.553
G1 F900 X126.929 Y168.649 E42.07341
G0 F2625 X127.637 Y168.649
G1 F900 X115.834 Y156.846 E42.62942
G0 F2625 X115.834 Y156.139
G1 F900 X128.344 Y168.649 E43.21875
G0 F2625 X129.051 Y168.649
G1 F900 X115.834 Y155.432 E43.84137
G0 F2625 X115.834 Y154.725
G1 F900 X129.758 Y168.649 E44.4973
G0 F2625 X130.465 Y168.649
G1 F900 X115.834 Y154.018 E45.18654
G0 F2625 X115.834 Y153.311
G1 F900 X131.172 Y168.649 E45.90908
G0 F2625 X131.879 Y168.649
G1 F900 X115.834 Y152.604 E46.66493
G0 F2625 X115.834 Y151.897
G1 F900 X132.586 Y168.649 E47.45408
G0 F2625 X133.293 Y168.649
G1 F900 X115.834 Y151.19 E48.27654
G0 F2625 X115.834 Y150.482
G1 F900 X134 Y168.649 E49.13233
G0 F2625 X134.708 Y168.649
G1 F900 X115.834 Y149.775 E50.02144
G0 F2625 X115.834 Y149.068
G1 F900 X135.415 Y168.649 E50.94386
G0 F2625 X136.122 Y168.649
G1 F900 X115.834 Y148.361 E51.89959
G0 F2625 X115.834 Y147.654
G1 F900 X136.829 Y168.649 E52.88862
G0 F2625 X137.536 Y168.649
G1 F900 X115.834 Y146.947 E53.91096
G0 F2625 X115.834 Y146.24
G1 F900 X138.243 Y168.649 E54.9666
G0 F2625 X138.95 Y168.649
G1 F900 X115.834 Y145.533 E56.05555
G0 F2625 X115.834 Y144.826
G1 F900 X139.657 Y168.649 E57.1778
G0 F2625 X140.364 Y168.649
G1 F900 X115.834 Y144.118 E58.33338
G0 F2625 X115.834 Y143.411
G1 F900 X141.072 Y168.649 E59.52229
G0 F2625 X141.779 Y168.649
G1 F900 X115.834 Y142.704 E60.74451
G0 F2625 X115.834 Y141.997
G1 F900 X128.904 Y155.067 E61.36021
G0 F2625 X128.904 Y154.36
G1 F900 X115.834 Y141.29 E61.97591
G0 F2625 X115.834 Y140.583
G1 F900 X128.904 Y153.653 E62.59161
G0 F2625 X128.904 Y152.946
G1 F900 X115.834 Y139.876 E63.20731
G0 F2625 X115.834 Y139.169
G1 F900 X128.904 Y152.239 E63.82302
G0 F2625 X128.904 Y151.532
G1 F900 X115.833 Y138.461 E64.43876
G0 F2625 X115.833 Y137.754
G1 F900 X128.904 Y150.825 E65.05451
G0 F2625 X128.904 Y150.118
G1 F900 X115.833 Y137.047 E65.67026
G0 F2625 X115.833 Y136.34
G1 F900 X128.904 Y149.41 E66.28598
G0 F2625 X128.904 Y148.703
G1 F900 X115.833 Y135.632 E66.90173
G0 F2625 X115.833 Y134.925
G1 F900 X128.904 Y147.996 E67.51748
G0 F2625 X128.904 Y147.289
G1 F900 X115.833 Y134.218 E68.13323
G0 F2625 X115.833 Y133.511
G1 F900 X128.904 Y146.582 E68.74898
G0 F2625 X128.904 Y145.875
G1 F900 X115.833 Y132.804 E69.36473
G0 F2625 X115.833 Y132.097
G1 F900 X128.904 Y145.168 E69.98047
G0 F2625 X128.904 Y144.461
G1 F900 X115.833 Y131.39 E70.59622
G0 F2625 X115.833 Y130.683
G1 F900 X128.904 Y143.754 E71.21197
G0 F2625 X128.904 Y143.046
G1 F900 X115.833 Y129.976 E71.82769
G0 F2625 X115.833 Y129.269
G1 F900 X128.904 Y142.339 E72.44342
G0 F2625 X128.904 Y141.632
G1 F900 X115.833 Y128.561 E73.05917
G0 F2625 X115.833 Y127.854
G1 F900 X128.904 Y140.925 E73.67492
G0 F2625 X128.904 Y140.218
G1 F900 X115.833 Y127.147 E74.29066
G0 F2625 X115.833 Y126.44
G1 F900 X128.904 Y139.511 E74.90641
G0 F2625 X128.904 Y138.804
G1 F900 X115.833 Y125.733 E75.52216
G0 F2625 X115.833 Y125.026
G1 F900 X128.904 Y138.097 E76.13791
G0 F2625 X128.904 Y137.39
G1 F900 X115.833 Y124.319 E76.75366
G0 F2625 X115.833 Y123.612
G1 F900 X128.904 Y136.683 E77.3694
G0 F2625 X128.904 Y135.975
G1 F900 X115.833 Y122.905 E77.98513
G0 F2625 X115.833 Y122.197
G1 F900 X128.904 Y135.268 E78.60088
G0 F2625 X128.904 Y134.561
G1 F900 X115.833 Y121.49 E79.21663
G0 F2625 X115.833 Y120.783
G1 F900 X128.904 Y133.854 E79.83237
G0 F2625 X128.904 Y133.147
G1 F900 X115.833 Y120.076 E80.44812
G0 F2625 X115.833 Y119.369
G1 F900 X128.904 Y132.44 E81.06387
G0 F2625 X128.904 Y131.733
G1 F900 X115.833 Y118.662 E81.67962
G0 F2625 X115.833 Y117.955
G1 F900 X128.904 Y131.026 E82.29537
G0 F2625 X128.904 Y130.319
G1 F900 X115.833 Y117.248 E82.91111
G0 F2625 X115.833 Y116.541
G1 F900 X128.904 Y129.611 E83.52684
G0 F2625 X128.904 Y128.904
G1 F900 X115.833 Y115.833 E84.14259
G0 F2625 X115.833 Y115.126
G1 F900 X128.904 Y128.197 E84.75834
G0 F2625 X128.904 Y127.49
G1 F900 X115.833 Y114.419 E85.37408
G0 F2625 X115.833 Y113.712
G1 F900 X128.904 Y126.783 E85.98983
G0 F2625 X128.904 Y126.076
G1 F900 X115.833 Y113.005 E86.60558
G0 F2625 X115.833 Y112.298
G1 F900 X128.904 Y125.369 E87.22133
G0 F2625 X128.904 Y124.662
G1 F900 X115.833 Y111.591 E87.83708
G0 F2625 X115.833 Y110.884
G1 F900 X128.904 Y123.955 E88.45282
G0 F2625 X128.904 Y123.248
G1 F900 X115.833 Y110.177 E89.06857
G0 F2625 X115.833 Y109.47
G1 F900 X128.904 Y122.54 E89.6843
G0 F2625 X128.904 Y121.833
G1 F900 X116.42 Y109.349 E90.27239
G0 F2625 X117.127 Y109.349
G1 F900 X128.904 Y121.126 E90.82718
G0 F2625 X128.904 Y120.419
G1 F900 X117.835 Y109.349 E91.34865
G0 F2625 X118.542 Y109.349
G1 F900 X128.904 Y119.712 E91.8368
G0 F2625 X128.904 Y119.005
G1 F900 X119.249 Y109.349 E92.29165
G0 F2625 X119.956 Y109.349
G1 F900 X128.904 Y118.298 E92.7132
G0 F2625 X128.904 Y117.591
G1 F900 X120.663 Y109.349 E93.10144
G0 F2625 X121.37 Y109.349
G1 F900 X128.904 Y116.884 E93.45637
G0 F2625 X128.904 Y116.176
G1 F900 X122.077 Y109.349 E93.77798
G0 F2625 X122.784 Y109.349
G1 F900 X128.904 Y115.469 E94.06628
G0 F2625 X128.904 Y114.762
G1 F900 X123.491 Y109.349 E94.32128
G0 F2625 X124.199 Y109.349
G1 F900 X128.904 Y114.055 E94.54294
G0 F2625 X128.904 Y113.348
G1 F900 X124.906 Y109.349 E94.7313
G0 F2625 X125.613 Y109.349
G1 F900 X128.904 Y112.641 E94.88636
G0 F2625 X128.904 Y111.934
G1 F900 X126.32 Y109.349 E95.00811
G0 F2625 X127.027 Y109.349
G1 F900 X128.904 Y111.227 E95.09656
G0 F2625 X128.904 Y110.52
G1 F900 X127.734 Y109.349 E95.1517
G0 F2625 X128.441 Y109.349
G1 F900 X128.904 Y109.812 E95.17351
G0 F2625 X129.416 Y155.579
G1 F900 X142.486 Y168.649 E95.78921
G0 F2625 X143.193 Y168.649
G1 F900 X130.123 Y155.579 E96.40491
G0 F2625 X130.831 Y155.579
G1 F900 X143.9 Y168.649 E97.02059
G0 F2625 X144.607 Y168.649
G1 F900 X131.538 Y155.579 E97.63626
G0 F2625 X132.245 Y155.579
G1 F900 X145.314 Y168.649 E98.25194
G0 F2625 X145.854 Y169.189
G1 F900 X147.314 Y170.648 E98.3207
G0 F2625 X146.607 Y170.648
G1 F900 X145.854 Y169.896 E98.35614
G1 X145.766 Y169.808
G0 F2625 X148.021 Y170.648
G1 F900 X132.952 Y155.579 E99.06601
G0 F2625 X133.659 Y155.579
G1 F900 X148.728 Y170.648 E99.77588
G0 F2625 X149.435 Y170.648
G1 F900 X134.366 Y155.579 E100.48575
G0 F2625 X135.073 Y155.579
G1 F900 X150.142 Y170.648 E101.19562
G0 F2625 X150.849 Y170.648
G1 F900 X135.78 Y155.579 E101.90549
G0 F2625 X136.487 Y155.579
G1 F900 X151.557 Y170.648 E102.61539
G0 F2625 X152.264 Y170.648
G1 F900 X137.194 Y155.579 E103.32528
G0 F2625 X137.902 Y155.579
G1 F900 X152.971 Y170.648 E104.03515
G0 F2625 X153.678 Y170.648
G1 F900 X138.609 Y155.579 E104.74502
G0 F2625 X139.316 Y155.579
G1 F900 X154.385 Y170.648 E105.45489
G0 F2625 X155.092 Y170.648
G1 F900 X140.023 Y155.579 E106.16476
G0 F2625 X140.73 Y155.579
G1 F900 X155.799 Y170.648 E106.87463
G0 F2625 X156.506 Y170.648
G1 F900 X141.437 Y155.579 E107.5845
G0 F2625 X142.144 Y155.579
G1 F900 X157.213 Y170.648 E108.29437
G0 F2625 X157.92 Y170.648
G1 F900 X142.851 Y155.579 E109.00424
G0 F2625 X143.558 Y155.579
G1 F900 X158.628 Y170.648 E109.71413
G0 F2625 X159.335 Y170.648
G1 F900 X144.266 Y155.579 E110.424
G0 F2625 X144.973 Y155.579
G1 F900 X160.042 Y170.648 E111.13387
G0 F2625 X160.749 Y170.648
G1 F900 X145.68 Y155.579 E111.84374
G0 F2625 X146.387 Y155.579
G1 F900 X161.456 Y170.648 E112.55361
G0 F2625 X162.163 Y170.648
G1 F900 X147.094 Y155.579 E113.26348
G0 F2625 X147.801 Y155.579
G1 F900 X162.87 Y170.648 E113.97335
G0 F2625 X163.577 Y170.648
G1 F900 X148.508 Y155.579 E114.68322
G0 F2625 X149.215 Y155.579
G1 F900 X164.164 Y170.528 E115.38744
G0 F2625 X164.164 Y169.821
G1 F900 X149.922 Y155.579 E116.05835
G0 F2625 X150.63 Y155.579
G1 F900 X164.164 Y169.114 E116.69593
