;Generated by Cura LulzBot Edition GCodeWriter Version: 3.6.18
;FLAVOR:Marlin
;TIME:1555
;Filament used: 0.248892m
;Layer height: 0.18
;Generated with Cura_SteamEngine 3.6.18
M82 ;absolute extrusion mode
;This G-Code has been generated specifically for the LulzBot TAZ 6 with standard extruder
M73 P0 ; clear GLCD progress bar
M75 ; start GLCD timer
G26 ; clear potential 'probe fail' condition
M107 ; disable fans
M420 S0 ; disable previous leveling matrix
G90 ; absolute positioning
M82 ; set extruder to absolute mode
G92 E0 ; set extruder position to 0
M140 S60.0 ; start bed heating up
M109 R140 ; soften filament before homing Z
G28 ; Home all axis
G1 E-30 F100 ; retract filament
M109 R140 ; wait for extruder to reach wiping temp
G1 X-15 Y100 F3000 ; move above wiper pad
G1 Z1 ; push nozzle into wiper
G1 X-17 Y95 F1000 ; slow wipe
G1 X-17 Y90 F1000 ; slow wipe
G1 X-17 Y85 F1000 ; slow wipe
G1 X-15 Y90 F1000 ; slow wipe
G1 X-17 Y80 F1000 ; slow wipe
G1 X-15 Y95 F1000 ; slow wipe
G1 X-17 Y75 F2000 ; fast wipe
G1 X-15 Y65 F2000 ; fast wipe
G1 X-17 Y70 F2000 ; fast wipe
G1 X-15 Y60 F2000 ; fast wipe
G1 X-17 Y55 F2000 ; fast wipe
G1 X-15 Y50 F2000 ; fast wipe
G1 X-17 Y40 F2000 ; fast wipe
G1 X-15 Y45 F2000 ; fast wipe
G1 X-17 Y35 F2000 ; fast wipe
G1 X-15 Y40 F2000 ; fast wipe
G1 X-17 Y70 F2000 ; fast wipe
G1 X-15 Y30 Z2 F2000 ; fast wipe
G1 X-17 Y35 F2000 ; fast wipe
G1 X-15 Y25 F2000 ; fast wipe
G1 X-17 Y30 F2000 ; fast wipe
G1 X-15 Y25 Z1.5 F1000 ; slow wipe
G1 X-17 Y23 F1000 ; slow wipe
G1 Z10 ; raise extruder
M109 R140 ; wait for extruder to reach probe temp
G1 X-9 Y-9 ; move above first probe point
M204 S100 ; set probing acceleration
G29 ; start auto-leveling sequence
M420 S1 ; activate bed level matrix
M425 Z			     ; use measured Z backlash for compensation
M425 Z F0		     ; turn off measured Z backlash compensation. (if activated in the quality settings, this command will automatically be ignored)
M204 S500 ; restore standard acceleration
G1 X0 Y0 Z15 F5000 ; move up off last probe point
G4 S1 ; pause
M400 ; wait for moves to finish
M117 Heating... ; progress indicator message on LCD
M109 R210 ; wait for extruder to reach printing temp
M190 R60.0 ; wait for bed to reach printing temp
G1 Z2 E0 F75 ; prime tiny bit of filament into the nozzle
M117 TAZ 6 Printing... ; progress indicator message on LCD

M221 S100 T0
G92 E0
G1 F600 E-1.75
;LAYER_COUNT:44
;LAYER:0
M107
G0 F2625 X112.751 Y128.002 Z0.425
;TYPE:SKIRT
G1 F600 E0
G1 F900 X113.205 Y127.636 E0.01943
G1 X113.704 Y127.335 E0.03884
G1 X114.24 Y127.106 E0.05825
G1 X114.802 Y126.952 E0.07766
G1 X115.64 Y126.869 E0.10571
G1 X146.361 Y126.87 E1.12904
G1 X146.943 Y126.91 E1.14847
G1 X147.513 Y127.029 E1.16787
G1 X148.062 Y127.225 E1.18729
G1 X148.579 Y127.494 E1.2067
G1 X149.054 Y127.832 E1.22612
G1 X149.478 Y128.231 E1.24551
G1 X149.844 Y128.685 E1.26494
G1 X150.144 Y129.184 E1.28433
G1 X150.374 Y129.72 E1.30376
G1 X150.528 Y130.282 E1.32317
G1 X150.611 Y131.12 E1.35122
G1 X150.61 Y145.076 E1.8161
G1 X150.57 Y145.658 E1.83554
G1 X150.451 Y146.228 E1.85493
G1 X150.255 Y146.777 E1.87435
G1 X149.986 Y147.294 E1.89376
G1 X149.648 Y147.769 E1.91318
G1 X149.349 Y148.097 E1.92797
G1 X145.505 Y151.901 E2.10811
G1 X145.064 Y152.281 E2.1275
G1 X144.575 Y152.598 E2.14691
G1 X144.047 Y152.845 E2.16633
G1 X143.49 Y153.017 E2.18575
G1 X142.915 Y153.111 E2.20516
G1 X142.521 Y153.13 E2.2183
G1 X134.342 Y153.14 E2.49074
G1 X134.273 Y153.14 E2.49304
G1 X127.737 Y153.041 E2.71078
G1 X126.077 Y153.1 E2.76611
G1 X125.932 Y153.103 E2.77094
G1 X115.644 Y153.115 E3.11364
G1 X115.063 Y153.076 E3.13304
G1 X114.492 Y152.957 E3.15247
G1 X113.943 Y152.762 E3.17187
G1 X113.426 Y152.493 E3.19129
G1 X112.95 Y152.156 E3.21071
G1 X112.525 Y151.758 E3.23011
G1 X112.159 Y151.304 E3.24953
G1 X111.858 Y150.805 E3.26894
G1 X111.628 Y150.27 E3.28834
G1 X111.473 Y149.708 E3.30776
G1 X111.389 Y148.865 E3.33598
G1 X111.39 Y131.119 E3.92711
G1 X111.43 Y130.537 E3.94654
G1 X111.549 Y129.967 E3.96594
G1 X111.745 Y129.418 E3.98535
G1 X112.014 Y128.901 E4.00477
G1 X112.352 Y128.426 E4.02419
G1 X112.751 Y128.002 E4.04358
G0 F2625 X113.241 Y128.237
G1 F900 X113.686 Y127.918 E4.06182
G1 X114.173 Y127.668 E4.08005
G1 X114.691 Y127.491 E4.09829
G1 X115.229 Y127.392 E4.11651
G1 X115.64 Y127.369 E4.13022
G1 X146.361 Y127.37 E5.15355
G1 X146.907 Y127.41 E5.17179
G1 X147.441 Y127.529 E5.19001
G1 X147.953 Y127.724 E5.20826
G1 X148.43 Y127.992 E5.22648
G1 X148.863 Y128.327 E5.24472
G1 X149.243 Y128.721 E5.26295
G1 X149.562 Y129.166 E5.28119
G1 X149.812 Y129.653 E5.29943
G1 X149.989 Y130.171 E5.31766
G1 X150.088 Y130.709 E5.33588
G1 X150.111 Y131.12 E5.3496
G1 X150.11 Y145.076 E5.81447
G1 X150.07 Y145.622 E5.83271
G1 X149.951 Y146.156 E5.85094
G1 X149.755 Y146.668 E5.8692
G1 X149.488 Y147.145 E5.88741
G1 X148.998 Y147.741 E5.91311
G1 X145.154 Y151.545 E6.09325
G1 X144.738 Y151.901 E6.11149
G1 X144.274 Y152.192 E6.12973
G1 X143.773 Y152.413 E6.14797
G1 X143.246 Y152.558 E6.16618
G1 X142.521 Y152.63 E6.19045
G1 X134.342 Y152.64 E6.46289
G1 X134.28 Y152.64 E6.46496
G1 X127.747 Y152.541 E6.6826
G1 X126.059 Y152.601 E6.73886
G1 X125.931 Y152.603 E6.74313
G1 X115.643 Y152.615 E7.08583
G1 X115.097 Y152.576 E7.10406
G1 X114.563 Y152.457 E7.12228
G1 X114.052 Y152.262 E7.1405
G1 X113.574 Y151.995 E7.15874
G1 X113.14 Y151.661 E7.17698
G1 X112.76 Y151.268 E7.19519
G1 X112.441 Y150.823 E7.21343
G1 X112.19 Y150.336 E7.23168
G1 X112.012 Y149.819 E7.24989
G1 X111.912 Y149.281 E7.26812
G1 X111.889 Y148.865 E7.282
G1 X111.89 Y131.119 E7.87313
G1 X111.93 Y130.573 E7.89136
G1 X112.049 Y130.039 E7.90959
G1 X112.245 Y129.527 E7.92785
G1 X112.512 Y129.05 E7.94606
G1 X112.847 Y128.617 E7.96429
G1 X113.241 Y128.237 E7.98253
G0 F2625 X113.34 Y128.822
G1 F900 X113.728 Y128.491 E7.99952
G1 X114.162 Y128.225 E8.01647
G1 X114.632 Y128.029 E8.03343
G1 X115.128 Y127.91 E8.05043
G1 X115.64 Y127.869 E8.06753
G1 X146.361 Y127.87 E9.09086
G1 X146.869 Y127.91 E9.10784
G1 X147.365 Y128.029 E9.12483
G1 X147.835 Y128.224 E9.14178
G1 X148.27 Y128.49 E9.15876
G1 X148.657 Y128.82 E9.1757
G1 X148.989 Y129.207 E9.19269
G1 X149.255 Y129.642 E9.20967
G1 X149.451 Y130.112 E9.22663
G1 X149.57 Y130.607 E9.24359
G1 X149.611 Y131.12 E9.26074
G1 X149.61 Y145.076 E9.72562
G1 X149.57 Y145.584 E9.74259
G1 X149.451 Y146.08 E9.75958
G1 X149.256 Y146.55 E9.77653
G1 X148.99 Y146.985 E9.79351
G1 X148.646 Y147.386 E9.81111
G1 X144.802 Y151.19 E9.99126
G1 X144.413 Y151.519 E10.00823
G1 X143.977 Y151.783 E10.02521
G1 X143.505 Y151.976 E10.04219
G1 X143.009 Y152.092 E10.05916
G1 X142.52 Y152.13 E10.0755
G1 X134.341 Y152.14 E10.34794
G1 X134.288 Y152.14 E10.34971
G1 X127.737 Y152.041 E10.56795
G1 X126.042 Y152.101 E10.62445
G1 X125.931 Y152.103 E10.62814
G1 X115.643 Y152.115 E10.97084
G1 X115.135 Y152.076 E10.98781
G1 X114.639 Y151.957 E11.0048
G1 X114.168 Y151.763 E11.02177
G1 X113.733 Y151.498 E11.03874
G1 X113.345 Y151.167 E11.05573
G1 X113.014 Y150.781 E11.07266
G1 X112.746 Y150.347 E11.08966
G1 X112.55 Y149.877 E11.10662
G1 X112.43 Y149.381 E11.12362
G1 X112.389 Y148.865 E11.14086
G1 X112.39 Y131.119 E11.73198
G1 X112.43 Y130.611 E11.74896
G1 X112.549 Y130.115 E11.76595
G1 X112.744 Y129.645 E11.7829
G1 X113.01 Y129.21 E11.79988
G1 X113.34 Y128.822 E11.81685
G1 F600 E10.06685
G0 F2625 X114.969 Y149.018
G0 X115.502 Y149.551
G0 X117.79 Y149.551
G0 X118.323 Y149.018
G0 X119.412 Y140.733
;TYPE:SUPPORT
G1 F600 E11.81685
G1 F900 X120.738 Y140.733 E11.86102
G1 X120.738 Y143.332 E11.94759
G1 X119.412 Y143.332 E11.99176
G1 X119.412 Y140.733 E12.07834
G0 F2625 X120 Y140.983
G1 F900 X120 Y143.082 E12.14826
G1 F600 E10.39826
G0 F2625 X121.827 Y149.018
G0 X122.36 Y149.551
G0 X135.79 Y149.551
G0 X136.323 Y149.018
G0 X137.412 Y143.332
G1 F600 E12.14826
G1 F900 X137.412 Y140.733 E12.23483
G1 X138.738 Y140.733 E12.279
G1 X138.738 Y143.332 E12.36557
G1 X137.412 Y143.332 E12.40974
G1 F600 E10.65974
;MESH:
G0 F2625 X136.323 Y149.018
G0 X135.79 Y149.551
G0 X133.502 Y149.551
G0 X125.185 Y143.332
G0 X123.75 Y143.332
G0 X123.7 Y132.576
G0 X123.77 Y132.646
;TYPE:WALL-INNER
G1 F600 E12.40974
G1 F900 X123.77 Y148.14 E12.92585
G1 X123.238 Y148.14 E12.94357
G1 X123.238 Y132.646 E13.45968
G1 X116.912 Y132.646 E13.67041
G1 X116.912 Y148.14 E14.18652
G1 X116.38 Y148.14 E14.20424
G1 X116.38 Y131.86 E14.74653
G1 X127.62 Y131.86 E15.12094
G1 X127.62 Y132.646 E15.14712
G1 X123.77 Y132.646 E15.27537
G0 F2625 X124.27 Y133.146
;TYPE:WALL-OUTER
G1 F900 X124.27 Y148.64 E15.79148
G1 X122.738 Y148.64 E15.84251
G1 X122.738 Y133.146 E16.35862
G1 X117.412 Y133.146 E16.53603
G1 X117.412 Y148.64 E17.05214
G1 X115.88 Y148.64 E17.10317
G1 X115.88 Y131.36 E17.67877
G1 X128.12 Y131.36 E18.08649
G1 X128.12 Y133.146 E18.14599
G1 X124.27 Y133.146 E18.27423
G0 F2625 X124.27 Y133.396
G0 X123.67 Y133.396
G0 X123.742 Y132.618
G0 X127.395 Y132.344
;TYPE:SKIN
G1 F900 X127.134 Y132.084 E18.2865
G0 F2625 X126.595 Y132.251
G1 F900 X125.887 Y132.251 E18.2935
G1 X122.352 Y132.251 E18.32845
G1 X123.503 Y132.696 E18.34065
G1 X123.503 Y147.545 E18.48745
G0 F2625 X123.544 Y147.586
G0 X123.266 Y132.618
G0 X116.884 Y132.618
G0 X116.686 Y147.799
G0 X116.645 Y147.758
G1 F900 X116.645 Y147.051 E18.49462
G1 X116.645 Y132.909 E18.63803
G1 X116.733 Y132.29 E18.64438
G1 X121.645 Y132.251 E18.69419
G0 F2625 X121.813 Y132.36
G1 F600 E16.94419
G0 F2625 X127.6 Y132.576
G0 X129.035 Y132.576
G0 X132.965 Y132.576
G0 X134.4 Y132.576
G0 X141.7 Y132.576
G0 X141.77 Y132.646
;TYPE:WALL-INNER
G1 F600 E18.69419
G1 F900 X141.77 Y148.14 E19.2103
G1 X141.238 Y148.14 E19.22802
G1 X141.238 Y132.646 E19.74413
G1 X134.912 Y132.646 E19.95485
G1 X134.912 Y148.14 E20.47096
G1 X134.38 Y148.14 E20.48868
G1 X134.38 Y131.86 E21.03098
G1 X145.62 Y131.86 E21.40539
G1 X145.62 Y132.646 E21.43157
G1 X141.77 Y132.646 E21.55981
G0 F2625 X142.27 Y133.146
;TYPE:WALL-OUTER
G1 F900 X142.27 Y148.64 E22.07592
G1 X140.738 Y148.64 E22.12695
G1 X140.738 Y133.146 E22.64307
G1 X135.412 Y133.146 E22.82048
G1 X135.412 Y148.64 E23.33659
G1 X133.88 Y148.64 E23.38762
G1 X133.88 Y131.36 E23.96322
G1 X146.12 Y131.36 E24.37094
G1 X146.12 Y133.146 E24.43043
G1 X142.27 Y133.146 E24.55868
G0 F2625 X142.27 Y133.396
G0 X141.67 Y133.396
G0 X141.742 Y132.618
G0 X145.148 Y132.42
G0 X144.98 Y132.252
;TYPE:SKIN
G1 F900 X144.273 Y132.252 E24.56783
G1 X135.081 Y132.252 E24.6868
G1 X134.645 Y132.523 E24.69345
G1 X134.645 Y147.373 E24.88565
G0 F2625 X134.686 Y147.414
G0 X134.884 Y132.618
G0 X141.266 Y132.618
G0 X141.462 Y147.119
G0 X141.503 Y147.16
M104 S205
G1 F900 X141.503 Y147.867 E24.88955
G1 X141.503 Y133.018 E24.97133
G0 F2625 X141.27 Y132.977
G1 F600 E23.22133
;MESH:NONMESH
G0 F2625 X141.338 Y132.977
G0 X141.266 Y132.618
G0 X134.884 Y132.618
G0 X134.4 Y140.733
G0 X132.965 Y140.733
G0 X124.648 Y149.551
G0 X122.36 Y149.551
G0 X121.827 Y149.018
G0 X120 Y140.733
;TIME_ELAPSED:75.223239
;LAYER:1
M140 S60
M221 S100 T0
M106 S28.3
G0 F6562.5 X120 Y140.733 Z0.605
;TYPE:SUPPORT
G1 F600 E24.97133
G1 F1468.9 X120.738 Y140.733 E24.98174
G1 X120.738 Y143.332 E25.01841
G1 X120 Y143.332 E25.02882
G1 X119.412 Y143.332 E25.03711
G1 X119.412 Y140.733 E25.07378
G1 X120 Y140.733 E25.08208
G1 X120 Y143.332 E25.11874
G1 F600 E23.36874
G0 F6562.5 X121.827 Y149.018
G0 X122.36 Y149.551
G0 X135.79 Y149.551
G0 X136.323 Y149.018
G0 X137.412 Y143.332
G1 F600 E25.11874
G1 F1468.9 X138.738 Y143.332 E25.13745
G1 X138.738 Y140.733 E25.17412
G1 X137.412 Y140.733 E25.19282
G1 X137.412 Y143.332 E25.22949
G1 F600 E23.47949
;MESH:
G0 F6562.5 X136.323 Y149.018
G0 X135.79 Y149.551
G0 X133.502 Y149.551
G0 X125.185 Y143.332
G0 X123.75 Y143.332
G0 X123.7 Y132.576
G0 X123.77 Y132.646
;TYPE:WALL-INNER
G1 F600 E25.22949
G1 F979.3 X123.77 Y148.14 E25.44808
G1 X123.238 Y148.14 E25.45558
G1 X123.238 Y132.646 E25.67417
G1 X116.912 Y132.646 E25.76342
G1 X116.912 Y148.14 E25.98201
G1 X116.38 Y148.14 E25.98951
G1 X116.38 Y131.86 E26.21919
G1 X127.62 Y131.86 E26.37776
G1 X127.62 Y132.646 E26.38885
G1 X123.77 Y132.646 E26.44317
G0 F6562.5 X124.27 Y133.146
;TYPE:WALL-OUTER
G1 F881.3 X124.27 Y148.64 E26.66175
G1 X122.738 Y148.64 E26.68337
G1 X122.738 Y133.146 E26.90196
G1 X117.412 Y133.146 E26.97709
G1 X117.412 Y148.64 E27.19568
G1 X115.88 Y148.64 E27.2173
G1 X115.88 Y131.36 E27.46108
G1 X128.12 Y131.36 E27.63376
G1 X128.12 Y133.146 E27.65896
G1 X124.27 Y133.146 E27.71327
G0 F6562.5 X124.27 Y133.396
G0 X123.67 Y133.396
G0 X123.266 Y132.618
G0 X116.604 Y132.296
G0 X116.71 Y132.19
;TYPE:SKIN
G1 F1175.1 X117.355 Y132.252 E27.7164
G1 X123.012 Y132.252 E27.74371
G1 X123.719 Y132.252 E27.74712
G1 X123.503 Y134.589 E27.75845
G1 X123.503 Y147.317 E27.8199
G0 F6562.5 X123.462 Y147.358
G0 X123.266 Y132.618
G0 X116.884 Y132.618
G0 X116.686 Y147.064
G0 X116.645 Y147.105
G1 F1175.1 X116.645 Y147.812 E27.82152
G1 X116.645 Y132.962 E27.85563
G0 F6562.5 X116.686 Y132.921
G0 X116.884 Y132.618
G0 X124.259 Y132.42
G0 X124.427 Y132.252
G1 F1175.1 X125.134 Y132.252 E27.86422
G1 X127.241 Y132.266 E27.8898
G0 F6562.5 X127.12 Y132.36
G1 F600 E26.1398
G0 F6562.5 X127.6 Y132.576
G0 X129.035 Y132.576
G0 X132.965 Y132.576
G0 X134.4 Y132.576
G0 X141.7 Y132.576
G0 X141.77 Y132.646
;TYPE:WALL-INNER
G1 F600 E27.8898
G1 F979.3 X141.77 Y148.14 E28.10839
G1 X141.238 Y148.14 E28.11589
G1 X141.238 Y132.646 E28.33448
G1 X134.912 Y132.646 E28.42373
G1 X134.912 Y148.14 E28.64231
G1 X134.38 Y148.14 E28.64982
G1 X134.38 Y131.86 E28.8795
G1 X145.62 Y131.86 E29.03807
G1 X145.62 Y132.646 E29.04916
G1 X141.77 Y132.646 E29.10347
G0 F6562.5 X142.27 Y133.146
;TYPE:WALL-OUTER
G1 F881.3 X142.27 Y148.64 E29.32206
G1 X140.738 Y148.64 E29.34368
G1 X140.738 Y133.146 E29.56226
G1 X135.412 Y133.146 E29.6374
G1 X135.412 Y148.64 E29.85599
G1 X133.88 Y148.64 E29.8776
G1 X133.88 Y131.36 E30.12139
G1 X146.12 Y131.36 E30.29407
G1 X146.12 Y133.146 E30.31927
G1 X142.27 Y133.146 E30.37358
G0 F6562.5 X142.27 Y133.396
G0 X141.67 Y133.396
G0 X141.266 Y132.618
G0 X134.865 Y132.421
G0 X135.033 Y132.252
;TYPE:SKIN
G1 F1175.1 X135.74 Y132.252 E30.37578
G1 X134.645 Y132.64 E30.37939
G1 X134.645 Y147.489 E30.42556
G0 F6562.5 X134.604 Y147.53
G0 X134.884 Y132.618
G0 X141.266 Y132.618
G0 X141.463 Y147.743
G0 X141.503 Y147.702
G1 F1175.1 X141.503 Y146.995 E30.42838
G1 X141.503 Y132.853 E30.48474
G1 X141.397 Y132.252 E30.48717
G1 X144.932 Y132.252 E30.50126
G0 F6562.5 X145.101 Y132.084
G0 X140.858 Y132.084
G0 X140.689 Y132.252
G1 F1175.1 X139.982 Y132.252 E30.50932
G1 X136.447 Y132.252 E30.54962
G0 F6562.5 X136.279 Y132.36
G1 F600 E28.79962
;MESH:NONMESH
G0 F6562.5 X134.884 Y132.618
G0 X134.4 Y140.733
G0 X132.965 Y140.733
G0 X124.648 Y149.551
G0 X122.36 Y149.551
G0 X121.827 Y149.018
G0 X120 Y140.733
;TIME_ELAPSED:109.460914
;LAYER:2
M106 S56.7
G0 F10500 X120 Y140.733 Z0.785
;TYPE:SUPPORT
G1 F600 E30.54962
G1 F1651.2 X120.738 Y140.733 E30.56003
G1 X120.738 Y143.332 E30.5967
G1 X120 Y143.332 E30.60711
G1 X119.412 Y143.332 E30.61541
G1 X119.412 Y140.733 E30.65207
G1 X120 Y140.733 E30.66037
G1 X120 Y143.332 E30.69704
G1 F600 E28.94704
G0 F10500 X121.827 Y149.018
G0 X122.36 Y149.551
G0 X135.79 Y149.551
G0 X136.323 Y149.018
G0 X137.412 Y143.332
G1 F600 E30.69704
G1 F1651.2 X138.738 Y143.332 E30.71574
G1 X138.738 Y140.733 E30.75241
G1 X137.412 Y140.733 E30.77112
G1 X137.412 Y143.332 E30.80778
G1 F600 E29.05778
;MESH:
G0 F10500 X136.323 Y149.018
G0 X135.79 Y149.551
G0 X133.502 Y149.551
G0 X125.185 Y143.332
G0 X123.75 Y143.332
G0 X123.7 Y132.576
G0 X123.77 Y132.646
;TYPE:WALL-INNER
G1 F600 E30.80778
G1 F963.2 X123.77 Y148.14 E31.02637
G1 X123.238 Y148.14 E31.03388
G1 X123.238 Y132.646 E31.25246
G1 X116.912 Y132.646 E31.34171
G1 X116.912 Y148.14 E31.5603
G1 X116.38 Y148.14 E31.5678
G1 X116.38 Y131.86 E31.79748
G1 X127.62 Y131.86 E31.95605
G1 X127.62 Y132.646 E31.96714
G1 X123.77 Y132.646 E32.02146
G0 F10500 X124.27 Y133.146
;TYPE:WALL-OUTER
G1 F825.6 X124.27 Y148.64 E32.24005
G1 X122.738 Y148.64 E32.26166
G1 X122.738 Y133.146 E32.48025
G1 X117.412 Y133.146 E32.55539
G1 X117.412 Y148.64 E32.77397
G1 X115.88 Y148.64 E32.79559
G1 X115.88 Y131.36 E33.03937
G1 X128.12 Y131.36 E33.21205
G1 X128.12 Y133.146 E33.23725
G1 X124.27 Y133.146 E33.29157
