;Generated by Cura LulzBot Edition GCodeWriter Version: 3.6.18
;FLAVOR:Marlin
;TIME:10910
;Filament used: 8.66118m
;Layer height: 0.38
;Generated with Cura_SteamEngine 3.6.18
M82 ;absolute extrusion mode
;This G-Code has been generated specifically for the LulzBot TAZ 6 with standard extruder
M73 P0 ; clear GLCD progress bar
M75 ; start GLCD timer
G26 ; clear potential 'probe fail' condition
M107 ; disable fans
M420 S0 ; disable previous leveling matrix
G90 ; absolute positioning
M82 ; set extruder to absolute mode
G92 E0 ; set extruder position to 0
M140 S60.0 ; start bed heating up
M109 R140 ; soften filament before homing Z
G28 ; Home all axis
G1 E-30 F100 ; retract filament
M109 R140 ; wait for extruder to reach wiping temp
G1 X-15 Y100 F3000 ; move above wiper pad
G1 Z1 ; push nozzle into wiper
G1 X-17 Y95 F1000 ; slow wipe
G1 X-17 Y90 F1000 ; slow wipe
G1 X-17 Y85 F1000 ; slow wipe
G1 X-15 Y90 F1000 ; slow wipe
G1 X-17 Y80 F1000 ; slow wipe
G1 X-15 Y95 F1000 ; slow wipe
G1 X-17 Y75 F2000 ; fast wipe
G1 X-15 Y65 F2000 ; fast wipe
G1 X-17 Y70 F2000 ; fast wipe
G1 X-15 Y60 F2000 ; fast wipe
G1 X-17 Y55 F2000 ; fast wipe
G1 X-15 Y50 F2000 ; fast wipe
G1 X-17 Y40 F2000 ; fast wipe
G1 X-15 Y45 F2000 ; fast wipe
G1 X-17 Y35 F2000 ; fast wipe
G1 X-15 Y40 F2000 ; fast wipe
G1 X-17 Y70 F2000 ; fast wipe
G1 X-15 Y30 Z2 F2000 ; fast wipe
G1 X-17 Y35 F2000 ; fast wipe
G1 X-15 Y25 F2000 ; fast wipe
G1 X-17 Y30 F2000 ; fast wipe
G1 X-15 Y25 Z1.5 F1000 ; slow wipe
G1 X-17 Y23 F1000 ; slow wipe
G1 Z10 ; raise extruder
M109 R140 ; wait for extruder to reach probe temp
G1 X-9 Y-9 ; move above first probe point
M204 S100 ; set probing acceleration
G29 ; start auto-leveling sequence
M420 S1 ; activate bed level matrix
M425 Z			     ; use measured Z backlash for compensation
M425 Z F0		     ; turn off measured Z backlash compensation. (if activated in the quality settings, this command will automatically be ignored)
M204 S500 ; restore standard acceleration
G1 X0 Y0 Z15 F5000 ; move up off last probe point
G4 S1 ; pause
M400 ; wait for moves to finish
M117 Heating... ; progress indicator message on LCD
M109 R210 ; wait for extruder to reach printing temp
M190 R60.0 ; wait for bed to reach printing temp
G1 Z2 E0 F75 ; prime tiny bit of filament into the nozzle
M117 TAZ 6 Printing... ; progress indicator message on LCD

M221 S100 T0
G92 E0
G1 F600 E-1.75
;LAYER_COUNT:83
;LAYER:0
M107
G0 F2625 X73.327 Y110.711 Z0.425
;TYPE:SKIRT
G1 F600 E0
G1 F900 X73.762 Y110.445 E0.01698
G1 X74.232 Y110.249 E0.03395
G1 X74.727 Y110.13 E0.05091
G1 X75.24 Y110.089 E0.06805
G1 X204.761 Y110.09 E4.38244
G1 X205.269 Y110.13 E4.39941
G1 X205.764 Y110.249 E4.41637
G1 X206.235 Y110.444 E4.43335
G1 X206.67 Y110.71 E4.45034
G1 X207.057 Y111.04 E4.46728
G1 X207.389 Y111.427 E4.48426
G1 X207.655 Y111.862 E4.50125
G1 X207.851 Y112.332 E4.51821
G1 X207.97 Y112.827 E4.53517
G1 X208.011 Y113.339 E4.55228
G1 X208.02 Y159.403 E6.08669
G1 X208.209 Y166.516 E6.32371
G1 X208.182 Y167.024 E6.34065
G1 X208.077 Y167.523 E6.35764
G1 X207.895 Y167.999 E6.37461
G1 X207.64 Y168.44 E6.39158
G1 X207.258 Y168.9 E6.4115
G1 X207 Y169.158 E6.42365
G1 X206.613 Y169.489 E6.44062
G1 X206.178 Y169.755 E6.4576
G1 X205.708 Y169.95 E6.47455
G1 X205.212 Y170.07 E6.49155
G1 X204.702 Y170.11 E6.50859
G1 X153.28 Y170.11 E8.22148
G1 X152.565 Y170.03 E8.24544
G1 X150.496 Y169.563 E8.31609
G1 X145.088 Y168.557 E8.49933
G1 X139.645 Y167.858 E8.68212
G1 X134.171 Y167.468 E8.86493
G1 X130.036 Y167.38 E9.0027
G1 X75.238 Y167.369 E10.82804
G1 X74.73 Y167.329 E10.84501
G1 X74.235 Y167.21 E10.86197
G1 X73.764 Y167.015 E10.87895
G1 X73.33 Y166.749 E10.89591
G1 X72.942 Y166.418 E10.9129
G1 X72.611 Y166.031 E10.92986
G1 X72.344 Y165.597 E10.94683
G1 X72.149 Y165.126 E10.96381
G1 X72.03 Y164.631 E10.98077
G1 X71.989 Y164.119 E10.99788
G1 X71.99 Y113.339 E12.68938
G1 X72.03 Y112.831 E12.70635
G1 X72.149 Y112.336 E12.72331
G1 X72.344 Y111.865 E12.74029
G1 X72.61 Y111.43 E12.75728
G1 X72.94 Y111.043 E12.77422
G1 X73.327 Y110.711 E12.7912
G1 F600 E11.0412
G0 F2625 X74.569 Y164.258
G0 X75.102 Y164.791
G0 X153.258 Y165.88
;TYPE:SUPPORT
G1 F600 E12.7912
G1 F900 X204.72 Y165.88 E14.50542
G1 X204.72 Y166.503 E14.52617
G1 X204.603 Y166.62 E14.53169
G1 X153.375 Y166.62 E16.23811
G1 X153.258 Y166.503 E16.24362
G1 X153.258 Y165.88 E16.26437
G1 F600 E14.51437
G0 F2625 X155 Y166.08
G1 F600 E16.26437
G1 F900 X155 Y166.42 E16.2757
G1 F600 E14.5257
G0 F2625 X160 Y166.42
G1 F600 E16.2757
G1 F900 X160 Y166.08 E16.28702
G1 F600 E14.53702
G0 F2625 X165 Y166.08
G1 F600 E16.28702
G1 F900 X165 Y166.42 E16.29835
G1 F600 E14.54835
G0 F2625 X170 Y166.42
G1 F600 E16.29835
G1 F900 X170 Y166.08 E16.30968
G1 F600 E14.55968
G0 F2625 X175 Y166.08
G1 F600 E16.30968
G1 F900 X175 Y166.42 E16.321
G1 F600 E14.571
G0 F2625 X180 Y166.42
G1 F600 E16.321
G1 F900 X180 Y166.08 E16.33233
G1 F600 E14.58233
G0 F2625 X185 Y166.08
G1 F600 E16.33233
G1 F900 X185 Y166.42 E16.34365
G1 F600 E14.59365
G0 F2625 X190 Y166.42
G1 F600 E16.34365
G1 F900 X190 Y166.08 E16.35498
G1 F600 E14.60498
G0 F2625 X195 Y166.08
G1 F600 E16.35498
G1 F900 X195 Y166.42 E16.3663
G1 F600 E14.6163
G0 F2625 X200 Y166.42
G1 F600 E16.3663
G1 F900 X200 Y166.08 E16.37763
G1 F600 E14.62763
;MESH:
G0 F2625 X200 Y163.36
G0 X203.95 Y163.31
G0 X204.02 Y163.38
;TYPE:WALL-INNER
G1 F600 E16.37763
G1 F900 X75.98 Y163.38 E20.64269
G1 X75.98 Y114.08 E22.28489
G1 X204.02 Y114.08 E26.54995
G1 X204.02 Y163.38 E28.19215
G0 F2625 X203.95 Y163.31
G0 X109.947 Y145.513
G0 X109.853 Y145.546
G1 F900 X109.51 Y144.789 E28.21983
G1 X109.044 Y144.1 E28.24754
G1 X108.47 Y143.5 E28.2752
G1 X107.801 Y143.005 E28.30292
G1 X107.058 Y142.63 E28.33064
G1 X106.263 Y142.387 E28.35833
G1 X105.438 Y142.282 E28.38604
G1 X104.607 Y142.317 E28.41374
G1 X103.795 Y142.492 E28.44141
G1 X103.023 Y142.802 E28.46912
G1 X102.315 Y143.237 E28.4968
G1 X101.691 Y143.787 E28.52451
G1 X101.168 Y144.435 E28.55225
G1 X100.762 Y145.161 E28.57995
G1 X100.485 Y145.945 E28.60765
G1 X100.345 Y146.765 E28.63536
G1 X100.345 Y147.595 E28.66301
G1 X100.485 Y148.415 E28.69072
G1 X100.762 Y149.199 E28.71842
G1 X101.168 Y149.925 E28.74612
G1 X101.691 Y150.573 E28.77386
G1 X102.315 Y151.123 E28.80157
G1 X103.023 Y151.558 E28.82925
G1 X103.795 Y151.868 E28.85696
G1 X104.607 Y152.043 E28.88463
G1 X105.438 Y152.078 E28.91234
G1 X106.263 Y151.973 E28.94004
G1 X107.058 Y151.73 E28.96773
G1 X107.801 Y151.355 E28.99545
G1 X108.47 Y150.86 E29.02317
G1 X109.044 Y150.26 E29.05083
G1 X109.51 Y149.571 E29.07854
G1 X109.853 Y148.814 E29.10622
G1 X110.062 Y148.008 E29.13396
G1 X110.133 Y147.18 E29.16164
G1 X110.062 Y146.352 E29.18932
G1 X109.853 Y145.546 E29.21706
G0 F2625 X109.947 Y145.513
G0 X110.101 Y146.346
G0 X110.173 Y147.18
G0 X109.959 Y148.799
G0 X109.38 Y148.647
;TYPE:WALL-OUTER
G1 F900 X109.567 Y147.923 E29.24197
G1 X109.631 Y147.18 E29.26681
G1 X109.567 Y146.437 E29.29165
G1 X109.38 Y145.713 E29.31656
G1 X109.072 Y145.034 E29.3414
G1 X108.654 Y144.415 E29.36628
G1 X108.138 Y143.877 E29.39111
G1 X107.538 Y143.432 E29.41599
G1 X106.871 Y143.096 E29.44087
G1 X106.157 Y142.878 E29.46574
G1 X105.417 Y142.783 E29.49059
G1 X104.671 Y142.815 E29.51546
G1 X103.942 Y142.972 E29.5403
G1 X103.249 Y143.25 E29.56517
G1 X102.613 Y143.641 E29.59004
G1 X102.053 Y144.134 E29.61489
G1 X101.584 Y144.716 E29.63979
G1 X101.219 Y145.368 E29.66468
G1 X100.971 Y146.071 E29.68951
G1 X100.845 Y146.807 E29.71439
G1 X100.845 Y147.553 E29.73924
G1 X100.971 Y148.289 E29.76411
G1 X101.219 Y148.992 E29.78894
G1 X101.584 Y149.644 E29.81383
G1 X102.053 Y150.226 E29.83873
G1 X102.613 Y150.719 E29.86358
G1 X103.249 Y151.11 E29.88845
G1 X103.942 Y151.388 E29.91332
G1 X104.671 Y151.545 E29.93816
G1 X105.417 Y151.577 E29.96303
G1 X106.157 Y151.482 E29.98789
G1 X106.871 Y151.264 E30.01275
G1 X107.538 Y150.928 E30.03763
G1 X108.138 Y150.483 E30.06251
G1 X108.654 Y149.945 E30.08735
G1 X109.072 Y149.326 E30.11223
G1 X109.38 Y148.647 E30.13706
G0 F2625 X109.442 Y148.405
G0 X110.022 Y148.557
G0 X203.95 Y163.31
G0 X204.52 Y163.88
G1 F900 X75.48 Y163.88 E34.43543
G1 X75.48 Y113.58 E36.11094
G1 X204.52 Y113.58 E40.40931
G1 X204.52 Y163.88 E42.08482
G0 F2625 X204.27 Y163.88
G0 X203.95 Y163.31
G0 X203.53 Y162.89
;TYPE:SKIN
G1 F900 X76.47 Y162.89 E46.31724
G1 X76.47 Y114.57 E47.92679
G1 X203.53 Y114.57 E52.15921
G1 X203.53 Y162.89 E53.76876
G0 F2625 X110.546 Y148.091
G1 F900 X110.625 Y147.18 E53.79922
G1 X110.546 Y146.269 E53.82968
G1 X110.317 Y145.382 E53.8602
G1 X109.939 Y144.549 E53.89067
G1 X109.426 Y143.791 E53.92116
G1 X108.795 Y143.131 E53.95157
G1 X108.059 Y142.586 E53.98208
G1 X107.242 Y142.173 E54.01257
G1 X106.367 Y141.907 E54.04304
G1 X105.459 Y141.79 E54.07353
G1 X104.544 Y141.829 E54.10404
G1 X103.651 Y142.022 E54.13447
G1 X102.802 Y142.363 E54.16495
G1 X102.023 Y142.841 E54.19539
G1 X101.336 Y143.446 E54.22589
G1 X100.76 Y144.159 E54.25642
G1 X100.314 Y144.959 E54.28693
G1 X100.009 Y145.821 E54.31739
G1 X99.855 Y146.724 E54.3479
G1 X99.855 Y147.636 E54.37828
G1 X100.009 Y148.539 E54.40879
G1 X100.314 Y149.401 E54.43925
G1 X100.76 Y150.201 E54.46976
G1 X101.336 Y150.914 E54.50029
G1 X102.023 Y151.519 E54.53078
G1 X102.802 Y151.997 E54.56123
G1 X103.651 Y152.338 E54.59171
G1 X104.544 Y152.531 E54.62214
G1 X105.459 Y152.57 E54.65264
G1 X106.367 Y152.453 E54.68314
G1 X107.242 Y152.187 E54.7136
G1 X108.059 Y151.774 E54.7441
G1 X108.795 Y151.229 E54.7746
G1 X109.426 Y150.569 E54.80502
G1 X109.939 Y149.811 E54.83551
G1 X110.317 Y148.978 E54.86598
G1 X110.546 Y148.091 E54.89649
G0 F2625 X109.075 Y150.285
G0 X108.496 Y150.89
G0 X107.821 Y151.389
G0 X107.215 Y151.694
G0 X77.104 Y162.664
G1 F900 X76.694 Y162.254 E54.91581
G0 F2625 X76.694 Y161.547
G1 F900 X77.811 Y162.664 E54.96843
G0 F2625 X78.518 Y162.664
G1 F900 X76.694 Y160.84 E55.05435
G0 F2625 X76.694 Y160.133
G1 F900 X79.225 Y162.664 E55.17358
G0 F2625 X79.932 Y162.664
G1 F900 X76.694 Y159.426 E55.32612
G0 F2625 X76.694 Y158.719
G1 F900 X80.639 Y162.664 E55.51196
G0 F2625 X81.346 Y162.664
G1 F900 X76.694 Y158.012 E55.73111
G0 F2625 X76.694 Y157.305
G1 F900 X82.054 Y162.664 E55.98358
G0 F2625 X82.761 Y162.664
G1 F900 X76.694 Y156.597 E56.26939
G0 F2625 X76.694 Y155.89
G1 F900 X83.468 Y162.664 E56.58849
G0 F2625 X84.175 Y162.664
G1 F900 X76.694 Y155.183 E56.94091
G0 F2625 X76.694 Y154.476
G1 F900 X84.882 Y162.664 E57.32663
G0 F2625 X85.589 Y162.664
G1 F900 X76.694 Y153.769 E57.74565
G0 F2625 X76.694 Y153.062
G1 F900 X86.296 Y162.664 E58.19799
G0 F2625 X87.003 Y162.664
G1 F900 X76.694 Y152.355 E58.68362
G0 F2625 X76.694 Y151.648
G1 F900 X87.71 Y162.664 E59.20256
G0 F2625 X88.418 Y162.664
G1 F900 X76.694 Y150.941 E59.75483
G0 F2625 X76.694 Y150.234
G1 F900 X89.125 Y162.664 E60.34041
G0 F2625 X89.832 Y162.664
G1 F900 X76.694 Y149.526 E60.95931
G0 F2625 X76.694 Y148.819
G1 F900 X90.539 Y162.664 E61.61152
G0 F2625 X91.246 Y162.664
G1 F900 X76.694 Y148.112 E62.29704
G0 F2625 X76.694 Y147.405
G1 F900 X91.953 Y162.664 E63.01586
G0 F2625 X92.66 Y162.664
G1 F900 X76.694 Y146.698 E63.76798
G0 F2625 X76.694 Y145.991
G1 F900 X93.367 Y162.664 E64.55342
G0 F2625 X94.074 Y162.664
G1 F900 X76.694 Y145.284 E65.37215
G0 F2625 X76.694 Y144.577
G1 F900 X94.782 Y162.664 E66.22422
G0 F2625 X95.489 Y162.664
G1 F900 X76.694 Y143.87 E67.10959
G0 F2625 X76.694 Y143.162
G1 F900 X96.196 Y162.664 E68.02829
G0 F2625 X96.903 Y162.664
G1 F900 X76.694 Y142.455 E68.98029
G0 F2625 X76.694 Y141.748
G1 F900 X97.61 Y162.664 E69.9656
G0 F2625 X98.317 Y162.664
G1 F900 X76.694 Y141.041 E70.98422
G0 F2625 X76.694 Y140.334
G1 F900 X99.024 Y162.664 E72.03614
G0 F2625 X99.731 Y162.664
G1 F900 X76.694 Y139.627 E73.12136
G0 F2625 X76.694 Y138.92
G1 F900 X100.438 Y162.664 E74.2399
G0 F2625 X101.145 Y162.664
G1 F900 X76.694 Y138.213 E75.39173
G0 F2625 X76.694 Y137.506
G1 F900 X101.853 Y162.664 E76.5769
G0 F2625 X102.56 Y162.664
G1 F900 X76.694 Y136.798 E77.79539
G0 F2625 X76.694 Y136.091
G1 F900 X103.267 Y162.664 E79.04719
G0 F2625 X103.974 Y162.664
G1 F900 X76.694 Y135.384 E80.3323
G0 F2625 X76.694 Y134.677
G1 F900 X104.681 Y162.664 E81.65071
G0 F2625 X105.388 Y162.664
G1 F900 X76.694 Y133.97 E83.00242
G0 F2625 X76.694 Y133.263
G1 F900 X106.095 Y162.664 E84.38745
G0 F2625 X106.802 Y162.664
G1 F900 X76.694 Y132.556 E85.80577
G0 F2625 X76.694 Y131.849
G1 F900 X107.509 Y162.664 E87.2574
G0 F2625 X108.217 Y162.664
G1 F900 X76.694 Y131.142 E88.74237
G0 F2625 X76.694 Y130.435
G1 F900 X108.924 Y162.664 E90.26063
G0 F2625 X109.631 Y162.664
G1 F900 X76.694 Y129.727 E91.81223
G0 F2625 X76.694 Y129.02
G1 F900 X110.338 Y162.664 E93.39713
G0 F2625 X111.045 Y162.664
G1 F900 X76.694 Y128.313 E95.01533
G0 F2625 X76.694 Y127.606
G1 F900 X111.752 Y162.664 E96.66684
G0 F2625 X112.459 Y162.664
G1 F900 X76.694 Y126.899 E98.35166
G0 F2625 X76.694 Y126.192
G1 F900 X100.249 Y149.746 E99.46126
G1 X100.337 Y149.834
G0 F2625 X99.788 Y148.578
G1 F900 X76.694 Y125.485 E100.54915
G0 F2625 X76.694 Y124.778
G1 F900 X99.642 Y147.725 E101.63016
G0 F2625 X99.629 Y147.006
G1 F900 X76.694 Y124.071 E102.71058
G0 F2625 X76.694 Y123.363
G1 F900 X99.689 Y146.358 E103.79383
G0 F2625 X99.793 Y145.755
G1 F900 X76.694 Y122.656 E104.88198
G0 F2625 X76.694 Y121.949
G1 F900 X99.979 Y145.234 E105.97889
G0 F2625 X100.183 Y144.731
G1 F900 X76.694 Y121.242 E107.08541
G0 F2625 X76.694 Y120.535
G1 F900 X100.436 Y144.277 E108.20384
G0 F2625 X100.718 Y143.851
G1 F900 X76.694 Y119.828 E109.33554
G0 F2625 X76.694 Y119.121
G1 F900 X101.034 Y143.461 E110.48215
G0 F2625 X101.383 Y143.102
G1 F900 X76.694 Y118.414 E111.64517
G0 F2625 X76.694 Y117.707
G1 F900 X101.759 Y142.771 E112.82591
G0 F2625 X102.176 Y142.481
G1 F900 X76.694 Y117 E114.02629
G0 F2625 X76.694 Y116.292
G1 F900 X102.613 Y142.211 E115.24728
G0 F2625 X103.105 Y141.996
G1 F900 X76.694 Y115.585 E116.49145
G0 F2625 X76.694 Y114.878
G1 F900 X103.613 Y141.797 E117.75955
G0 F2625 X104.195 Y141.672
G1 F900 X77.317 Y114.794 E119.02572
G0 F2625 X78.024 Y114.794
G1 F900 X104.821 Y141.591 E120.28807
G0 F2625 X105.505 Y141.567
G1 F900 X78.732 Y114.794 E121.54929
G0 F2625 X79.439 Y114.794
G1 F900 X106.318 Y141.673 E122.81551
G1 X106.406 Y141.761
G0 F2625 X107.309 Y141.958
G1 F900 X80.146 Y114.794 E124.09513
G0 F2625 X80.853 Y114.794
G1 F900 X128.723 Y162.664 E126.35018
G0 F2625 X129.43 Y162.664
G1 F900 X81.56 Y114.794 E128.60524
G0 F2625 X82.267 Y114.794
G1 F900 X130.137 Y162.664 E130.8603
G0 F2625 X130.844 Y162.664
G1 F900 X82.974 Y114.794 E133.11536
G0 F2625 X83.681 Y114.794
G1 F900 X131.551 Y162.664 E135.37042
G0 F2625 X132.258 Y162.664
G1 F900 X84.388 Y114.794 E137.62547
G0 F2625 X85.096 Y114.794
G1 F900 X132.965 Y162.664 E139.88051
G0 F2625 X133.672 Y162.664
G1 F900 X85.803 Y114.794 E142.13554
G0 F2625 X86.51 Y114.794
G1 F900 X134.379 Y162.664 E144.39058
G0 F2625 X135.087 Y162.664
G1 F900 X87.217 Y114.794 E146.64564
G0 F2625 X87.924 Y114.794
G1 F900 X135.794 Y162.664 E148.9007
G0 F2625 X136.501 Y162.664
G1 F900 X88.631 Y114.794 E151.15575
G0 F2625 X89.338 Y114.794
G1 F900 X137.208 Y162.664 E153.41081
G0 F2625 X137.915 Y162.664
G1 F900 X90.045 Y114.794 E155.66587
G0 F2625 X90.752 Y114.794
G1 F900 X138.622 Y162.664 E157.92093
G0 F2625 X139.329 Y162.664
G1 F900 X91.46 Y114.794 E160.17596
G0 F2625 X92.167 Y114.794
G1 F900 X140.036 Y162.664 E162.431
G0 F2625 X140.743 Y162.664
G1 F900 X92.874 Y114.794 E164.68603
G0 F2625 X93.581 Y114.794
G1 F900 X141.451 Y162.664 E166.94109
G0 F2625 X142.158 Y162.664
G1 F900 X94.288 Y114.794 E169.19615
G0 F2625 X94.995 Y114.794
G1 F900 X142.865 Y162.664 E171.45121
G0 F2625 X143.572 Y162.664
G1 F900 X95.702 Y114.794 E173.70626
G0 F2625 X96.409 Y114.794
G1 F900 X144.279 Y162.664 E175.96132
G0 F2625 X144.986 Y162.664
G1 F900 X97.116 Y114.794 E178.21638
G0 F2625 X97.823 Y114.794
G1 F900 X145.693 Y162.664 E180.47144
G0 F2625 X146.4 Y162.664
G1 F900 X98.531 Y114.794 E182.72647
G0 F2625 X99.238 Y114.794
G1 F900 X147.107 Y162.664 E184.98151
G0 F2625 X147.815 Y162.664
G1 F900 X99.945 Y114.794 E187.23657
G0 F2625 X100.652 Y114.794
G1 F900 X148.522 Y162.664 E189.49163
G0 F2625 X149.229 Y162.664
G1 F900 X101.359 Y114.794 E191.74668
G0 F2625 X102.066 Y114.794
