;Generated by Cura LulzBot Edition GCodeWriter Version: 3.6.18
;FLAVOR:Marlin
;TIME:10910
;Filament used: 5.07853m
;Layer height: 0.25
;Generated with Cura_SteamEngine 3.6.18
M82 ;absolute extrusion mode
;This G-Code has been generated specifically for the LulzBot TAZ 6 with standard extruder
M73 P0 ; clear GLCD progress bar
M75 ; start GLCD timer
G26 ; clear potential 'probe fail' condition
M107 ; disable fans
M420 S0 ; disable previous leveling matrix
G90 ; absolute positioning
M82 ; set extruder to absolute mode
G92 E0 ; set extruder position to 0
M140 S60.0 ; start bed heating up
M109 R140 ; soften filament before homing Z
G28 ; Home all axis
G1 E-30 F100 ; retract filament
M109 R140 ; wait for extruder to reach wiping temp
G1 X-15 Y100 F3000 ; move above wiper pad
G1 Z1 ; push nozzle into wiper
G1 X-17 Y95 F1000 ; slow wipe
G1 X-17 Y90 F1000 ; slow wipe
G1 X-17 Y85 F1000 ; slow wipe
G1 X-15 Y90 F1000 ; slow wipe
G1 X-17 Y80 F1000 ; slow wipe
G1 X-15 Y95 F1000 ; slow wipe
G1 X-17 Y75 F2000 ; fast wipe
G1 X-15 Y65 F2000 ; fast wipe
G1 X-17 Y70 F2000 ; fast wipe
G1 X-15 Y60 F2000 ; fast wipe
G1 X-17 Y55 F2000 ; fast wipe
G1 X-15 Y50 F2000 ; fast wipe
G1 X-17 Y40 F2000 ; fast wipe
G1 X-15 Y45 F2000 ; fast wipe
G1 X-17 Y35 F2000 ; fast wipe
G1 X-15 Y40 F2000 ; fast wipe
G1 X-17 Y70 F2000 ; fast wipe
G1 X-15 Y30 Z2 F2000 ; fast wipe
G1 X-17 Y35 F2000 ; fast wipe
G1 X-15 Y25 F2000 ; fast wipe
G1 X-17 Y30 F2000 ; fast wipe
G1 X-15 Y25 Z1.5 F1000 ; slow wipe
G1 X-17 Y23 F1000 ; slow wipe
G1 Z10 ; raise extruder
M109 R140 ; wait for extruder to reach probe temp
G1 X-9 Y-9 ; move above first probe point
M204 S100 ; set probing acceleration
G29 ; start auto-leveling sequence
M420 S1 ; activate bed level matrix
M425 Z			     ; use measured Z backlash for compensation
M425 Z F0		     ; turn off measured Z backlash compensation. (if activated in the quality settings, this command will automatically be ignored)
M204 S500 ; restore standard acceleration
G1 X0 Y0 Z15 F5000 ; move up off last probe point
G4 S1 ; pause
M400 ; wait for moves to finish
M117 Heating... ; progress indicator message on LCD
M109 R210 ; wait for extruder to reach printing temp
M190 R60.0 ; wait for bed to reach printing temp
G1 Z2 E0 F75 ; prime tiny bit of filament into the nozzle
M117 TAZ 6 Printing... ; progress indicator message on LCD

M221 S100 T0
G92 E0
G1 F600 E-1.75
;LAYER_COUNT:232
;LAYER:0
M107
G0 F2625 X92.742 Y95.515 Z0.425
;TYPE:SKIRT
G1 F600 E0
G1 F900 X93.13 Y95.185 E0.01697
G1 X93.565 Y94.92 E0.03393
G1 X94.036 Y94.725 E0.05091
G1 X94.531 Y94.607 E0.06787
G1 X95.035 Y94.568 E0.0847
G1 X164.378 Y94.568 E2.39454
G1 X164.886 Y94.608 E2.41152
G1 X165.381 Y94.727 E2.42848
G1 X165.852 Y94.922 E2.44546
G1 X166.287 Y95.188 E2.46244
G1 X166.583 Y95.431 E2.4752
G1 X166.675 Y95.516 E2.47937
G1 X166.798 Y95.636 E2.48509
G1 X166.984 Y95.827 E2.49398
G1 X167.31 Y96.218 E2.51093
G1 X167.571 Y96.656 E2.52792
G1 X167.76 Y97.129 E2.54488
G1 X167.872 Y97.626 E2.56185
G1 X167.906 Y98.094 E2.57748
G1 X167.907 Y119.949 E3.30548
G1 X167.821 Y120.692 E3.3304
G1 X166.88 Y124.698 E3.46747
G1 X166.344 Y127.364 E3.55805
G1 X165.89 Y130.03 E3.64814
G1 X165.191 Y135.49 E3.8315
G1 X164.804 Y140.962 E4.01423
G1 X164.718 Y145.037 E4.15
G1 X164.708 Y168 E4.9149
G1 X164.668 Y168.508 E4.93188
G1 X164.549 Y169.004 E4.94887
G1 X164.354 Y169.474 E4.96582
G1 X164.088 Y169.909 E4.9828
G1 X163.757 Y170.296 E4.99976
G1 X163.369 Y170.627 E5.01675
G1 X162.935 Y170.894 E5.03373
G1 X162.465 Y171.089 E5.05068
G1 X161.969 Y171.209 E5.06767
G1 X161.458 Y171.249 E5.08475
G1 X97.977 Y171.249 E7.19932
G1 X97.469 Y171.209 E7.2163
G1 X96.974 Y171.09 E7.23325
G1 X96.503 Y170.895 E7.25024
G1 X96.068 Y170.629 E7.26722
G1 X95.681 Y170.299 E7.28416
G1 X95.349 Y169.912 E7.30115
G1 X95.083 Y169.477 E7.31813
G1 X94.887 Y169.007 E7.33509
G1 X94.768 Y168.512 E7.35205
G1 X94.727 Y168 E7.36916
G1 X94.718 Y145.036 E8.1341
G1 X94.561 Y139.505 E8.31841
G1 X94.099 Y134.063 E8.50034
G1 X93.329 Y128.662 E8.68207
G1 X92.237 Y123.215 E8.86712
G1 X91.61 Y120.507 E8.95971
G1 X91.526 Y119.772 E8.98435
G1 X91.538 Y98.062 E9.70752
G1 X91.578 Y97.554 E9.7245
G1 X91.697 Y97.059 E9.74146
G1 X91.892 Y96.588 E9.75844
G1 X92.159 Y96.154 E9.77541
G1 X92.495 Y95.761 E9.79263
G1 X92.742 Y95.515 E9.80424
G1 F600 E8.05424
G0 F2625 X95.135 Y98.058
;TYPE:SUPPORT
G1 F600 E9.80424
G1 F900 X164.28 Y98.058 E12.10749
G1 X164.415 Y98.193 E12.11385
G1 X164.418 Y119.841 E12.83495
G1 X164.301 Y119.958 E12.84046
G1 X163.218 Y119.958 E12.87654
G1 X163.218 Y119.429 E12.89416
G1 X162.047 Y118.258 E12.94932
G1 X97.389 Y118.258 E15.1031
G1 X96.218 Y119.429 E15.15827
G1 X96.218 Y119.958 E15.17589
G1 X95.156 Y119.958 E15.21126
G1 X95.021 Y119.823 E15.21762
G1 X95.018 Y98.175 E15.93873
G1 X95.135 Y98.058 E15.94424
G1 F600 E14.19424
G0 F2625 X95.218 Y100
G1 F600 E15.94424
G1 F900 X164.216 Y100 E18.24259
G1 F600 E16.49259
G0 F2625 X160 Y98.258
G1 F600 E18.24259
G1 F900 X160 Y118.058 E18.90213
G1 F600 E17.15213
G0 F2625 X155 Y118.058
G1 F600 E18.90213
G1 F900 X155 Y98.258 E19.56168
G1 F600 E17.81168
G0 F2625 X150 Y98.258
G1 F600 E19.56168
G1 F900 X150 Y118.058 E20.22122
G1 F600 E18.47122
G0 F2625 X145 Y118.058
G1 F600 E20.22122
G1 F900 X145 Y98.258 E20.88077
G1 F600 E19.13077
G0 F2625 X140 Y98.258
G1 F600 E20.88077
G1 F900 X140 Y118.058 E21.54031
G1 F600 E19.79031
G0 F2625 X135 Y118.058
G1 F600 E21.54031
G1 F900 X135 Y98.258 E22.19986
G1 F600 E20.44986
G0 F2625 X130 Y98.258
G1 F600 E22.19986
G1 F900 X130 Y118.058 E22.8594
G1 F600 E21.1094
G0 F2625 X125 Y118.058
G1 F600 E22.8594
G1 F900 X125 Y98.258 E23.51895
G1 F600 E21.76895
G0 F2625 X120 Y98.258
G1 F600 E23.51895
G1 F900 X120 Y118.058 E24.17849
G1 F600 E22.42849
G0 F2625 X115 Y118.058
G1 F600 E24.17849
G1 F900 X115 Y98.258 E24.83804
G1 F600 E23.08804
G0 F2625 X110 Y98.258
G1 F600 E24.83804
G1 F900 X110 Y118.058 E25.49758
G1 F600 E23.74758
G0 F2625 X105 Y118.058
G1 F600 E25.49758
G1 F900 X105 Y98.258 E26.15713
G1 F600 E24.40713
G0 F2625 X100 Y98.258
G1 F600 E26.15713
G1 F900 X100 Y118.058 E26.81667
G1 F600 E25.06667
G0 F2625 X95.22 Y115
G1 F600 E26.81667
G1 F900 X164.218 Y115 E29.11502
G1 F600 E27.36502
G0 F2625 X164.217 Y110
G1 F600 E29.11502
G1 F900 X95.219 Y110 E31.41337
G1 F600 E29.66337
G0 F2625 X95.218 Y105
G1 F600 E31.41337
G1 F900 X164.216 Y105 E33.71172
G1 F600 E31.96172
;MESH:
G0 F2625 X160.704 Y119.343
G0 X160.704 Y120.772
G0 X160.648 Y167.188
G0 X160.718 Y167.258
;TYPE:WALL-INNER
G1 F600 E33.71172
G1 F900 X98.718 Y167.258 E35.77696
G1 X98.718 Y120.758 E37.32589
G1 X160.718 Y120.758 E39.39113
G1 X160.718 Y167.258 E40.94007
G0 F2625 X161.218 Y167.758
;TYPE:WALL-OUTER
G1 F900 X98.218 Y167.758 E43.03862
G1 X98.218 Y120.258 E44.62086
G1 X161.218 Y120.258 E46.71941
G1 X161.218 Y167.758 E48.30166
G0 F2625 X160.968 Y167.758
G0 X160.648 Y167.188
G0 X160.228 Y166.768
;TYPE:SKIN
G1 F900 X99.208 Y166.768 E50.33425
G1 X99.208 Y121.248 E51.85054
G1 X160.228 Y121.248 E53.88314
G1 X160.228 Y166.768 E55.39943
G0 F2625 X160.002 Y121.818
G1 F900 X159.656 Y121.473 E55.4157
G0 F2625 X158.949 Y121.473
G1 F900 X160.002 Y122.526 E55.46531
G0 F2625 X160.002 Y123.233
G1 F900 X158.242 Y121.473 E55.54822
G0 F2625 X157.535 Y121.473
G1 F900 X160.002 Y123.94 E55.66443
G0 F2625 X160.002 Y124.647
G1 F900 X156.828 Y121.473 E55.81395
G0 F2625 X156.121 Y121.473
G1 F900 X160.002 Y125.354 E55.99678
G0 F2625 X160.002 Y126.061
G1 F900 X155.414 Y121.473 E56.21291
G0 F2625 X154.707 Y121.473
G1 F900 X160.002 Y126.768 E56.46235
G0 F2625 X160.002 Y127.475
G1 F900 X154 Y121.473 E56.74509
G0 F2625 X153.292 Y121.473
G1 F900 X160.002 Y128.182 E57.06116
G0 F2625 X160.002 Y128.89
G1 F900 X152.585 Y121.473 E57.41056
G0 F2625 X151.878 Y121.473
G1 F900 X160.002 Y129.597 E57.79327
G0 F2625 X160.002 Y130.304
G1 F900 X151.171 Y121.473 E58.20928
G0 F2625 X150.464 Y121.473
G1 F900 X160.002 Y131.011 E58.65859
G0 F2625 X160.002 Y131.718
G1 F900 X149.757 Y121.473 E59.14121
G0 F2625 X149.05 Y121.473
G1 F900 X160.002 Y132.425 E59.65714
G0 F2625 X160.002 Y133.132
G1 F900 X148.343 Y121.473 E60.20637
G0 F2625 X147.636 Y121.473
G1 F900 X160.002 Y133.839 E60.78891
G0 F2625 X160.002 Y134.546
G1 F900 X146.929 Y121.473 E61.40475
G0 F2625 X146.221 Y121.473
G1 F900 X160.002 Y135.253 E62.05392
G0 F2625 X160.002 Y135.961
G1 F900 X145.514 Y121.473 E62.73642
G0 F2625 X144.807 Y121.473
G1 F900 X160.002 Y136.668 E63.45223
G0 F2625 X160.002 Y137.375
G1 F900 X144.1 Y121.473 E64.20134
G0 F2625 X143.393 Y121.473
G1 F900 X160.002 Y138.082 E64.98376
G0 F2625 X160.002 Y138.789
G1 F900 X142.686 Y121.473 E65.79948
G0 F2625 X141.979 Y121.473
G1 F900 X160.002 Y139.496 E66.6485
G0 F2625 X160.002 Y140.203
G1 F900 X141.272 Y121.473 E67.53084
G0 F2625 X140.565 Y121.473
G1 F900 X160.002 Y140.91 E68.44647
G0 F2625 X160.002 Y141.617
G1 F900 X139.857 Y121.473 E69.39544
G0 F2625 X139.15 Y121.473
G1 F900 X160.002 Y142.325 E70.37773
G0 F2625 X160.002 Y143.032
G1 F900 X138.443 Y121.473 E71.39334
G0 F2625 X137.736 Y121.473
G1 F900 X160.002 Y143.739 E72.44224
G0 F2625 X160.002 Y144.446
G1 F900 X137.029 Y121.473 E73.52445
G0 F2625 X136.322 Y121.473
G1 F900 X160.002 Y145.153 E74.63997
G0 F2625 X160.002 Y145.86
G1 F900 X135.615 Y121.473 E75.78879
G0 F2625 X134.908 Y121.473
G1 F900 X160.002 Y146.567 E76.97092
G0 F2625 X160.002 Y147.274
G1 F900 X134.201 Y121.473 E78.18635
G0 F2625 X133.493 Y121.473
G1 F900 X160.002 Y147.981 E79.43511
G0 F2625 X160.002 Y148.688
G1 F900 X132.786 Y121.473 E80.71718
G0 F2625 X132.079 Y121.473
G1 F900 X160.002 Y149.396 E82.03257
G0 F2625 X160.002 Y150.103
G1 F900 X131.372 Y121.473 E83.38128
G0 F2625 X130.665 Y121.473
G1 F900 X160.002 Y150.81 E84.76328
G0 F2625 X160.002 Y151.517
G1 F900 X129.958 Y121.473 E86.17859
G0 F2625 X129.251 Y121.473
G1 F900 X160.002 Y152.224 E87.62721
G0 F2625 X160.002 Y152.931
G1 F900 X128.544 Y121.473 E89.10913
G0 F2625 X127.837 Y121.473
G1 F900 X160.002 Y153.638 E90.62436
G0 F2625 X160.002 Y154.345
G1 F900 X127.13 Y121.473 E92.17289
G0 F2625 X126.422 Y121.473
G1 F900 X160.002 Y155.052 E93.75476
G0 F2625 X160.002 Y155.76
G1 F900 X125.715 Y121.473 E95.36995
G0 F2625 X125.008 Y121.473
G1 F900 X160.002 Y156.467 E97.01844
G0 F2625 X160.002 Y157.174
G1 F900 X124.301 Y121.473 E98.70024
G0 F2625 X123.594 Y121.473
G1 F900 X160.002 Y157.881 E100.41535
G0 F2625 X160.002 Y158.588
G1 F900 X122.887 Y121.473 E102.16376
G0 F2625 X122.18 Y121.473
G1 F900 X160.002 Y159.295 E103.94548
G0 F2625 X160.002 Y160.002
G1 F900 X121.473 Y121.473 E105.7605
G0 F2625 X120.766 Y121.473
G1 F900 X160.002 Y160.709 E107.60883
G0 F2625 X160.002 Y161.416
G1 F900 X120.058 Y121.473 E109.49049
G0 F2625 X119.351 Y121.473
G1 F900 X160.002 Y162.124 E111.40547
G0 F2625 X160.002 Y162.831
G1 F900 X118.644 Y121.473 E113.35376
G0 F2625 X117.937 Y121.473
G1 F900 X160.002 Y163.538 E115.33536
G0 F2625 X160.002 Y164.245
G1 F900 X117.23 Y121.473 E117.35026
G0 F2625 X116.523 Y121.473
G1 F900 X160.002 Y164.952 E119.39847
G0 F2625 X160.002 Y165.659
G1 F900 X115.816 Y121.473 E121.47998
G0 F2625 X115.109 Y121.473
G1 F900 X160.002 Y166.366 E123.5948
G0 F2625 X159.47 Y166.542
G1 F900 X114.402 Y121.473 E125.71789
G0 F2625 X113.694 Y121.473
G1 F900 X158.763 Y166.542 E127.84099
G0 F2625 X158.056 Y166.542
G1 F900 X112.987 Y121.473 E129.9641
G0 F2625 X112.28 Y121.473
G1 F900 X157.349 Y166.542 E132.08721
G0 F2625 X156.642 Y166.542
G1 F900 X111.573 Y121.473 E134.21032
G0 F2625 X110.866 Y121.473
G1 F900 X155.935 Y166.542 E136.33343
G0 F2625 X155.228 Y166.542
G1 F900 X110.159 Y121.473 E138.45654
G0 F2625 X109.452 Y121.473
G1 F900 X154.521 Y166.542 E140.57965
G0 F2625 X153.814 Y166.542
G1 F900 X108.745 Y121.473 E142.70276
G0 F2625 X108.038 Y121.473
G1 F900 X153.107 Y166.542 E144.82586
G0 F2625 X152.399 Y166.542
G1 F900 X107.331 Y121.473 E146.94895
G0 F2625 X106.623 Y121.473
G1 F900 X151.692 Y166.542 E149.07206
G0 F2625 X150.985 Y166.542
G1 F900 X105.916 Y121.473 E151.19517
G0 F2625 X105.209 Y121.473
G1 F900 X150.278 Y166.542 E153.31828
G0 F2625 X149.571 Y166.542
G1 F900 X104.502 Y121.473 E155.44139
G0 F2625 X103.795 Y121.473
G1 F900 X148.864 Y166.542 E157.56449
G0 F2625 X148.157 Y166.542
G1 F900 X103.088 Y121.473 E159.6876
G0 F2625 X102.381 Y121.473
G1 F900 X147.45 Y166.542 E161.81071
G0 F2625 X146.743 Y166.542
G1 F900 X101.674 Y121.473 E163.93382
G0 F2625 X100.967 Y121.473
G1 F900 X146.035 Y166.542 E166.05691
G0 F2625 X145.328 Y166.542
G1 F900 X100.259 Y121.473 E168.18001
G0 F2625 X99.552 Y121.473
G1 F900 X144.621 Y166.542 E170.30312
G0 F2625 X143.914 Y166.542
G1 F900 X99.433 Y122.06 E172.39856
G0 F2625 X99.433 Y122.767
G1 F900 X143.207 Y166.542 E174.46068
G0 F2625 X142.5 Y166.542
G1 F900 X99.433 Y123.474 E176.48951
G0 F2625 X99.433 Y124.182
G1 F900 X141.793 Y166.542 E178.485
G0 F2625 X141.086 Y166.542
G1 F900 X99.433 Y124.889 E180.44719
G0 F2625 X99.433 Y125.596
G1 F900 X140.379 Y166.542 E182.37607
G0 F2625 X139.671 Y166.542
G1 F900 X99.433 Y126.303 E184.27162
G0 F2625 X99.433 Y127.01
G1 F900 X138.964 Y166.542 E186.13387
G0 F2625 X138.257 Y166.542
G1 F900 X99.433 Y127.717 E187.96282
G0 F2625 X99.433 Y128.424
G1 F900 X137.55 Y166.542 E189.75845
G0 F2625 X136.843 Y166.542
G1 F900 X99.433 Y129.131 E191.52079
G0 F2625 X99.433 Y129.838
G1 F900 X136.136 Y166.542 E193.24981
G0 F2625 X135.429 Y166.542
G1 F900 X99.433 Y130.546 E194.94551
G0 F2625 X99.433 Y131.253
G1 F900 X134.722 Y166.542 E196.6079
G0 F2625 X134.015 Y166.542
G1 F900 X99.433 Y131.96 E198.23699
G0 F2625 X99.433 Y132.667
G1 F900 X133.308 Y166.542 E199.83277
G0 F2625 X132.6 Y166.542
G1 F900 X99.433 Y133.374 E201.39523
G0 F2625 X99.433 Y134.081
G1 F900 X131.893 Y166.542 E202.92438
G0 F2625 X131.186 Y166.542
G1 F900 X99.433 Y134.788 E204.42022
G0 F2625 X99.433 Y135.495
G1 F900 X130.479 Y166.542 E205.88276
G0 F2625 X129.772 Y166.542
G1 F900 X99.433 Y136.202 E207.31199
G0 F2625 X99.433 Y136.91
G1 F900 X129.065 Y166.542 E208.70789
G0 F2625 X128.358 Y166.542
G1 F900 X99.433 Y137.617 E210.07049
G0 F2625 X99.433 Y138.324
G1 F900 X127.651 Y166.542 E211.39978
G0 F2625 X126.944 Y166.542
G1 F900 X99.433 Y139.031 E212.69577
G0 F2625 X99.433 Y139.738
G1 F900 X126.236 Y166.542 E213.95843
G0 F2625 X125.529 Y166.542
G1 F900 X99.433 Y140.445 E215.18778
G0 F2625 X99.433 Y141.152
G1 F900 X124.822 Y166.542 E216.38383
G0 F2625 X124.115 Y166.542
G1 F900 X99.433 Y141.859 E217.54657
G0 F2625 X99.433 Y142.566
G1 F900 X123.408 Y166.542 E218.67601
G0 F2625 X122.701 Y166.542
G1 F900 X99.433 Y143.273 E219.77214
G0 F2625 X99.433 Y143.981
G1 F900 X121.994 Y166.542 E220.83494
G0 F2625 X121.287 Y166.542
G1 F900 X99.433 Y144.688 E221.86444
G0 F2625 X99.433 Y145.395
G1 F900 X120.58 Y166.542 E222.86063
G0 F2625 X119.872 Y166.542
G1 F900 X99.433 Y146.102 E223.82349
G0 F2625 X99.433 Y146.809
G1 F900 X119.165 Y166.542 E224.75305
G0 F2625 X118.458 Y166.542
G1 F900 X99.433 Y147.516 E225.6493
G0 F2625 X99.433 Y148.223
G1 F900 X117.751 Y166.542 E226.51225
G0 F2625 X117.044 Y166.542
G1 F900 X99.433 Y148.93 E227.34189
G0 F2625 X99.433 Y149.637
G1 F900 X116.337 Y166.542 E228.13823
G0 F2625 X115.63 Y166.542
G1 F900 X99.433 Y150.345 E228.90124
G0 F2625 X99.433 Y151.052
G1 F900 X114.923 Y166.542 E229.63094
G0 F2625 X114.216 Y166.542
G1 F900 X99.433 Y151.759 E230.32734
G0 F2625 X99.433 Y152.466
G1 F900 X113.509 Y166.542 E230.99043
G0 F2625 X112.801 Y166.542
G1 F900 X99.433 Y153.173 E231.62019
G0 F2625 X99.433 Y153.88
G1 F900 X112.094 Y166.542 E232.21665
G0 F2625 X111.387 Y166.542
G1 F900 X99.433 Y154.587 E232.7798
G0 F2625 X99.433 Y155.294
G1 F900 X110.68 Y166.542 E233.30965
G0 F2625 X109.973 Y166.542
G1 F900 X99.433 Y156.001 E233.80619
G0 F2625 X99.433 Y156.709
G1 F900 X109.266 Y166.542 E234.2694
G0 F2625 X108.559 Y166.542
G1 F900 X99.433 Y157.416 E234.69931
G0 F2625 X99.433 Y158.123
G1 F900 X107.852 Y166.542 E235.09591
G0 F2625 X107.145 Y166.542
G1 F900 X99.433 Y158.83 E235.45921
G0 F2625 X99.433 Y159.537
G1 F900 X106.437 Y166.542 E235.78918
G0 F2625 X105.73 Y166.542
G1 F900 X99.433 Y160.244 E236.08584
G0 F2625 X99.433 Y160.951
G1 F900 X105.023 Y166.542 E236.3492
G0 F2625 X104.316 Y166.542
G1 F900 X99.433 Y161.658 E236.57925
G0 F2625 X99.433 Y162.365
