;Generated by Cura LulzBot Edition GCodeWriter Version: 3.6.18
;FLAVOR:Marlin
;TIME:2976
;Filament used: 0.726992m
;Layer height: 0.18
;Generated with Cura_SteamEngine 3.6.18
M82 ;absolute extrusion mode
;This G-Code has been generated specifically for the LulzBot Mini with standard extruder
M73 P0 ; clear GLCD progress bar
M75 ; Start GLCD Timer
G26 ; clear potential 'probe fail' condition
M107 ; disable fans
M420 S0 ; disable leveling matrix
G90 ; absolute positioning
M82 ; set extruder to absolute mode
G92 E0 ; set extruder position to 0
M140 S60.0 ; start bed heating up
G28 ; home all axes
G0 X0 Y187 Z156 F200 ; move away from endstops
M109 R140 ;
G1 E-30 F75 ; retract filament
M109 R140 ; wait for extruder to reach wiping temp
G1 X45 Y173 F11520 ; move above wiper pad
G1 Z0 F1200 ; push nozzle into wiper
G1 X42 Y173 Z-.5 F4000             ; wiping
G1 X52 Y171 Z-.5 F4000             ; wiping
G1 X42 Y173 Z0 F4000               ; wiping
G1 X52 Y171 F4000                  ; wiping
G1 X42 Y173 F4000                  ; wiping
G1 X52 Y171 F4000                  ; wiping
G1 X42 Y173 F4000                  ; wiping
G1 X52 Y171 F4000                  ; wiping
G1 X57 Y173 F4000                  ; wiping
G1 X77 Y171 F4000                  ; wiping
G1 X57 Y173 F4000                  ; wiping
G1 X77 Y171 F4000                  ; wiping
G1 X57 Y173 F4000                  ; wiping
G1 X87 Y171 F4000                  ; wiping
G1 X77 Y173 F4000                  ; wiping
G1 X97 Y171 F4000                  ; wiping
G1 X77 Y173 F4000                  ; wiping
G1 X97 Y171 F4000                  ; wiping
G1 X77 Y173 F4000                  ; wiping
G1 X97 Y171 F4000                  ; wiping
G1 X107 Y173 F4000                 ; wiping
G1 X97 Y171 F4000                  ; wiping
G1 X107 Y173 F4000                 ; wiping
G1 X97 Y171 F4000                  ; wiping
G1 X107 Y173 F4000                 ; wiping
G1 X112 Y171 Z-0.5 F1000           ; wiping
G1 Z10 ; raise extruder
G28 X0 Y0 ; home X and Y
G0 X0 Y187 F200 ; move away from endstops
M109 R140 ; wait for extruder to reach probe temp
M204 S300 ; set probing acceleration
G29       ; start auto-leveling sequence
M420 S1   ; enable leveling matrix
M425 Z	  ; use measured Z backlash for compensation
M425 Z F0 ; turn off measured Z backlash compensation. (if activated in the quality settings, this command will automatically be ignored)
M204 S2000 ; restore standard acceleration
G28 X0 Y0 ; re-home to account for build variance of earlier mini builds
G0 X0 Y187 F200 ; move away from endstops
G0 Y152 F4000 ; move in front of wiper pad
G4 S1 ; pause
M400 ; wait for moves to finish
M117 Heating... ; progress indicator message on LCD
M109 R210  ; wait for extruder to reach printing temp
M190 R60.0 ; wait for bed to reach printing temp
G1 Z2 E0 F75 ; prime tiny bit of filament into the nozzle
M117 Mini Printing... ; progress indicator message on LCD

M221 S100 T0
G92 E0
G1 F600 E-1.75
;LAYER_COUNT:79
;LAYER:0
M107
G0 F2625 X65.708 Y65.16 Z0.425
;TYPE:SKIRT
G1 F600 E0
G1 F900 X66.074 Y64.817 E0.01671
G1 X67.112 Y63.954 E0.06167
G1 X67.493 Y63.672 E0.07746
G1 X68.604 Y62.941 E0.12176
G1 X69.06 Y62.679 E0.13928
G1 X70.461 Y61.988 E0.19132
G1 X71.017 Y61.761 E0.21132
G1 X72.762 Y61.189 E0.27249
G1 X73.283 Y61.055 E0.29041
G1 X74.613 Y60.799 E0.33553
G1 X75.14 Y60.731 E0.35323
G1 X76.724 Y60.628 E0.4061
G1 X77.455 Y60.643 E0.43046
G1 X79.89 Y60.905 E0.51204
G1 X80.559 Y61.032 E0.53472
G1 X82.069 Y61.446 E0.58687
G1 X82.597 Y61.629 E0.60549
G1 X84.112 Y62.268 E0.66026
G1 X84.621 Y62.524 E0.67924
G1 X85.988 Y63.331 E0.73211
G1 X86.33 Y63.557 E0.74577
G1 X87.112 Y64.127 E0.778
G1 X87.434 Y64.386 E0.79177
G1 X88.406 Y65.251 E0.83511
G1 X88.775 Y65.623 E0.85256
G1 X89.808 Y66.8 E0.90473
G1 X90.198 Y67.319 E0.92635
G1 X91.288 Y69.029 E0.9939
G1 X91.562 Y69.531 E1.01295
G1 X92.162 Y70.83 E1.06062
G1 X92.37 Y71.375 E1.08005
G1 X92.878 Y73.045 E1.13819
G1 X92.987 Y73.487 E1.15336
G1 X93.203 Y74.621 E1.19181
G1 X93.269 Y75.14 E1.20924
G1 X93.372 Y76.724 E1.26211
G1 X93.357 Y77.453 E1.2864
G1 X93.096 Y79.886 E1.36791
G1 X92.969 Y80.557 E1.39066
G1 X92.557 Y82.06 E1.44257
G1 X92.415 Y82.487 E1.45756
G1 X91.99 Y83.571 E1.49634
G1 X91.772 Y84.041 E1.5136
G1 X90.996 Y85.477 E1.56797
G1 X90.769 Y85.849 E1.58249
G1 X90.136 Y86.778 E1.61994
G1 X89.82 Y87.186 E1.63713
G1 X88.778 Y88.375 E1.68979
G1 X88.322 Y88.823 E1.71108
G1 X86.823 Y90.087 E1.7764
G1 X86.362 Y90.425 E1.79544
G1 X85.117 Y91.216 E1.84457
G1 X84.687 Y91.455 E1.86096
G1 X83.487 Y92.035 E1.90536
G1 X82.914 Y92.263 E1.9259
G1 X81.001 Y92.865 E1.9927
G1 X80.417 Y93.004 E2.0127
G1 X78.884 Y93.257 E2.06445
G1 X78.354 Y93.311 E2.0822
G1 X76.857 Y93.368 E2.1321
G1 X76.283 Y93.351 E2.15123
G1 X74.59 Y93.186 E2.20789
G1 X74.022 Y93.091 E2.22707
G1 X72.461 Y92.721 E2.28051
G1 X71.955 Y92.568 E2.29812
G1 X70.559 Y92.047 E2.34776
G1 X70.031 Y91.807 E2.36708
G1 X68.53 Y90.999 E2.42386
G1 X68.15 Y90.769 E2.43865
G1 X67.22 Y90.135 E2.47615
G1 X66.813 Y89.819 E2.49331
G1 X65.623 Y88.776 E2.54602
G1 X65.171 Y88.315 E2.56753
G1 X63.892 Y86.794 E2.63372
G1 X63.555 Y86.334 E2.65272
G1 X62.781 Y85.113 E2.70087
G1 X62.545 Y84.687 E2.7171
G1 X61.965 Y83.487 E2.76149
G1 X61.736 Y82.911 E2.78214
G1 X61.133 Y80.991 E2.84918
G1 X60.995 Y80.41 E2.86907
G1 X60.743 Y78.884 E2.92059
G1 X60.689 Y78.354 E2.93833
G1 X60.632 Y76.859 E2.98817
G1 X60.646 Y76.316 E3.00626
G1 X60.787 Y74.749 E3.05867
G1 X60.872 Y74.204 E3.07704
G1 X61.213 Y72.676 E3.12919
G1 X61.346 Y72.209 E3.14537
G1 X61.779 Y70.961 E3.18937
G1 X62.068 Y70.309 E3.21313
G1 X63.265 Y68.128 E3.296
G1 X63.585 Y67.632 E3.31566
G1 X64.252 Y66.738 E3.35282
G1 X64.575 Y66.354 E3.36953
G1 X65.708 Y65.16 E3.42436
G0 F2625 X66.071 Y65.504
G1 F900 X66.394 Y65.201 E3.43911
G1 X67.432 Y64.338 E3.48408
G1 X67.768 Y64.089 E3.49801
G1 X68.879 Y63.358 E3.54231
G1 X69.281 Y63.128 E3.55774
G1 X70.682 Y62.437 E3.60977
G1 X71.173 Y62.237 E3.62743
G1 X72.918 Y61.665 E3.6886
G1 X73.377 Y61.546 E3.7044
G1 X74.707 Y61.29 E3.74951
G1 X75.173 Y61.23 E3.76516
G1 X76.757 Y61.127 E3.81804
G1 X77.401 Y61.141 E3.83949
G1 X79.836 Y61.403 E3.92107
G1 X80.427 Y61.514 E3.9411
G1 X81.937 Y61.928 E3.99326
G1 X82.402 Y62.09 E4.00966
G1 X83.917 Y62.729 E4.06443
G1 X84.366 Y62.955 E4.08118
G1 X85.733 Y63.762 E4.13405
G1 X86.036 Y63.961 E4.14613
G1 X86.818 Y64.531 E4.17836
G1 X87.102 Y64.76 E4.19052
G1 X88.074 Y65.625 E4.23386
G1 X88.399 Y65.952 E4.24921
G1 X89.432 Y67.129 E4.30138
G1 X89.776 Y67.587 E4.32046
G1 X90.866 Y69.297 E4.38801
G1 X91.108 Y69.741 E4.40485
G1 X91.708 Y71.04 E4.45252
G1 X91.892 Y71.521 E4.46967
G1 X92.4 Y73.191 E4.52782
G1 X92.496 Y73.58 E4.54116
G1 X92.712 Y74.714 E4.57961
G1 X92.77 Y75.173 E4.59503
G1 X92.873 Y76.757 E4.6479
G1 X92.86 Y77.4 E4.66932
G1 X92.599 Y79.833 E4.75083
G1 X92.487 Y80.424 E4.77087
G1 X92.075 Y81.927 E4.82278
G1 X91.949 Y82.305 E4.83605
G1 X91.524 Y83.389 E4.87484
G1 X91.332 Y83.803 E4.89004
G1 X90.556 Y85.239 E4.94441
G1 X90.356 Y85.568 E4.95724
G1 X89.723 Y86.497 E4.99468
G1 X89.444 Y86.857 E5.00985
G1 X88.402 Y88.046 E5.06252
G1 X87.999 Y88.441 E5.08131
G1 X86.5 Y89.705 E5.14663
G1 X86.094 Y90.003 E5.1634
G1 X84.849 Y90.794 E5.21254
G1 X84.47 Y91.005 E5.22699
G1 X83.27 Y91.585 E5.27138
G1 X82.764 Y91.786 E5.28952
G1 X80.851 Y92.388 E5.35632
G1 X80.336 Y92.511 E5.37396
G1 X78.803 Y92.764 E5.42572
G1 X78.335 Y92.811 E5.44138
G1 X76.838 Y92.868 E5.49129
G1 X76.331 Y92.853 E5.50818
G1 X74.638 Y92.688 E5.56484
G1 X74.137 Y92.605 E5.58176
G1 X72.576 Y92.235 E5.6352
G1 X72.13 Y92.099 E5.65073
G1 X70.734 Y91.578 E5.70036
G1 X70.268 Y91.367 E5.7174
G1 X68.767 Y90.559 E5.77419
G1 X68.432 Y90.355 E5.78725
G1 X67.502 Y89.721 E5.82474
G1 X67.142 Y89.443 E5.83989
G1 X65.952 Y88.4 E5.8926
G1 X65.554 Y87.993 E5.91157
G1 X64.275 Y86.472 E5.97776
G1 X63.978 Y86.067 E5.99449
G1 X63.204 Y84.846 E6.04265
G1 X62.995 Y84.47 E6.05698
G1 X62.415 Y83.27 E6.10137
G1 X62.213 Y82.762 E6.11958
G1 X61.61 Y80.842 E6.18662
G1 X61.488 Y80.329 E6.20419
G1 X61.236 Y78.803 E6.25571
G1 X61.189 Y78.335 E6.27137
G1 X61.132 Y76.84 E6.32121
G1 X61.144 Y76.361 E6.33717
G1 X61.285 Y74.794 E6.38958
G1 X61.36 Y74.313 E6.40579
G1 X61.701 Y72.785 E6.45794
G1 X61.818 Y72.373 E6.47221
G1 X62.251 Y71.125 E6.51621
G1 X62.507 Y70.55 E6.53718
G1 X63.704 Y68.369 E6.62005
G1 X63.985 Y67.931 E6.63739
G1 X64.652 Y67.037 E6.67454
G1 X64.938 Y66.698 E6.68931
G1 X66.071 Y65.504 E6.74414
G0 F2625 X66.433 Y65.848
G1 F900 X66.713 Y65.586 E6.75692
G1 X67.751 Y64.723 E6.80188
G1 X68.043 Y64.507 E6.81398
G1 X69.154 Y63.776 E6.85828
G1 X69.502 Y63.576 E6.87165
G1 X70.903 Y62.885 E6.92369
G1 X71.329 Y62.712 E6.939
G1 X73.074 Y62.14 E7.00017
G1 X73.472 Y62.037 E7.01387
G1 X74.802 Y61.781 E7.05898
G1 X75.205 Y61.729 E7.07252
G1 X76.789 Y61.626 E7.12539
G1 X77.348 Y61.638 E7.14402
G1 X79.783 Y61.9 E7.2256
G1 X80.294 Y61.997 E7.24292
G1 X81.804 Y62.411 E7.29508
G1 X82.208 Y62.55 E7.30931
G1 X83.723 Y63.189 E7.36408
G1 X84.112 Y63.385 E7.37859
G1 X85.479 Y64.192 E7.43147
G1 X85.741 Y64.365 E7.44192
G1 X86.523 Y64.935 E7.47416
G1 X86.77 Y65.133 E7.4847
G1 X87.742 Y65.998 E7.52804
G1 X88.024 Y66.282 E7.54138
G1 X89.057 Y67.459 E7.59354
G1 X89.355 Y67.856 E7.61008
G1 X90.445 Y69.566 E7.67762
G1 X90.654 Y69.95 E7.69219
G1 X91.254 Y71.249 E7.73985
G1 X91.413 Y71.666 E7.75472
G1 X91.921 Y73.336 E7.81286
G1 X92.005 Y73.674 E7.82446
G1 X92.221 Y74.808 E7.86292
G1 X92.271 Y75.205 E7.87624
G1 X92.374 Y76.789 E7.92912
G1 X92.362 Y77.347 E7.94771
G1 X92.101 Y79.78 E8.02922
G1 X92.004 Y80.292 E8.04658
G1 X91.592 Y81.795 E8.09849
G1 X91.484 Y82.122 E8.10996
G1 X91.059 Y83.206 E8.14875
G1 X90.892 Y83.565 E8.16194
G1 X90.116 Y85.001 E8.21631
G1 X89.943 Y85.286 E8.22741
G1 X89.31 Y86.215 E8.26486
G1 X89.068 Y86.527 E8.27801
G1 X88.026 Y87.716 E8.33067
G1 X87.677 Y88.059 E8.34697
G1 X86.178 Y89.323 E8.41229
G1 X85.826 Y89.581 E8.42683
G1 X84.581 Y90.372 E8.47596
G1 X84.252 Y90.555 E8.4885
G1 X83.052 Y91.135 E8.5329
G1 X82.614 Y91.309 E8.5486
G1 X80.701 Y91.911 E8.6154
G1 X80.254 Y92.018 E8.63071
G1 X78.721 Y92.271 E8.68247
G1 X78.316 Y92.312 E8.69602
G1 X76.819 Y92.369 E8.74593
G1 X76.38 Y92.356 E8.76056
G1 X74.687 Y92.191 E8.81722
G1 X74.252 Y92.118 E8.83191
G1 X72.691 Y91.748 E8.88535
G1 X72.305 Y91.631 E8.89878
G1 X70.909 Y91.11 E8.94842
G1 X70.505 Y90.927 E8.96319
G1 X69.004 Y90.119 E9.01997
G1 X68.713 Y89.942 E9.03132
G1 X67.783 Y89.308 E9.06881
G1 X67.472 Y89.067 E9.08192
G1 X66.282 Y88.024 E9.13463
G1 X65.937 Y87.672 E9.15105
G1 X64.658 Y86.151 E9.21724
G1 X64.4 Y85.799 E9.23178
G1 X63.626 Y84.578 E9.27994
G1 X63.445 Y84.252 E9.29236
G1 X62.865 Y83.052 E9.33675
G1 X62.69 Y82.612 E9.35253
G1 X62.087 Y80.692 E9.41956
G1 X61.981 Y80.248 E9.43477
G1 X61.729 Y78.722 E9.48629
G1 X61.688 Y78.316 E9.49988
G1 X61.631 Y76.821 E9.54972
G1 X61.642 Y76.406 E9.56354
G1 X61.783 Y74.839 E9.61595
G1 X61.848 Y74.422 E9.63001
G1 X62.189 Y72.894 E9.68216
G1 X62.291 Y72.537 E9.69453
G1 X62.724 Y71.289 E9.73853
G1 X62.945 Y70.79 E9.75671
G1 X64.142 Y68.609 E9.83958
G1 X64.386 Y68.23 E9.8546
G1 X65.053 Y67.336 E9.89175
G1 X65.3 Y67.042 E9.90454
G1 X66.433 Y65.848 E9.95937
G1 F600 E8.20937
G1 F480 Z1.425
G0 F2625 X75.021 Y75.098 Z1.425
;TYPE:SUPPORT
G1 F480 Z0.425
G1 F600 E9.95937
G1 F900 X75.366 Y74.795 E9.97467
G1 X75.763 Y74.552 E9.99017
G1 X76.205 Y74.373 E10.00606
G1 X76.641 Y74.279 E10.02091
G1 X77.118 Y74.259 E10.03682
G1 X77.583 Y74.318 E10.05243
G1 X78.021 Y74.453 E10.0677
G1 X78.435 Y74.662 E10.08315
G1 X78.818 Y74.944 E10.09899
G1 X79.132 Y75.272 E10.11411
G1 X79.394 Y75.66 E10.12971
G1 X79.586 Y76.083 E10.14518
G1 X79.704 Y76.537 E10.16081
G1 X79.743 Y77 E10.17629
G1 X79.704 Y77.462 E10.19173
G1 X79.586 Y77.916 E10.20735
G1 X79.395 Y78.339 E10.22281
G1 X79.118 Y78.749 E10.2393
G1 X78.977 Y78.908 E10.24638
G1 X78.84 Y79.04 E10.25271
G1 X78.439 Y79.336 E10.26932
G1 X78.021 Y79.547 E10.28491
G1 X77.583 Y79.682 E10.30018
G1 X77.118 Y79.741 E10.31579
G1 X76.641 Y79.721 E10.3317
G1 X76.205 Y79.627 E10.34655
G1 X75.763 Y79.448 E10.36244
G1 X75.366 Y79.205 E10.37794
G1 X75.022 Y78.903 E10.39319
G1 X74.727 Y78.539 E10.4088
G1 X74.5 Y78.133 E10.42429
G1 X74.343 Y77.685 E10.4401
G1 X74.266 Y77.239 E10.45518
G1 X74.266 Y76.758 E10.4712
G1 X74.342 Y76.318 E10.48608
G1 X74.501 Y75.866 E10.50204
G1 X74.725 Y75.466 E10.51731
G1 X75.021 Y75.098 E10.53304
G0 F2625 X75 Y75.443
G1 F900 X75 Y78.559 E10.63684
G1 F600 E8.88684
G1 F480 Z1.425
G0 F2625 X75.436 Y75 Z1.425
G1 F480 Z0.425
G1 F600 E10.63684
G1 F900 X78.558 Y75 E10.74083
G1 F600 E8.99083
G1 F480 Z1.425
;MESH:
G0 F2625 X82.253 Y77 Z1.425
;TYPE:WALL-INNER
G1 F480 Z0.425
G1 F600 E10.74083
G1 F900 X82.237 Y76.813 E10.74708
G1 X82.202 Y76.403 E10.76079
G1 X82.177 Y76.112 E10.77052
G1 X82.162 Y76.054 E10.77251
G1 X81.953 Y75.251 E10.80015
G1 X81.586 Y74.438 E10.82987
G1 X81.086 Y73.7 E10.85956
G1 X80.471 Y73.057 E10.8892
G1 X79.754 Y72.527 E10.9189
G1 X78.959 Y72.125 E10.94857
G1 X78.107 Y71.865 E10.97825
G1 X77.852 Y71.832 E10.98681
G1 X77.484 Y71.786 E10.99916
G1 X77.224 Y71.752 E11.0079
G1 X77.116 Y71.756 E11.0115
G1 X76.694 Y71.773 E11.02557
G1 X76.332 Y71.789 E11.03764
G1 X76.175 Y71.822 E11.04298
G1 X75.461 Y71.977 E11.06732
G1 X74.635 Y72.31 E11.09698
G1 X73.882 Y72.773 E11.12643
G1 X73.392 Y73.19 E11.14786
G1 X73.197 Y73.379 E11.15691
G1 X72.648 Y74.058 E11.18599
G1 X72.213 Y74.836 E11.21568
G1 X71.916 Y75.677 E11.24539
G1 X71.828 Y76.189 E11.2627
G1 X71.819 Y76.245 E11.26459
G1 X71.766 Y76.554 E11.27503
G1 X71.766 Y76.578 E11.27583
G1 X71.766 Y77 E11.28989
G1 X71.766 Y77.422 E11.30395
G1 X71.766 Y77.446 E11.30474
G1 X71.818 Y77.755 E11.31518
G1 X71.827 Y77.812 E11.3171
G1 X71.916 Y78.323 E11.33438
G1 X72.213 Y79.164 E11.36409
G1 X72.649 Y79.943 E11.39383
G1 X73.207 Y80.632 E11.42336
G1 X73.394 Y80.811 E11.43198
G1 X73.882 Y81.227 E11.45335
G1 X74.635 Y81.69 E11.48279
G1 X75.461 Y82.023 E11.51246
G1 X76.175 Y82.178 E11.53679
G1 X76.332 Y82.211 E11.54214
G1 X76.694 Y82.226 E11.55421
G1 X77.117 Y82.243 E11.56831
G1 X77.224 Y82.248 E11.57188
G1 X77.482 Y82.215 E11.58054
G1 X77.851 Y82.168 E11.59293
G1 X78.107 Y82.135 E11.60153
G1 X78.959 Y81.875 E11.6312
G1 X79.754 Y81.473 E11.66088
G1 X80.458 Y80.952 E11.69005
G1 X80.786 Y80.637 E11.7052
G1 X81.095 Y80.288 E11.72073
G1 X81.586 Y79.562 E11.74992
G1 X81.953 Y78.749 E11.77963
G1 X82.162 Y77.946 E11.80727
G1 X82.177 Y77.888 E11.80927
G1 X82.201 Y77.599 E11.81893
G1 X82.236 Y77.189 E11.83263
G1 X82.253 Y77 E11.83896
G0 F2625 X82.577 Y76.37
G1 F900 X82.506 Y76.789 E11.84874
G1 X82.506 Y77 E11.85261
G1 X82.506 Y77.211 E11.85646
G1 X82.577 Y77.63 E11.86573
G1 X82.613 Y77.732 E11.86829
G1 X82.633 Y77.788 E11.8702
G1 X82.719 Y78.031 E11.87878
G1 X82.927 Y78.402 E11.89295
G1 X83.194 Y78.732 E11.90709
G1 X83.511 Y79.012 E11.92118
G1 X83.874 Y79.235 E11.93537
G1 X84.268 Y79.393 E11.94951
G1 X84.682 Y79.483 E11.96362
G1 X85.106 Y79.5 E11.97776
G1 X85.527 Y79.447 E11.99189
G1 X85.934 Y79.323 E12.00607
G1 X86.314 Y79.131 E12.02025
G1 X86.654 Y78.878 E12.03436
G1 X86.948 Y78.572 E12.0485
G1 X87.185 Y78.22 E12.06263
G1 X87.36 Y77.834 E12.07675
G1 X87.467 Y77.422 E12.09093
G1 X87.503 Y77 E12.10504
G1 X87.467 Y76.578 E12.11915
G1 X87.36 Y76.166 E12.13333
G1 X87.185 Y75.78 E12.14744
G1 X86.948 Y75.428 E12.16158
G1 X86.654 Y75.122 E12.17571
G1 X86.314 Y74.869 E12.18983
G1 X85.934 Y74.677 E12.20401
G1 X85.527 Y74.553 E12.21819
G1 X85.106 Y74.5 E12.23232
G1 X84.682 Y74.517 E12.24646
G1 X84.268 Y74.607 E12.26057
G1 X83.874 Y74.765 E12.27471
G1 X83.511 Y74.988 E12.2889
G1 X83.194 Y75.268 E12.30299
G1 X82.927 Y75.598 E12.31713
G1 X82.719 Y75.969 E12.3313
G1 X82.634 Y76.211 E12.33984
G1 X82.614 Y76.267 E12.34131
G1 X82.577 Y76.37 E12.3439
G0 F2625 X82.481 Y76.345
G0 X78.476 Y65.806
G0 X78.489 Y65.707
G1 F900 X79.944 Y65.996 E12.39331
G1 X81.363 Y66.479 E12.44324
G1 X82.686 Y67.131 E12.49237
G1 X83.934 Y67.965 E12.54237
G1 X85.053 Y68.947 E12.59196
G1 X86.035 Y70.066 E12.64155
G1 X86.869 Y71.314 E12.69155
G1 X87.521 Y72.637 E12.74068
G1 X88.004 Y74.056 E12.79061
G1 X88.293 Y75.511 E12.84003
G1 X88.39 Y77 E12.88973
