;Generated by Cura LulzBot Edition GCodeWriter Version: 3.6.18
;FLAVOR:Marlin
;TIME:4827
;Filament used: 2.33304m
;Layer height: 0.25
;Generated with Cura_SteamEngine 3.6.18
M82 ;absolute extrusion mode
;This G-Code has been generated specifically for the LulzBot TAZ 6 with standard extruder
M73 P0 ; clear GLCD progress bar
M75 ; start GLCD timer
G26 ; clear potential 'probe fail' condition
M107 ; disable fans
M420 S0 ; disable previous leveling matrix
G90 ; absolute positioning
M82 ; set extruder to absolute mode
G92 E0 ; set extruder position to 0
M140 S60.0 ; start bed heating up
M109 R140 ; soften filament before homing Z
G28 ; Home all axis
G1 E-30 F100 ; retract filament
M109 R140 ; wait for extruder to reach wiping temp
G1 X-15 Y100 F3000 ; move above wiper pad
G1 Z1 ; push nozzle into wiper
G1 X-17 Y95 F1000 ; slow wipe
G1 X-17 Y90 F1000 ; slow wipe
G1 X-17 Y85 F1000 ; slow wipe
G1 X-15 Y90 F1000 ; slow wipe
G1 X-17 Y80 F1000 ; slow wipe
G1 X-15 Y95 F1000 ; slow wipe
G1 X-17 Y75 F2000 ; fast wipe
G1 X-15 Y65 F2000 ; fast wipe
G1 X-17 Y70 F2000 ; fast wipe
G1 X-15 Y60 F2000 ; fast wipe
G1 X-17 Y55 F2000 ; fast wipe
G1 X-15 Y50 F2000 ; fast wipe
G1 X-17 Y40 F2000 ; fast wipe
G1 X-15 Y45 F2000 ; fast wipe
G1 X-17 Y35 F2000 ; fast wipe
G1 X-15 Y40 F2000 ; fast wipe
G1 X-17 Y70 F2000 ; fast wipe
G1 X-15 Y30 Z2 F2000 ; fast wipe
G1 X-17 Y35 F2000 ; fast wipe
G1 X-15 Y25 F2000 ; fast wipe
G1 X-17 Y30 F2000 ; fast wipe
G1 X-15 Y25 Z1.5 F1000 ; slow wipe
G1 X-17 Y23 F1000 ; slow wipe
G1 Z10 ; raise extruder
M109 R140 ; wait for extruder to reach probe temp
G1 X-9 Y-9 ; move above first probe point
M204 S100 ; set probing acceleration
G29 ; start auto-leveling sequence
M420 S1 ; activate bed level matrix
M425 Z			     ; use measured Z backlash for compensation
M425 Z F0		     ; turn off measured Z backlash compensation. (if activated in the quality settings, this command will automatically be ignored)
M204 S500 ; restore standard acceleration
G1 X0 Y0 Z15 F5000 ; move up off last probe point
G4 S1 ; pause
M400 ; wait for moves to finish
M117 Heating... ; progress indicator message on LCD
M109 R210 ; wait for extruder to reach printing temp
M190 R60.0 ; wait for bed to reach printing temp
G1 Z2 E0 F75 ; prime tiny bit of filament into the nozzle
M117 TAZ 6 Printing... ; progress indicator message on LCD

M221 S100 T0
G92 E0
G1 F600 E-1.75
;LAYER_COUNT:60
;LAYER:0
M107
G0 F2625 X113.121 Y122.47 Z0.425
;TYPE:SKIRT
G1 F600 E0
G1 F900 X113.481 Y122.156 E0.01591
G1 X115.046 Y120.959 E0.08154
G1 X115.551 Y120.634 E0.10155
G1 X117.679 Y119.492 E0.18199
G1 X118.13 Y119.287 E0.1985
G1 X119.168 Y118.896 E0.23544
G1 X119.41 Y118.814 E0.24396
G1 X119.666 Y118.737 E0.25286
G1 X119.88 Y118.679 E0.26025
G1 X121.413 Y118.315 E0.31273
G1 X121.77 Y118.249 E0.32482
G1 X122.923 Y118.091 E0.36359
G1 X123.261 Y118.06 E0.3749
G1 X124.445 Y118.006 E0.41438
G1 X124.945 Y118.016 E0.43103
G1 X127.07 Y118.203 E0.50209
G1 X127.41 Y118.249 E0.51352
G1 X134.322 Y119.503 E0.74752
G1 X139.722 Y120.153 E0.9287
G1 X145.139 Y120.497 E1.1095
G1 X150.598 Y120.533 E1.29135
G1 X156.019 Y120.263 E1.47215
G1 X161.47 Y119.68 E1.65476
G1 X165.155 Y119.136 E1.77884
G1 X165.484 Y119.102 E1.78985
G1 X166.816 Y119.024 E1.8343
G1 X167.37 Y119.033 E1.85275
G1 X169.39 Y119.214 E1.92031
G1 X169.923 Y119.301 E1.9383
G1 X171.469 Y119.669 E1.99124
G1 X171.941 Y119.815 E2.00769
G1 X173.433 Y120.386 E2.06091
G1 X173.842 Y120.571 E2.07586
G1 X175.069 Y121.218 E2.12207
G1 X175.47 Y121.463 E2.13772
G1 X176.769 Y122.372 E2.19053
G1 X177.11 Y122.641 E2.205
G1 X178.1 Y123.521 E2.24912
G1 X178.427 Y123.85 E2.26457
G1 X179.461 Y125.028 E2.31679
G1 X179.81 Y125.493 E2.33615
G1 X180.912 Y127.23 E2.40467
G1 X181.148 Y127.663 E2.4211
G1 X181.727 Y128.913 E2.46699
G1 X181.883 Y129.308 E2.48114
G1 X182.302 Y130.571 E2.52546
G1 X182.42 Y131.018 E2.54086
G1 X182.73 Y132.571 E2.59361
G1 X182.8 Y133.148 E2.61297
G1 X182.886 Y135.199 E2.68135
G1 X182.873 Y135.703 E2.69815
G1 X182.742 Y137.112 E2.74528
G1 X182.68 Y137.527 E2.75926
G1 X182.412 Y138.819 E2.80321
G1 X182.291 Y139.263 E2.81854
G1 X181.786 Y140.75 E2.87085
G1 X181.598 Y141.204 E2.88722
G1 X180.901 Y142.616 E2.93968
G1 X180.567 Y143.167 E2.96114
G1 X179.118 Y145.152 E3.043
G1 X178.773 Y145.56 E3.0608
G1 X177.921 Y146.433 E3.10143
G1 X177.64 Y146.693 E3.11419
G1 X176.635 Y147.532 E3.15779
G1 X176.253 Y147.812 E3.17357
G1 X174.896 Y148.68 E3.22723
G1 X174.465 Y148.917 E3.24361
G1 X173.027 Y149.59 E3.2965
G1 X172.556 Y149.773 E3.31333
G1 X170.998 Y150.26 E3.36771
G1 X170.586 Y150.364 E3.38186
G1 X169.304 Y150.61 E3.42534
G1 X168.84 Y150.669 E3.44092
G1 X167.272 Y150.771 E3.49327
G1 X166.832 Y150.774 E3.50792
G1 X165.957 Y150.728 E3.53711
G1 X165.668 Y150.701 E3.54678
G1 X159.416 Y149.884 E3.7568
G1 X153.974 Y149.451 E3.93865
G1 X148.534 Y149.326 E4.11991
G1 X143.092 Y149.509 E4.30129
G1 X137.674 Y149.999 E4.4825
G1 X132.254 Y150.801 E4.66501
G1 X127.558 Y151.726 E4.82444
G1 X127.293 Y151.769 E4.83338
G1 X126.039 Y151.924 E4.87547
G1 X125.648 Y151.951 E4.88852
G1 X124.245 Y151.977 E4.93527
G1 X123.913 Y151.969 E4.94633
G1 X122.734 Y151.886 E4.9857
G1 X122.276 Y151.825 E5.00109
G1 X120.48 Y151.473 E5.06205
G1 X120.081 Y151.372 E5.07576
G1 X119.007 Y151.036 E5.11325
G1 X118.655 Y150.906 E5.12575
G1 X117.209 Y150.289 E5.17812
G1 X116.728 Y150.041 E5.19614
G1 X114.777 Y148.851 E5.27227
G1 X114.318 Y148.521 E5.2911
G1 X113.066 Y147.469 E5.34557
G1 X112.782 Y147.205 E5.35849
G1 X111.96 Y146.355 E5.39787
G1 X111.707 Y146.065 E5.41069
G1 X110.816 Y144.931 E5.45873
G1 X110.613 Y144.645 E5.47042
G1 X109.972 Y143.65 E5.50984
G1 X109.776 Y143.308 E5.52297
G1 X109.14 Y142.047 E5.57002
G1 X108.957 Y141.621 E5.58546
G1 X108.326 Y139.857 E5.64787
G1 X108.21 Y139.465 E5.66148
G1 X107.941 Y138.339 E5.70005
G1 X107.876 Y138 E5.71154
G1 X107.699 Y136.765 E5.7531
G1 X107.663 Y136.359 E5.76668
G1 X107.612 Y134.846 E5.81711
G1 X107.617 Y134.496 E5.82877
G1 X107.685 Y133.36 E5.86668
G1 X107.743 Y132.89 E5.88245
G1 X108.111 Y130.935 E5.94872
G1 X108.226 Y130.481 E5.96432
G1 X108.636 Y129.206 E6.00893
G1 X108.753 Y128.891 E6.02012
G1 X109.237 Y127.749 E6.06144
G1 X109.383 Y127.444 E6.0727
G1 X109.921 Y126.438 E6.1107
G1 X110.123 Y126.104 E6.1237
G1 X110.949 Y124.884 E6.17278
G1 X111.183 Y124.574 E6.18572
G1 X111.998 Y123.604 E6.22792
G1 X112.231 Y123.351 E6.23938
G1 X113.121 Y122.47 E6.28109
G0 F2625 X113.473 Y122.825
G1 F900 X113.785 Y122.554 E6.29486
G1 X115.35 Y121.357 E6.36049
G1 X115.787 Y121.074 E6.37783
G1 X117.915 Y119.932 E6.45828
G1 X118.306 Y119.755 E6.47258
G1 X119.344 Y119.364 E6.50952
G1 X119.554 Y119.293 E6.51691
G1 X119.81 Y119.216 E6.52581
G1 X119.995 Y119.166 E6.5322
G1 X121.528 Y118.802 E6.58468
G1 X121.838 Y118.744 E6.59519
G1 X122.991 Y118.586 E6.63395
G1 X123.284 Y118.559 E6.64375
G1 X124.468 Y118.505 E6.68323
G1 X124.901 Y118.515 E6.69766
G1 X127.026 Y118.702 E6.76872
G1 X127.321 Y118.741 E6.77863
G1 X134.242 Y119.997 E7.01294
G1 X139.683 Y120.652 E7.19549
G1 X145.122 Y120.997 E7.37703
G1 X150.602 Y121.033 E7.55957
G1 X156.061 Y120.761 E7.74164
G1 X161.546 Y120.175 E7.92539
G1 X165.228 Y119.631 E8.04937
G1 X165.513 Y119.602 E8.05891
G1 X166.845 Y119.524 E8.10335
G1 X167.325 Y119.531 E8.11934
G1 X169.345 Y119.712 E8.1869
G1 X169.808 Y119.787 E8.20252
G1 X171.354 Y120.155 E8.25546
G1 X171.763 Y120.282 E8.26973
G1 X173.255 Y120.853 E8.32294
G1 X173.609 Y121.013 E8.33588
G1 X174.836 Y121.66 E8.38209
G1 X175.183 Y121.872 E8.39563
G1 X176.482 Y122.781 E8.44844
G1 X176.778 Y123.015 E8.46101
G1 X177.768 Y123.895 E8.50514
G1 X178.052 Y124.18 E8.51854
G1 X179.086 Y125.358 E8.57075
G1 X179.387 Y125.761 E8.5875
G1 X180.489 Y127.498 E8.65603
G1 X180.694 Y127.873 E8.67026
G1 X181.273 Y129.123 E8.71615
G1 X181.409 Y129.466 E8.72844
G1 X181.828 Y130.729 E8.77277
G1 X181.93 Y131.116 E8.7861
G1 X182.24 Y132.669 E8.83885
G1 X182.3 Y133.169 E8.85562
G1 X182.386 Y135.22 E8.924
G1 X182.375 Y135.657 E8.93857
G1 X182.244 Y137.066 E8.9857
G1 X182.19 Y137.425 E8.99779
G1 X181.922 Y138.717 E9.04175
G1 X181.817 Y139.102 E9.05504
G1 X181.312 Y140.589 E9.10735
G1 X181.149 Y140.983 E9.12155
G1 X180.452 Y142.395 E9.17401
G1 X180.163 Y142.872 E9.19259
G1 X178.714 Y144.857 E9.27445
G1 X178.415 Y145.211 E9.28988
G1 X177.563 Y146.084 E9.33052
G1 X177.32 Y146.309 E9.34155
G1 X176.315 Y147.148 E9.38516
G1 X175.983 Y147.391 E9.39886
G1 X174.626 Y148.259 E9.45252
G1 X174.253 Y148.465 E9.46672
G1 X172.815 Y149.138 E9.5196
G1 X172.407 Y149.296 E9.53418
G1 X170.849 Y149.783 E9.58855
G1 X170.491 Y149.873 E9.60085
G1 X169.209 Y150.119 E9.64433
G1 X168.808 Y150.17 E9.65779
G1 X167.24 Y150.272 E9.71014
G1 X166.858 Y150.275 E9.72286
G1 X165.983 Y150.229 E9.75205
G1 X165.733 Y150.206 E9.76041
G1 X159.461 Y149.386 E9.97111
G1 X153.991 Y148.951 E10.15389
G1 X148.528 Y148.825 E10.33592
G1 X143.065 Y149.01 E10.51799
G1 X137.609 Y149.503 E10.70048
G1 X132.186 Y150.305 E10.88308
G1 X127.461 Y151.236 E11.0435
G1 X127.232 Y151.272 E11.05122
G1 X125.978 Y151.427 E11.09331
G1 X125.639 Y151.451 E11.10463
G1 X124.236 Y151.477 E11.15137
G1 X123.948 Y151.47 E11.16097
G1 X122.769 Y151.387 E11.20034
G1 X122.372 Y151.334 E11.21368
G1 X120.576 Y150.982 E11.27465
G1 X120.231 Y150.895 E11.2865
G1 X119.157 Y150.559 E11.32398
G1 X118.852 Y150.446 E11.33482
G1 X117.406 Y149.829 E11.38719
G1 X116.989 Y149.615 E11.4028
G1 X115.038 Y148.425 E11.47892
G1 X114.639 Y148.138 E11.49529
G1 X113.387 Y147.086 E11.54977
G1 X113.142 Y146.857 E11.56094
G1 X112.32 Y146.007 E11.60033
G1 X112.1 Y145.756 E11.61144
G1 X111.209 Y144.622 E11.65948
G1 X111.033 Y144.374 E11.66961
G1 X110.392 Y143.379 E11.70904
G1 X110.222 Y143.083 E11.72041
G1 X109.586 Y141.822 E11.76745
G1 X109.428 Y141.453 E11.78082
G1 X108.797 Y139.689 E11.84323
G1 X108.696 Y139.349 E11.85504
G1 X108.427 Y138.223 E11.89361
G1 X108.371 Y137.929 E11.90358
G1 X108.194 Y136.694 E11.94514
G1 X108.163 Y136.342 E11.95691
G1 X108.112 Y134.829 E12.00733
G1 X108.116 Y134.526 E12.01743
G1 X108.184 Y133.39 E12.05534
G1 X108.234 Y132.983 E12.06899
G1 X108.602 Y131.028 E12.13526
G1 X108.702 Y130.634 E12.1488
G1 X109.112 Y129.359 E12.19341
G1 X109.214 Y129.086 E12.20312
G1 X109.698 Y127.944 E12.24444
G1 X109.824 Y127.679 E12.25421
G1 X110.362 Y126.673 E12.29221
G1 X110.537 Y126.384 E12.30347
G1 X111.363 Y125.164 E12.35254
G1 X111.566 Y124.895 E12.36377
G1 X112.381 Y123.925 E12.40597
G1 X112.583 Y123.706 E12.4159
G1 X113.473 Y122.825 E12.45761
G1 F600 E10.70761
;MESH:
G0 F2625 X115.27 Y124.672
G0 X116.284 Y125.685
G0 X119.547 Y133.227
G0 X119.641 Y133.26
;TYPE:WALL-INNER
G1 F600 E12.45761
G1 F900 X119.42 Y134.124 E12.48732
G1 X119.346 Y135.011 E12.51697
G1 X119.425 Y135.898 E12.54663
G1 X119.65 Y136.759 E12.57627
G1 X120.019 Y137.571 E12.60598
G1 X120.519 Y138.307 E12.63562
G1 X121.139 Y138.949 E12.66535
G1 X121.856 Y139.477 E12.69501
G1 X122.651 Y139.876 E12.72464
G1 X123.504 Y140.134 E12.75433
G1 X124.387 Y140.246 E12.78397
G1 X125.277 Y140.207 E12.81365
G1 X126.148 Y140.016 E12.84335
G1 X126.974 Y139.681 E12.87304
G1 X127.731 Y139.213 E12.90269
G1 X128.398 Y138.623 E12.93235
G1 X128.956 Y137.929 E12.96201
G1 X129.39 Y137.151 E12.99169
G1 X129.684 Y136.309 E13.0214
G1 X129.832 Y135.431 E13.05106
G1 X129.83 Y134.54 E13.08074
G1 X129.677 Y133.662 E13.11042
G1 X129.379 Y132.824 E13.14005
G1 X128.943 Y132.047 E13.16973
G1 X128.381 Y131.356 E13.1994
G1 X127.711 Y130.768 E13.22909
G1 X126.95 Y130.303 E13.2588
G1 X126.125 Y129.974 E13.28838
G1 X125.253 Y129.788 E13.31808
G1 X124.363 Y129.751 E13.34776
G1 X123.479 Y129.867 E13.37745
G1 X122.628 Y130.13 E13.40712
G1 X121.834 Y130.532 E13.43677
G1 X121.12 Y131.064 E13.46643
G1 X120.504 Y131.709 E13.49614
G1 X120.009 Y132.448 E13.52577
G1 X119.641 Y133.26 E13.55546
G0 F2625 X119.547 Y133.227
G0 X119.668 Y133.001
G0 X125.893 Y122.661
G0 X125.903 Y122.562
G1 F900 X127.267 Y122.785 E13.6015
G1 X128.468 Y123.107 E13.64292
G1 X129.645 Y123.558 E13.68491
G1 X130.853 Y124.17 E13.73001
G1 X131.944 Y124.878 E13.77334
G1 X132.947 Y125.689 E13.8163
G1 X133.853 Y126.592 E13.85891
G1 X134.723 Y127.66 E13.9048
G1 X135.422 Y128.737 E13.94757
G1 X136 Y129.867 E13.98985
G1 X136.498 Y131.162 E14.03606
G1 X136.83 Y132.4 E14.07876
G1 X137.031 Y133.661 E14.12129
G1 X137.102 Y135.046 E14.16749
G1 X137.031 Y136.335 E14.21049
G1 X136.831 Y137.591 E14.25286
G1 X136.468 Y138.926 E14.29894
G1 X136.017 Y140.094 E14.34065
G1 X135.429 Y141.248 E14.38379
G1 X134.691 Y142.377 E14.42872
G1 X133.863 Y143.395 E14.47243
G1 X132.961 Y144.295 E14.51487
G1 X131.927 Y145.13 E14.55914
G1 X130.857 Y145.825 E14.60164
G1 X129.704 Y146.412 E14.64474
G1 X128.563 Y146.854 E14.6855
G1 X128.391 Y146.91 E14.69153
G1 X127.191 Y147.231 E14.7329
G1 X125.913 Y147.434 E14.77601
G1 X124.649 Y147.501 E14.81817
G1 X123.281 Y147.434 E14.86379
G1 X122.027 Y147.237 E14.90608
G1 X120.782 Y146.904 E14.94901
G1 X119.475 Y146.404 E14.99562
G1 X118.358 Y145.833 E15.03741
G1 X117.274 Y145.131 E15.08043
G1 X116.19 Y144.251 E15.12694
G1 X115.319 Y143.383 E15.1679
G1 X114.498 Y142.371 E15.2113
G1 X113.768 Y141.251 E15.25584
G1 X113.163 Y140.055 E15.30048
G1 X112.71 Y138.873 E15.34265
G1 X112.367 Y137.596 E15.38669
G1 X112.16 Y136.303 E15.43031
G1 X112.095 Y135.033 E15.47267
G1 X112.161 Y133.693 E15.51736
G1 X112.366 Y132.403 E15.56087
G1 X112.704 Y131.14 E15.60442
G1 X113.159 Y129.952 E15.6468
G1 X113.776 Y128.734 E15.69228
G1 X114.488 Y127.64 E15.73576
G1 X115.272 Y126.67 E15.7773
G1 X116.271 Y125.671 E15.82437
G1 X117.246 Y124.883 E15.86612
G1 X118.316 Y124.188 E15.90863
G1 X119.565 Y123.553 E15.9553
G1 X120.733 Y123.105 E15.99697
G1 X121.966 Y122.774 E16.03949
G1 X123.305 Y122.56 E16.08466
G1 X124.586 Y122.493 E16.12739
G1 X125.903 Y122.562 E16.17132
G0 F2625 X125.956 Y122.064
;TYPE:WALL-OUTER
G1 F900 X127.375 Y122.296 E16.21922
G1 X128.625 Y122.631 E16.26232
G1 X129.847 Y123.1 E16.30592
G1 X131.099 Y123.734 E16.35267
G1 X132.241 Y124.475 E16.39802
G1 X133.282 Y125.317 E16.44262
G1 X134.219 Y126.251 E16.48669
G1 X134.305 Y126.348 E16.491
G1 X135.123 Y127.358 E16.5343
G1 X135.858 Y128.491 E16.57928
G1 X136.461 Y129.671 E16.62343
G1 X136.973 Y131.002 E16.67093
G1 X137.32 Y132.299 E16.71565
G1 X137.528 Y133.603 E16.75964
G1 X137.602 Y135.047 E16.8078
G1 X137.528 Y136.396 E16.8528
G1 X137.322 Y137.689 E16.89642
G1 X136.943 Y139.083 E16.94454
G1 X136.474 Y140.298 E16.98792
G1 X135.857 Y141.508 E17.03316
G1 X135.097 Y142.671 E17.07944
G1 X134.238 Y143.727 E17.12479
G1 X133.296 Y144.667 E17.16911
G1 X132.224 Y145.533 E17.21502
G1 X131.1 Y146.263 E17.25966
G1 X129.913 Y146.867 E17.30403
G1 X128.729 Y147.326 E17.34633
G1 X128.533 Y147.389 E17.35318
G1 X127.293 Y147.721 E17.39594
G1 X125.97 Y147.931 E17.44057
G1 X124.65 Y148.001 E17.4846
G1 X123.225 Y147.931 E17.53212
G1 X121.925 Y147.727 E17.57596
G1 X120.626 Y147.38 E17.62074
G1 X119.276 Y146.863 E17.6689
G1 X118.101 Y146.263 E17.71284
G1 X116.984 Y145.54 E17.75717
G1 X115.854 Y144.622 E17.80566
G1 X114.948 Y143.719 E17.84827
G1 X114.092 Y142.663 E17.89355
G1 X113.335 Y141.502 E17.93972
G1 X112.705 Y140.257 E17.9862
G1 X112.234 Y139.03 E18.02998
G1 X111.877 Y137.697 E18.07595
G1 X111.663 Y136.361 E18.12102
G1 X111.595 Y135.034 E18.16528
G1 X111.664 Y133.637 E18.21187
G1 X111.876 Y132.301 E18.25693
G1 X112.228 Y130.984 E18.30234
G1 X112.696 Y129.763 E18.34589
G1 X112.746 Y129.653 E18.34992
G1 X113.345 Y128.479 E18.39382
G1 X114.082 Y127.347 E18.43882
G1 X114.904 Y126.33 E18.48237
G1 X115.93 Y125.304 E18.53071
G1 X116.949 Y124.48 E18.57436
G1 X118.073 Y123.75 E18.619
G1 X119.359 Y123.096 E18.66706
G1 X120.577 Y122.629 E18.71051
G1 X121.865 Y122.284 E18.75493
G1 X123.247 Y122.063 E18.80155
G1 X124.586 Y121.993 E18.84621
G1 X125.956 Y122.064 E18.89191
G0 F2625 X126.202 Y122.104
G0 X126.105 Y122.695
G0 X120.589 Y131.455
G0 X119.569 Y133.178
G0 X120.115 Y133.426
G1 F900 X119.915 Y134.207 E18.91877
G1 X119.848 Y135.01 E18.94561
G1 X119.919 Y135.812 E18.97243
G1 X120.123 Y136.591 E18.99925
G1 X120.457 Y137.325 E19.02611
G1 X120.909 Y137.991 E19.05292
G1 X121.469 Y138.571 E19.07978
G1 X122.118 Y139.049 E19.10663
G1 X122.837 Y139.41 E19.13343
