;Generated by Cura LulzBot Edition GCodeWriter Version: 3.6.18
;FLAVOR:Marlin
;TIME:197
;Filament used: 0.0526415m
;Layer height: 0.18
;Generated with Cura_SteamEngine 3.6.18
M82 ;absolute extrusion mode
;This G-Code has been generated specifically for the LulzBot Mini with standard extruder
M73 P0 ; clear GLCD progress bar
M75 ; Start GLCD Timer
G26 ; clear potential 'probe fail' condition
M107 ; disable fans
M420 S0 ; disable leveling matrix
G90 ; absolute positioning
M82 ; set extruder to absolute mode
G92 E0 ; set extruder position to 0
M140 S60.0 ; start bed heating up
G28 ; home all axes
G0 X0 Y187 Z156 F200 ; move away from endstops
M109 R140 ;
G1 E-30 F75 ; retract filament
M109 R140 ; wait for extruder to reach wiping temp
G1 X45 Y173 F11520 ; move above wiper pad
G1 Z0 F1200 ; push nozzle into wiper
G1 X42 Y173 Z-.5 F4000             ; wiping
G1 X52 Y171 Z-.5 F4000             ; wiping
G1 X42 Y173 Z0 F4000               ; wiping
G1 X52 Y171 F4000                  ; wiping
G1 X42 Y173 F4000                  ; wiping
G1 X52 Y171 F4000                  ; wiping
G1 X42 Y173 F4000                  ; wiping
G1 X52 Y171 F4000                  ; wiping
G1 X57 Y173 F4000                  ; wiping
G1 X77 Y171 F4000                  ; wiping
G1 X57 Y173 F4000                  ; wiping
G1 X77 Y171 F4000                  ; wiping
G1 X57 Y173 F4000                  ; wiping
G1 X87 Y171 F4000                  ; wiping
G1 X77 Y173 F4000                  ; wiping
G1 X97 Y171 F4000                  ; wiping
G1 X77 Y173 F4000                  ; wiping
G1 X97 Y171 F4000                  ; wiping
G1 X77 Y173 F4000                  ; wiping
G1 X97 Y171 F4000                  ; wiping
G1 X107 Y173 F4000                 ; wiping
G1 X97 Y171 F4000                  ; wiping
G1 X107 Y173 F4000                 ; wiping
G1 X97 Y171 F4000                  ; wiping
G1 X107 Y173 F4000                 ; wiping
G1 X112 Y171 Z-0.5 F1000           ; wiping
G1 Z10 ; raise extruder
G28 X0 Y0 ; home X and Y
G0 X0 Y187 F200 ; move away from endstops
M109 R140 ; wait for extruder to reach probe temp
M204 S300 ; set probing acceleration
G29       ; start auto-leveling sequence
M420 S1   ; enable leveling matrix
M425 Z	  ; use measured Z backlash for compensation
M425 Z F0 ; turn off measured Z backlash compensation. (if activated in the quality settings, this command will automatically be ignored)
M204 S2000 ; restore standard acceleration
G28 X0 Y0 ; re-home to account for build variance of earlier mini builds
G0 X0 Y187 F200 ; move away from endstops
G0 Y152 F4000 ; move in front of wiper pad
G4 S1 ; pause
M400 ; wait for moves to finish
M117 Heating... ; progress indicator message on LCD
M109 R210  ; wait for extruder to reach printing temp
M190 R60.0 ; wait for bed to reach printing temp
G1 Z2 E0 F75 ; prime tiny bit of filament into the nozzle
M117 Mini Printing... ; progress indicator message on LCD

M221 S100 T0
G92 E0
G1 F600 E-1.75
;LAYER_COUNT:6
;LAYER:0
M107
G0 F2625 X54.62 Y67.142 Z0.425
;TYPE:SKIRT
G1 F600 E0
G1 F900 X55.073 Y66.776 E0.0194
G1 X55.573 Y66.476 E0.03882
G1 X56.108 Y66.246 E0.05822
G1 X56.67 Y66.093 E0.07762
G1 X57.509 Y66.009 E0.10571
G1 X82.491 Y66.01 E0.93787
G1 X83.073 Y66.05 E0.9573
G1 X83.643 Y66.169 E0.9767
G1 X84.192 Y66.365 E0.99612
G1 X84.709 Y66.634 E1.01553
G1 X85.184 Y66.972 E1.03495
G1 X85.608 Y67.371 E1.05434
G1 X85.974 Y67.825 E1.07377
G1 X86.274 Y68.324 E1.09316
G1 X86.504 Y68.86 E1.11259
G1 X86.658 Y69.422 E1.132
G1 X86.741 Y70.26 E1.16005
G1 X86.741 Y83.475 E1.60025
G1 X86.701 Y84.056 E1.61965
G1 X86.582 Y84.627 E1.63908
G1 X86.386 Y85.176 E1.65849
G1 X86.117 Y85.692 E1.67788
G1 X85.779 Y86.168 E1.69732
G1 X85.38 Y86.592 E1.71672
G1 X84.926 Y86.958 E1.73614
G1 X84.427 Y87.258 E1.75554
G1 X83.891 Y87.488 E1.77497
G1 X83.329 Y87.642 E1.79438
G1 X82.491 Y87.725 E1.82243
G1 X57.51 Y87.723 E2.65455
G1 X56.928 Y87.683 E2.67399
G1 X56.358 Y87.564 E2.69338
G1 X55.809 Y87.368 E2.7128
G1 X55.292 Y87.098 E2.73223
G1 X54.817 Y86.761 E2.75163
G1 X54.393 Y86.362 E2.77102
G1 X54.027 Y85.908 E2.79045
G1 X53.726 Y85.409 E2.80986
G1 X53.497 Y84.873 E2.82927
G1 X53.343 Y84.311 E2.84869
G1 X53.26 Y83.473 E2.87674
G1 X53.259 Y70.259 E3.3169
G1 X53.299 Y69.678 E3.3363
G1 X53.418 Y69.107 E3.35573
G1 X53.614 Y68.559 E3.37511
G1 X53.883 Y68.042 E3.39453
G1 X54.221 Y67.567 E3.41395
G1 X54.62 Y67.142 E3.43336
G0 F2625 X55.11 Y67.377
G1 F900 X55.555 Y67.059 E3.45158
G1 X56.041 Y66.808 E3.4698
G1 X56.559 Y66.631 E3.48804
G1 X57.098 Y66.532 E3.50629
G1 X57.509 Y66.509 E3.52
G1 X82.491 Y66.51 E4.35216
G1 X83.037 Y66.55 E4.3704
G1 X83.571 Y66.669 E4.38862
G1 X84.083 Y66.864 E4.40687
G1 X84.56 Y67.132 E4.4251
G1 X84.993 Y67.467 E4.44334
G1 X85.373 Y67.861 E4.46157
G1 X85.692 Y68.306 E4.47981
G1 X85.942 Y68.793 E4.49804
G1 X86.119 Y69.311 E4.51628
G1 X86.218 Y69.849 E4.5345
G1 X86.241 Y70.26 E4.54821
G1 X86.241 Y83.475 E4.98841
G1 X86.201 Y84.021 E5.00664
G1 X86.082 Y84.555 E5.02487
G1 X85.887 Y85.066 E5.04309
G1 X85.619 Y85.544 E5.06134
G1 X85.284 Y85.977 E5.07958
G1 X84.89 Y86.357 E5.09781
G1 X84.445 Y86.676 E5.11605
G1 X83.958 Y86.926 E5.13428
G1 X83.44 Y87.103 E5.15252
G1 X82.902 Y87.202 E5.17074
G1 X82.491 Y87.225 E5.18445
G1 X57.51 Y87.223 E6.01658
G1 X56.964 Y87.183 E6.03481
G1 X56.43 Y87.064 E6.05304
G1 X55.918 Y86.868 E6.0713
G1 X55.441 Y86.601 E6.08951
G1 X55.008 Y86.266 E6.10774
G1 X54.628 Y85.872 E6.12598
G1 X54.309 Y85.427 E6.14422
G1 X54.059 Y84.94 E6.16245
G1 X53.882 Y84.422 E6.18069
G1 X53.783 Y83.884 E6.19891
G1 X53.76 Y83.473 E6.21262
G1 X53.759 Y70.259 E6.65278
G1 X53.799 Y69.713 E6.67102
G1 X53.918 Y69.179 E6.68924
G1 X54.113 Y68.668 E6.70746
G1 X54.381 Y68.19 E6.72572
G1 X54.716 Y67.757 E6.74395
G1 X55.11 Y67.377 E6.76219
G0 F2625 X55.209 Y67.963
G1 F900 X55.596 Y67.632 E6.77915
G1 X56.03 Y67.365 E6.79612
G1 X56.501 Y67.169 E6.81312
G1 X56.996 Y67.05 E6.83007
G1 X57.509 Y67.009 E6.84722
G1 X82.491 Y67.01 E7.67938
G1 X82.999 Y67.05 E7.69635
G1 X83.495 Y67.169 E7.71334
G1 X83.965 Y67.364 E7.73029
G1 X84.4 Y67.63 E7.74728
G1 X84.788 Y67.96 E7.76424
G1 X85.119 Y68.347 E7.78121
G1 X85.385 Y68.782 E7.79819
G1 X85.581 Y69.252 E7.81515
G1 X85.7 Y69.747 E7.83211
G1 X85.741 Y70.26 E7.84925
G1 X85.741 Y83.475 E8.28945
G1 X85.701 Y83.983 E8.30642
G1 X85.582 Y84.478 E8.32338
G1 X85.387 Y84.949 E8.34036
G1 X85.121 Y85.384 E8.35735
G1 X84.791 Y85.771 E8.37429
G1 X84.404 Y86.103 E8.39127
G1 X83.969 Y86.369 E8.40826
G1 X83.499 Y86.565 E8.42522
G1 X83.004 Y86.684 E8.44218
G1 X82.491 Y86.725 E8.45932
G1 X57.51 Y86.723 E9.29145
G1 X57.002 Y86.683 E9.30842
G1 X56.506 Y86.564 E9.32541
G1 X56.036 Y86.369 E9.34236
G1 X55.601 Y86.103 E9.35935
G1 X55.213 Y85.773 E9.37631
G1 X54.882 Y85.385 E9.3933
G1 X54.616 Y84.951 E9.41026
G1 X54.42 Y84.481 E9.42722
G1 X54.301 Y83.985 E9.44421
G1 X54.26 Y83.473 E9.46132
G1 X54.259 Y70.259 E9.90148
G1 X54.299 Y69.751 E9.91846
G1 X54.418 Y69.256 E9.93542
G1 X54.612 Y68.785 E9.95238
G1 X54.878 Y68.35 E9.96937
G1 X55.209 Y67.963 E9.98633
G1 F600 E8.23633
G1 F480 Z1.425
;MESH:
G0 F2625 X63 Y78.003 Z1.425
;TYPE:WALL-INNER
G1 F480 Z0.425
G1 F600 E9.98633
G1 F900 X63.382 Y77.969 E9.99911
G1 X63.749 Y77.874 E10.01173
G1 X64.099 Y77.717 E10.02451
G1 X64.416 Y77.502 E10.03727
G1 X64.691 Y77.239 E10.04995
G1 X64.918 Y76.931 E10.06269
G1 X65.091 Y76.59 E10.07543
G1 X65.201 Y76.225 E10.08813
G1 X65.251 Y75.847 E10.10083
G1 X65.235 Y75.463 E10.11363
G1 X65.154 Y75.089 E10.12638
G1 X65.011 Y74.736 E10.13906
G1 X64.812 Y74.411 E10.15176
G1 X64.56 Y74.124 E10.16448
G1 X64.262 Y73.883 E10.17725
G1 X63.928 Y73.697 E10.18998
G1 X63.567 Y73.569 E10.20274
G1 X63.205 Y73.508 E10.21497
G1 X63 Y73.5 E10.2218
G1 X62.795 Y73.508 E10.22864
G1 X62.433 Y73.569 E10.24086
G1 X62.072 Y73.697 E10.25362
G1 X61.738 Y73.883 E10.26636
G1 X61.44 Y74.124 E10.27912
G1 X61.188 Y74.411 E10.29185
G1 X60.989 Y74.736 E10.30454
G1 X60.846 Y75.089 E10.31723
G1 X60.765 Y75.463 E10.32997
G1 X60.749 Y75.847 E10.34278
G1 X60.799 Y76.225 E10.35548
G1 X60.909 Y76.59 E10.36818
G1 X61.082 Y76.931 E10.38091
G1 X61.309 Y77.239 E10.39366
G1 X61.584 Y77.502 E10.40633
G1 X61.901 Y77.717 E10.41909
G1 X62.251 Y77.874 E10.43187
G1 X62.618 Y77.969 E10.4445
G1 X63 Y78.003 E10.45727
G0 F2625 X63 Y78.103
G0 X67.65 Y82.484
G0 X67.75 Y82.484
G1 F900 X67.75 Y82.734 E10.4656
G1 X67.5 Y82.734 E10.47099
G1 X58.25 Y82.733 E10.77911
G1 X58.25 Y71 E11.16994
G1 X67.75 Y71 E11.48639
G1 X67.75 Y82.484 E11.86892
G0 F2625 X68.25 Y82.984
;TYPE:WALL-OUTER
G1 F900 X68.25 Y83.234 E11.87725
G1 X68 Y83.234 E11.88264
G1 X57.75 Y83.233 E12.22407
G1 X57.75 Y70.5 E12.64821
G1 X68.25 Y70.5 E12.99797
G1 X68.25 Y82.984 E13.41382
G0 F2625 X68.25 Y83.234
G0 X67.68 Y82.664
G0 X65.344 Y75.904
G0 X64.75 Y75.825
G1 F900 X64.737 Y75.527 E13.42375
G1 X64.674 Y75.237 E13.43364
G1 X64.563 Y74.962 E13.44352
G1 X64.408 Y74.709 E13.4534
G1 X64.212 Y74.486 E13.46329
G1 X63.981 Y74.299 E13.47319
G1 X63.721 Y74.154 E13.48311
G1 X63.441 Y74.055 E13.493
G1 X63.153 Y74.006 E13.50273
G1 X63 Y74 E13.50783
G1 X62.847 Y74.006 E13.51293
G1 X62.559 Y74.055 E13.52266
G1 X62.279 Y74.154 E13.53255
G1 X62.019 Y74.299 E13.54247
G1 X61.788 Y74.486 E13.55237
G1 X61.592 Y74.709 E13.56226
G1 X61.437 Y74.962 E13.57214
G1 X61.326 Y75.237 E13.58202
G1 X61.263 Y75.527 E13.59191
G1 X61.25 Y75.825 E13.60184
G1 X61.289 Y76.119 E13.61172
G1 X61.375 Y76.403 E13.62161
G1 X61.509 Y76.668 E13.6315
G1 X61.686 Y76.907 E13.64141
G1 X61.9 Y77.112 E13.65128
G1 X62.146 Y77.279 E13.66118
G1 X62.417 Y77.401 E13.67108
G1 X62.703 Y77.475 E13.68092
G1 X63 Y77.501 E13.69085
G1 X63.297 Y77.475 E13.70078
G1 X63.583 Y77.401 E13.71062
G1 X63.854 Y77.279 E13.72052
G1 X64.1 Y77.112 E13.73043
G1 X64.314 Y76.907 E13.7403
G1 X64.491 Y76.668 E13.75021
G1 X64.625 Y76.403 E13.7601
G1 X64.711 Y76.119 E13.76998
G1 X64.75 Y75.825 E13.77986
G0 F2625 X64.74 Y75.575
G0 X65.723 Y75.4
;TYPE:SKIN
G1 F900 X65.624 Y74.944 E13.7954
G1 X65.45 Y74.515 E13.81082
G1 X65.208 Y74.119 E13.82628
G1 X64.901 Y73.769 E13.84179
G1 X64.537 Y73.475 E13.85738
G1 X64.13 Y73.249 E13.87288
G1 X63.69 Y73.093 E13.88844
G1 X63.256 Y73.02 E13.9031
G1 X63 Y73.01 E13.91163
G1 X62.744 Y73.02 E13.92016
G1 X62.31 Y73.093 E13.93482
G1 X61.87 Y73.249 E13.95037
G1 X61.463 Y73.475 E13.96588
G1 X61.099 Y73.769 E13.98147
G1 X60.792 Y74.119 E13.99697
G1 X60.55 Y74.515 E14.01243
G1 X60.376 Y74.944 E14.02785
G1 X60.277 Y75.4 E14.0434
G1 X60.257 Y75.869 E14.05903
G1 X60.319 Y76.329 E14.0745
G1 X60.452 Y76.772 E14.0899
G1 X60.663 Y77.189 E14.10547
G1 X60.94 Y77.564 E14.121
G1 X61.275 Y77.884 E14.13643
G1 X61.662 Y78.146 E14.152
G1 X62.088 Y78.338 E14.16756
G1 X62.534 Y78.453 E14.18291
G1 X63 Y78.495 E14.19849
G1 X63.466 Y78.453 E14.21408
G1 X63.912 Y78.338 E14.22942
G1 X64.338 Y78.146 E14.24499
G1 X64.725 Y77.884 E14.26055
G1 X65.06 Y77.564 E14.27598
G1 X65.337 Y77.189 E14.29151
G1 X65.548 Y76.772 E14.30708
G1 X65.681 Y76.329 E14.32249
G1 X65.743 Y75.869 E14.33795
G1 X65.723 Y75.4 E14.35359
G0 F2625 X67.26 Y71.49
G1 F900 X67.26 Y82.244 E14.71181
G1 X58.74 Y82.243 E14.99561
G1 X58.74 Y71.49 E15.3538
G1 X67.26 Y71.49 E15.6376
G0 F2625 X67.035 Y71.984
G1 F900 X66.765 Y71.714 E15.65032
G0 F2625 X66.057 Y71.714
G1 F900 X67.035 Y72.691 E15.69637
G0 F2625 X67.035 Y73.399
G1 F900 X65.35 Y71.714 E15.77575
G0 F2625 X64.643 Y71.714
G1 F900 X67.035 Y74.106 E15.88843
G0 F2625 X67.035 Y74.813
G1 F900 X63.936 Y71.714 E16.03442
G0 F2625 X63.229 Y71.714
G1 F900 X67.035 Y75.52 E16.21371
G0 F2625 X67.035 Y76.227
G1 F900 X65.883 Y75.076 E16.26795
G0 F2625 X65.968 Y75.867
G1 F900 X67.035 Y76.934 E16.31822
G0 F2625 X67.035 Y77.641
G1 F900 X65.871 Y76.477 E16.37305
G0 F2625 X65.685 Y76.998
G1 F900 X67.035 Y78.348 E16.43665
G0 F2625 X67.035 Y79.055
G1 F900 X65.425 Y77.446 E16.51247
G0 F2625 X65.104 Y77.832
G1 F900 X67.035 Y79.763 E16.60343
G0 F2625 X67.035 Y80.47
G1 F900 X64.722 Y78.157 E16.71239
G0 F2625 X64.277 Y78.419
G1 F900 X67.035 Y81.177 E16.84232
G0 F2625 X67.035 Y81.884
G1 F900 X63.759 Y78.609 E16.99662
G0 F2625 X63.15 Y78.706
G1 F900 X66.461 Y82.018 E17.15262
G0 F2625 X65.754 Y82.018
G1 F900 X62.382 Y78.645 E17.31149
G1 X62.294 Y78.557
G0 F2625 X60.096 Y76.359
G1 F900 X58.964 Y75.228 E17.36479
G0 F2625 X58.964 Y74.521
G1 F900 X60.043 Y75.599 E17.4156
G0 F2625 X60.136 Y74.985
G1 F900 X58.964 Y73.814 E17.47078
G0 F2625 X58.964 Y73.107
G1 F900 X60.326 Y74.468 E17.53492
G0 F2625 X60.587 Y74.022
G1 F900 X58.964 Y72.399 E17.61138
G0 F2625 X58.986 Y71.714
G1 F900 X60.911 Y73.639 E17.70206
G0 F2625 X61.296 Y73.317
G1 F900 X59.693 Y71.714 E17.77757
G0 F2625 X60.401 Y71.714
G1 F900 X61.745 Y73.058 E17.84089
G0 F2625 X62.264 Y72.871
G1 F900 X61.108 Y71.714 E17.89537
G0 F2625 X61.815 Y71.714
G1 F900 X62.888 Y72.788 E17.94594
G0 F2625 X63.668 Y72.86
G1 F900 X62.522 Y71.714 E17.99992
G1 X62.434 Y71.626
G0 F2625 X58.964 Y75.935
G1 F900 X65.047 Y82.018 E18.28648
G0 F2625 X64.34 Y82.018
G1 F900 X58.964 Y76.642 E18.53973
G0 F2625 X58.964 Y77.349
G1 F900 X63.633 Y82.018 E18.75968
G0 F2625 X62.925 Y82.017
G1 F900 X58.964 Y78.056 E18.94628
G0 F2625 X58.964 Y78.763
G1 F900 X62.218 Y82.017 E19.09957
G0 F2625 X61.511 Y82.017
G1 F900 X58.964 Y79.471 E19.21953
G0 F2625 X58.964 Y80.178
G1 F900 X60.804 Y82.017 E19.30618
G0 F2625 X60.097 Y82.017
G1 F900 X58.964 Y80.885 E19.35953
G0 F2625 X58.964 Y81.592
G1 F900 X59.389 Y82.017 E19.37955
G1 F600 E17.62955
G1 F480 Z1.425
G0 F2625 X59.389 Y82.017 Z1.425
G0 X77 Y78.003
;TYPE:WALL-INNER
G1 F480 Z0.425
G1 F600 E19.37955
G1 F900 X77.382 Y77.969 E19.39233
G1 X77.749 Y77.874 E19.40495
G1 X78.099 Y77.717 E19.41773
G1 X78.416 Y77.502 E19.43049
G1 X78.691 Y77.239 E19.44317
G1 X78.918 Y76.931 E19.45591
G1 X79.091 Y76.59 E19.46865
G1 X79.201 Y76.225 E19.48135
G1 X79.251 Y75.847 E19.49405
G1 X79.235 Y75.463 E19.50685
G1 X79.154 Y75.089 E19.5196
G1 X79.011 Y74.736 E19.53228
G1 X78.812 Y74.411 E19.54498
G1 X78.56 Y74.124 E19.5577
G1 X78.262 Y73.883 E19.57047
G1 X77.928 Y73.697 E19.5832
G1 X77.567 Y73.569 E19.59596
G1 X77.205 Y73.508 E19.60819
G1 X77 Y73.5 E19.61502
G1 X76.795 Y73.508 E19.62186
G1 X76.433 Y73.569 E19.63408
G1 X76.072 Y73.697 E19.64684
G1 X75.738 Y73.883 E19.65958
G1 X75.44 Y74.124 E19.67234
G1 X75.188 Y74.411 E19.68507
G1 X74.989 Y74.736 E19.69776
G1 X74.846 Y75.089 E19.71045
G1 X74.765 Y75.463 E19.72319
G1 X74.749 Y75.847 E19.736
G1 X74.799 Y76.225 E19.7487
G1 X74.909 Y76.59 E19.7614
G1 X75.082 Y76.931 E19.77413
G1 X75.309 Y77.239 E19.78688
G1 X75.584 Y77.502 E19.79955
G1 X75.901 Y77.717 E19.81231
G1 X76.251 Y77.874 E19.82509
G1 X76.618 Y77.969 E19.83772
G1 X77 Y78.003 E19.85049
G0 F2625 X77 Y78.103
G0 X81.65 Y82.484
G0 X81.75 Y82.484
G1 F900 X81.75 Y82.734 E19.85882
G1 X81.5 Y82.734 E19.86421
G1 X72.25 Y82.733 E20.17233
G1 X72.25 Y71 E20.56316
G1 X81.75 Y71 E20.87961
G1 X81.75 Y82.484 E21.26214
G0 F2625 X82.25 Y82.984
;TYPE:WALL-OUTER
G1 F900 X82.25 Y83.234 E21.27047
G1 X82 Y83.234 E21.27586
G1 X71.75 Y83.233 E21.61729
G1 X71.75 Y70.5 E22.04143
G1 X82.25 Y70.5 E22.39119
G1 X82.25 Y82.984 E22.80704
G0 F2625 X82.25 Y83.234
G0 X81.68 Y82.664
G0 X79.344 Y75.904
G0 X78.75 Y75.825
G1 F900 X78.737 Y75.527 E22.81697
G1 X78.674 Y75.237 E22.82686
G1 X78.563 Y74.962 E22.83674
G1 X78.408 Y74.709 E22.84662
G1 X78.212 Y74.486 E22.85651
G1 X77.981 Y74.299 E22.86641
G1 X77.721 Y74.154 E22.87633
G1 X77.441 Y74.055 E22.88622
G1 X77.153 Y74.006 E22.89595
G1 X77 Y74 E22.90105
G1 X76.847 Y74.006 E22.90615
G1 X76.559 Y74.055 E22.91588
G1 X76.279 Y74.154 E22.92577
G1 X76.019 Y74.299 E22.93569
G1 X75.788 Y74.486 E22.94559
G1 X75.592 Y74.709 E22.95548
G1 X75.437 Y74.962 E22.96536
G1 X75.326 Y75.237 E22.97524
G1 X75.263 Y75.527 E22.98513
G1 X75.25 Y75.825 E22.99506
G1 X75.289 Y76.119 E23.00494
G1 X75.375 Y76.403 E23.01483
G1 X75.509 Y76.668 E23.02472
G1 X75.686 Y76.907 E23.03462
G1 X75.9 Y77.112 E23.0445
G1 X76.146 Y77.279 E23.0544
G1 X76.417 Y77.401 E23.0643
G1 X76.703 Y77.475 E23.07414
G1 X77 Y77.501 E23.08407
G1 X77.297 Y77.475 E23.094
G1 X77.583 Y77.401 E23.10384
G1 X77.854 Y77.279 E23.11374
G1 X78.1 Y77.112 E23.12365
G1 X78.314 Y76.907 E23.13352
G1 X78.491 Y76.668 E23.14343
G1 X78.625 Y76.403 E23.15332
