;Generated by Cura LulzBot Edition GCodeWriter Version: 3.6.18
;FLAVOR:Marlin
;TIME:5364
;Filament used: 1.55021m
;Layer height: 0.18
;Generated with Cura_SteamEngine 3.6.18
M82 ;absolute extrusion mode
;This G-Code has been generated specifically for the LulzBot Mini with standard extruder
M73 P0 ; clear GLCD progress bar
M75 ; Start GLCD Timer
G26 ; clear potential 'probe fail' condition
M107 ; disable fans
M420 S0 ; disable leveling matrix
G90 ; absolute positioning
M82 ; set extruder to absolute mode
G92 E0 ; set extruder position to 0
M140 S60.0 ; start bed heating up
G28 ; home all axes
G0 X0 Y187 Z156 F200 ; move away from endstops
M109 R140 ;
G1 E-30 F75 ; retract filament
M109 R140 ; wait for extruder to reach wiping temp
G1 X45 Y173 F11520 ; move above wiper pad
G1 Z0 F1200 ; push nozzle into wiper
G1 X42 Y173 Z-.5 F4000             ; wiping
G1 X52 Y171 Z-.5 F4000             ; wiping
G1 X42 Y173 Z0 F4000               ; wiping
G1 X52 Y171 F4000                  ; wiping
G1 X42 Y173 F4000                  ; wiping
G1 X52 Y171 F4000                  ; wiping
G1 X42 Y173 F4000                  ; wiping
G1 X52 Y171 F4000                  ; wiping
G1 X57 Y173 F4000                  ; wiping
G1 X77 Y171 F4000                  ; wiping
G1 X57 Y173 F4000                  ; wiping
G1 X77 Y171 F4000                  ; wiping
G1 X57 Y173 F4000                  ; wiping
G1 X87 Y171 F4000                  ; wiping
G1 X77 Y173 F4000                  ; wiping
G1 X97 Y171 F4000                  ; wiping
G1 X77 Y173 F4000                  ; wiping
G1 X97 Y171 F4000                  ; wiping
G1 X77 Y173 F4000                  ; wiping
G1 X97 Y171 F4000                  ; wiping
G1 X107 Y173 F4000                 ; wiping
G1 X97 Y171 F4000                  ; wiping
G1 X107 Y173 F4000                 ; wiping
G1 X97 Y171 F4000                  ; wiping
G1 X107 Y173 F4000                 ; wiping
G1 X112 Y171 Z-0.5 F1000           ; wiping
G1 Z10 ; raise extruder
G28 X0 Y0 ; home X and Y
G0 X0 Y187 F200 ; move away from endstops
M109 R140 ; wait for extruder to reach probe temp
M204 S300 ; set probing acceleration
G29       ; start auto-leveling sequence
M420 S1   ; enable leveling matrix
M425 Z	  ; use measured Z backlash for compensation
M425 Z F0 ; turn off measured Z backlash compensation. (if activated in the quality settings, this command will automatically be ignored)
M204 S2000 ; restore standard acceleration
G28 X0 Y0 ; re-home to account for build variance of earlier mini builds
G0 X0 Y187 F200 ; move away from endstops
G0 Y152 F4000 ; move in front of wiper pad
G4 S1 ; pause
M400 ; wait for moves to finish
M117 Heating... ; progress indicator message on LCD
M109 R210  ; wait for extruder to reach printing temp
M190 R60.0 ; wait for bed to reach printing temp
G1 Z2 E0 F75 ; prime tiny bit of filament into the nozzle
M117 Mini Printing... ; progress indicator message on LCD

M221 S100 T0
G92 E0
G1 F600 E-1.75
;LAYER_COUNT:83
;LAYER:0
M107
G0 F2625 X45.872 Y67.44 Z0.425
;TYPE:SKIRT
G1 F600 E0
G1 F900 X46.323 Y67.132 E0.01819
G1 X48.74 Y65.733 E0.11122
G1 X49.303 Y65.467 E0.13196
G1 X50.795 Y64.908 E0.18503
G1 X51.19 Y64.785 E0.19881
G1 X52.555 Y64.439 E0.24572
G1 X52.94 Y64.362 E0.2588
G1 X54.298 Y64.166 E0.3045
G1 X54.655 Y64.132 E0.31645
G1 X55.83 Y64.076 E0.35563
G1 X56.198 Y64.077 E0.36789
G1 X57.647 Y64.15 E0.41622
G1 X58.079 Y64.197 E0.43069
G1 X64.529 Y65.281 E0.64856
G1 X69.928 Y65.901 E0.82958
G1 X75.38 Y66.217 E1.01149
G1 X80.823 Y66.225 E1.1928
G1 X86.242 Y65.925 E1.37359
G1 X91.682 Y65.314 E1.55594
G1 X97.02 Y64.442 E1.7361
G1 X97.407 Y64.399 E1.74907
G1 X98.731 Y64.322 E1.79325
G1 X99.287 Y64.331 E1.81177
G1 X101.312 Y64.514 E1.8795
G1 X101.855 Y64.604 E1.89784
G1 X103.443 Y64.988 E1.95226
G1 X103.901 Y65.13 E1.96823
G1 X105.324 Y65.674 E2.01898
G1 X105.77 Y65.879 E2.03533
G1 X107.178 Y66.641 E2.08866
G1 X107.504 Y66.839 E2.10136
G1 X108.435 Y67.473 E2.13888
G1 X108.797 Y67.754 E2.15415
G1 X109.979 Y68.791 E2.20653
G1 X110.382 Y69.203 E2.22572
G1 X111.7 Y70.778 E2.29413
G1 X111.997 Y71.187 E2.31097
G1 X112.747 Y72.378 E2.35785
G1 X112.95 Y72.744 E2.37179
G1 X113.526 Y73.936 E2.41589
G1 X113.726 Y74.439 E2.43392
G1 X114.321 Y76.323 E2.49974
G1 X114.441 Y76.817 E2.51667
G1 X114.686 Y78.243 E2.56487
G1 X114.734 Y78.661 E2.57888
G1 X114.811 Y79.991 E2.62326
G1 X114.809 Y80.454 E2.63868
G1 X114.706 Y82.023 E2.69106
G1 X114.623 Y82.597 E2.71038
G1 X114.176 Y84.592 E2.77848
G1 X114.037 Y85.066 E2.79493
G1 X113.558 Y86.369 E2.84118
G1 X113.364 Y86.808 E2.85716
G1 X112.624 Y88.228 E2.9105
G1 X112.401 Y88.601 E2.92498
G1 X111.66 Y89.693 E2.96894
G1 X111.377 Y90.059 E2.98435
G1 X110.339 Y91.243 E3.0368
G1 X109.923 Y91.649 E3.05616
G1 X108.355 Y92.959 E3.12422
G1 X107.957 Y93.25 E3.14064
G1 X106.788 Y93.99 E3.18673
G1 X106.414 Y94.197 E3.20097
G1 X105.198 Y94.785 E3.24596
G1 X104.77 Y94.96 E3.26136
G1 X103.284 Y95.464 E3.31363
G1 X102.814 Y95.59 E3.32984
G1 X101.256 Y95.901 E3.38276
G1 X100.765 Y95.966 E3.39926
G1 X99.181 Y96.069 E3.45214
G1 X98.541 Y96.056 E3.47346
G1 X93.477 Y95.516 E3.6431
G1 X88.005 Y95.08 E3.82595
G1 X82.561 Y94.954 E4.00734
G1 X77.12 Y95.136 E4.18868
G1 X71.698 Y95.626 E4.37003
G1 X66.324 Y96.42 E4.55098
G1 X59.594 Y97.853 E4.78019
G1 X59.403 Y97.888 E4.78665
G1 X58.041 Y98.105 E4.8326
G1 X57.65 Y98.147 E4.84569
G1 X56.293 Y98.219 E4.89096
G1 X55.789 Y98.212 E4.90775
G1 X53.641 Y98.037 E4.97954
G1 X53.197 Y97.973 E4.99448
G1 X52.04 Y97.737 E5.03381
G1 X51.688 Y97.648 E5.04591
G1 X50.418 Y97.258 E5.09016
G1 X50.114 Y97.15 E5.10091
G1 X49.075 Y96.73 E5.13824
G1 X48.76 Y96.585 E5.14979
G1 X47.675 Y96.025 E5.19046
G1 X47.255 Y95.773 E5.20678
G1 X45.509 Y94.56 E5.2776
G1 X45.146 Y94.272 E5.29303
G1 X44.188 Y93.413 E5.33589
G1 X43.944 Y93.173 E5.34729
G1 X43.107 Y92.272 E5.38826
G1 X42.884 Y92.009 E5.39974
G1 X42.162 Y91.072 E5.43915
G1 X41.972 Y90.802 E5.45014
G1 X41.34 Y89.813 E5.48924
G1 X41.107 Y89.391 E5.5053
G1 X40.213 Y87.491 E5.57524
G1 X40.071 Y87.145 E5.5877
G1 X39.794 Y86.362 E5.61537
G1 X39.691 Y86.019 E5.6273
G1 X39.328 Y84.565 E5.67722
G1 X39.258 Y84.217 E5.68904
G1 X39.089 Y83.099 E5.7267
G1 X39.048 Y82.625 E5.74255
G1 X39.001 Y80.571 E5.81099
G1 X39.02 Y80.097 E5.82679
G1 X39.17 Y78.654 E5.87512
G1 X39.232 Y78.261 E5.88837
G1 X39.518 Y76.918 E5.93411
G1 X39.618 Y76.545 E5.94697
G1 X40.027 Y75.281 E5.99123
G1 X40.171 Y74.905 E6.00464
G1 X40.796 Y73.506 E6.05568
G1 X41.036 Y73.056 E6.07267
G1 X42.204 Y71.178 E6.14633
G1 X42.496 Y70.77 E6.16305
G1 X43.32 Y69.772 E6.20616
G1 X43.612 Y69.457 E6.22047
G1 X44.819 Y68.296 E6.27625
G1 X45.089 Y68.061 E6.28818
G1 X45.872 Y67.44 E6.32146
G0 F2625 X46.182 Y67.832
G1 F900 X46.574 Y67.565 E6.33726
G1 X48.991 Y66.166 E6.43029
G1 X49.479 Y65.936 E6.44826
G1 X50.971 Y65.377 E6.50133
G1 X51.312 Y65.27 E6.51324
G1 X52.677 Y64.924 E6.56014
G1 X53.012 Y64.857 E6.57152
G1 X54.37 Y64.661 E6.61723
G1 X54.679 Y64.632 E6.62757
G1 X55.854 Y64.576 E6.66675
G1 X56.173 Y64.576 E6.67738
G1 X57.622 Y64.649 E6.7257
G1 X57.997 Y64.69 E6.73827
G1 X64.45 Y65.774 E6.95623
G1 X69.895 Y66.4 E7.1388
G1 X75.368 Y66.717 E7.32142
G1 X80.832 Y66.725 E7.50342
G1 X86.291 Y66.422 E7.68554
G1 X91.759 Y65.809 E7.86883
G1 X97.101 Y64.936 E8.04913
G1 X97.436 Y64.898 E8.06036
G1 X98.76 Y64.821 E8.10454
G1 X99.242 Y64.829 E8.1206
G1 X101.267 Y65.012 E8.18833
G1 X101.738 Y65.09 E8.20423
G1 X103.326 Y65.474 E8.25865
G1 X103.723 Y65.597 E8.27249
G1 X105.146 Y66.141 E8.32324
G1 X105.532 Y66.319 E8.3374
G1 X106.94 Y67.081 E8.39073
G1 X107.222 Y67.253 E8.40173
G1 X108.153 Y67.887 E8.43925
G1 X108.467 Y68.13 E8.45248
G1 X109.649 Y69.167 E8.50485
G1 X109.998 Y69.524 E8.52148
G1 X111.316 Y71.099 E8.58989
G1 X111.574 Y71.453 E8.60449
G1 X112.324 Y72.644 E8.65137
G1 X112.5 Y72.962 E8.66348
G1 X113.076 Y74.154 E8.70758
G1 X113.249 Y74.589 E8.72317
G1 X113.844 Y76.473 E8.78898
G1 X113.948 Y76.902 E8.80369
G1 X114.193 Y78.328 E8.85188
G1 X114.235 Y78.69 E8.86402
G1 X114.312 Y80.02 E8.9084
G1 X114.31 Y80.421 E8.92176
G1 X114.207 Y81.99 E8.97413
G1 X114.135 Y82.488 E8.99089
G1 X113.688 Y84.483 E9.05899
G1 X113.567 Y84.893 E9.07323
G1 X113.088 Y86.196 E9.11948
G1 X112.92 Y86.577 E9.13335
G1 X112.18 Y87.997 E9.18669
G1 X111.987 Y88.32 E9.19922
G1 X111.246 Y89.412 E9.24318
G1 X111.001 Y89.729 E9.25652
G1 X109.963 Y90.913 E9.30897
G1 X109.603 Y91.265 E9.32575
G1 X108.035 Y92.575 E9.39381
G1 X107.689 Y92.827 E9.40806
G1 X106.52 Y93.567 E9.45415
G1 X106.197 Y93.747 E9.46647
G1 X104.981 Y94.335 E9.51146
G1 X104.61 Y94.487 E9.52481
G1 X103.124 Y94.991 E9.57708
G1 X102.716 Y95.1 E9.59115
G1 X101.158 Y95.411 E9.64407
G1 X100.733 Y95.467 E9.65835
G1 X99.149 Y95.57 E9.71123
G1 X98.594 Y95.559 E9.72972
G1 X93.534 Y95.02 E9.89922
G1 X88.02 Y94.58 E10.08348
G1 X82.556 Y94.453 E10.26554
G1 X77.094 Y94.637 E10.44758
G1 X71.634 Y95.13 E10.63019
G1 X66.241 Y95.926 E10.81178
G1 X59.49 Y97.364 E11.04171
G1 X59.324 Y97.395 E11.04733
G1 X57.962 Y97.612 E11.09327
G1 X57.623 Y97.647 E11.10462
G1 X56.266 Y97.719 E11.14989
G1 X55.83 Y97.713 E11.16442
G1 X53.682 Y97.538 E11.2362
G1 X53.296 Y97.483 E11.24919
G1 X52.139 Y97.247 E11.28852
G1 X51.835 Y97.17 E11.29897
G1 X50.565 Y96.78 E11.34322
G1 X50.301 Y96.686 E11.35256
G1 X49.262 Y96.266 E11.38989
G1 X48.989 Y96.141 E11.39989
G1 X47.904 Y95.581 E11.44056
G1 X47.541 Y95.362 E11.45468
G1 X45.795 Y94.149 E11.5255
G1 X45.479 Y93.9 E11.5389
G1 X44.521 Y93.041 E11.58176
G1 X44.31 Y92.833 E11.59163
G1 X43.473 Y91.932 E11.6326
G1 X43.28 Y91.704 E11.64255
G1 X42.558 Y90.767 E11.68195
G1 X42.393 Y90.533 E11.69149
G1 X41.761 Y89.544 E11.73059
G1 X41.559 Y89.178 E11.74451
G1 X40.665 Y87.278 E11.81446
G1 X40.542 Y86.978 E11.82526
G1 X40.265 Y86.195 E11.85292
G1 X40.176 Y85.898 E11.86325
G1 X39.813 Y84.444 E11.91317
G1 X39.753 Y84.143 E11.92339
G1 X39.584 Y83.025 E11.96106
G1 X39.548 Y82.613 E11.97483
G1 X39.501 Y80.559 E12.04327
G1 X39.517 Y80.149 E12.05694
G1 X39.667 Y78.706 E12.10526
G1 X39.721 Y78.365 E12.11677
G1 X40.007 Y77.022 E12.1625
G1 X40.094 Y76.698 E12.17368
G1 X40.503 Y75.434 E12.21793
G1 X40.628 Y75.109 E12.22953
G1 X41.253 Y73.71 E12.28057
G1 X41.46 Y73.32 E12.29528
G1 X42.628 Y71.442 E12.36895
G1 X42.882 Y71.089 E12.38343
G1 X43.706 Y70.091 E12.42654
G1 X43.959 Y69.818 E12.43894
G1 X45.166 Y68.657 E12.49473
G1 X45.399 Y68.453 E12.50505
G1 X46.182 Y67.832 E12.53833
G1 F600 E10.78833
G1 F480 Z1.425
G0 F2625 X96.279 Y79.514 Z1.425
;TYPE:SUPPORT
G1 F480 Z0.425
G1 F600 E12.53833
G1 F900 X96.439 Y79.06 E12.55437
G1 X96.664 Y78.656 E12.56977
G1 X96.951 Y78.302 E12.58495
G1 X97.299 Y77.995 E12.60041
G1 X97.704 Y77.746 E12.61625
G1 X98.138 Y77.571 E12.63184
G1 X98.58 Y77.476 E12.64689
G1 X99.057 Y77.455 E12.6628
G1 X99.516 Y77.514 E12.67821
G1 X99.961 Y77.651 E12.69372
G1 X100.371 Y77.858 E12.70902
G1 X100.752 Y78.139 E12.72479
G1 X101.071 Y78.473 E12.74018
G1 X101.329 Y78.854 E12.75551
G1 X101.526 Y79.288 E12.77138
G1 X101.64 Y79.728 E12.78652
G1 X101.68 Y80.196 E12.80217
G1 X101.64 Y80.665 E12.81785
G1 X101.526 Y81.106 E12.83302
G1 X101.331 Y81.535 E12.84872
G1 X101.055 Y81.945 E12.86518
G1 X100.909 Y82.108 E12.87247
G1 X100.781 Y82.233 E12.87843
G1 X100.376 Y82.532 E12.8952
G1 X99.958 Y82.743 E12.9108
G1 X99.52 Y82.878 E12.92606
G1 X99.055 Y82.937 E12.94168
G1 X98.578 Y82.917 E12.95758
G1 X98.142 Y82.823 E12.97244
G1 X97.7 Y82.644 E12.98832
G1 X97.303 Y82.401 E13.00383
G1 X96.958 Y82.098 E13.01912
G1 X96.66 Y81.728 E13.03495
G1 X96.437 Y81.328 E13.0502
G1 X96.28 Y80.881 E13.06598
G1 X96.203 Y80.435 E13.08106
G1 X96.203 Y79.955 E13.09705
G1 X96.279 Y79.514 E13.11195
G0 F2625 X96.403 Y80
G1 F900 X101.463 Y80 E13.2805
G1 F600 E11.5305
G1 F480 Z1.425
G0 F2625 X100 Y77.895 Z1.425
G1 F480 Z0.425
G1 F600 E13.2805
G1 F900 X100 Y82.499 E13.43387
G1 F600 E11.68387
G1 F480 Z1.425
;MESH:
G0 F2625 X57.366 Y68.63 Z1.425
;TYPE:WALL-INNER
G1 F480 Z0.425
G1 F600 E13.43387
G1 F900 X58.659 Y68.836 E13.47748
G1 X59.905 Y69.166 E13.52041
G1 X61.171 Y69.651 E13.56557
G1 X62.332 Y70.242 E13.60897
G1 X63.431 Y70.952 E13.65255
G1 X64.467 Y71.789 E13.69692
G1 X65.445 Y72.773 E13.74313
G1 X66.21 Y73.719 E13.78366
G1 X66.95 Y74.852 E13.82873
G1 X67.548 Y76.028 E13.87268
G1 X68.009 Y77.223 E13.91535
G1 X68.36 Y78.527 E13.96033
G1 X68.568 Y79.824 E14.00408
G1 X68.636 Y81.114 E14.04711
G1 X68.569 Y82.459 E14.09197
G1 X68.363 Y83.755 E14.13568
G1 X68.033 Y85.001 E14.17862
G1 X67.548 Y86.267 E14.22378
G1 X66.958 Y87.429 E14.26719
G1 X66.25 Y88.521 E14.31054
G1 X65.401 Y89.574 E14.3556
G1 X64.43 Y90.538 E14.40117
G1 X63.481 Y91.307 E14.44186
G1 X62.344 Y92.048 E14.48707
G1 X61.183 Y92.64 E14.53048
G1 X59.968 Y93.109 E14.57386
G1 X58.672 Y93.457 E14.61856
G1 X57.375 Y93.665 E14.66232
G1 X56.084 Y93.733 E14.70538
G1 X54.736 Y93.666 E14.75034
G1 X53.443 Y93.46 E14.79395
G1 X52.197 Y93.129 E14.8369
G1 X50.932 Y92.645 E14.88201
G1 X49.77 Y92.054 E14.92544
G1 X48.678 Y91.347 E14.96877
G1 X47.625 Y90.497 E15.01385
G1 X46.667 Y89.532 E15.05914
G1 X45.888 Y88.571 E15.10035
G1 X45.15 Y87.438 E15.14539
G1 X44.557 Y86.276 E15.18885
G1 X44.084 Y85.042 E15.23287
G1 X43.74 Y83.762 E15.27702
G1 X43.534 Y82.471 E15.32057
G1 X43.466 Y81.181 E15.3636
G1 X43.533 Y79.833 E15.40855
G1 X43.738 Y78.542 E15.4521
G1 X44.071 Y77.292 E15.49519
G1 X44.557 Y76.021 E15.54051
G1 X45.179 Y74.809 E15.58589
G1 X45.847 Y73.781 E15.62673
G1 X46.702 Y72.721 E15.67209
G1 X47.667 Y71.763 E15.71739
G1 X48.628 Y70.984 E15.7586
G1 X49.756 Y70.249 E15.80344
G1 X50.932 Y69.651 E15.84739
G1 X52.126 Y69.19 E15.89002
G1 X53.43 Y68.839 E15.93501
G1 X54.727 Y68.631 E15.97876
G1 X56.018 Y68.563 E16.02182
G1 X57.366 Y68.63 E16.06678
G0 F2625 X57.422 Y68.133
;TYPE:WALL-OUTER
G1 F900 X58.758 Y68.345 E16.11184
G1 X60.063 Y68.691 E16.15681
G1 X61.377 Y69.194 E16.20368
G1 X62.582 Y69.807 E16.24872
G1 X63.721 Y70.544 E16.29391
G1 X64.807 Y71.421 E16.3404
G1 X65.813 Y72.433 E16.38794
G1 X66.616 Y73.426 E16.43047
G1 X67.385 Y74.604 E16.47734
G1 X68.002 Y75.816 E16.52264
G1 X68.487 Y77.073 E16.56752
G1 X68.85 Y78.423 E16.61408
G1 X69.065 Y79.766 E16.65939
G1 X69.136 Y81.114 E16.70435
G1 X69.066 Y82.515 E16.75108
G1 X68.854 Y83.854 E16.79624
G1 X68.508 Y85.159 E16.84121
G1 X68.005 Y86.473 E16.88808
G1 X67.392 Y87.679 E16.93314
G1 X66.658 Y88.811 E16.97808
G1 X65.773 Y89.909 E17.02506
G1 X64.765 Y90.909 E17.07235
G1 X63.773 Y91.713 E17.11489
G1 X62.599 Y92.479 E17.16158
G1 X61.379 Y93.101 E17.2072
G1 X60.126 Y93.584 E17.25193
G1 X58.776 Y93.947 E17.2985
G1 X57.433 Y94.162 E17.3438
G1 X56.085 Y94.233 E17.38877
G1 X54.68 Y94.163 E17.43563
G1 X53.344 Y93.951 E17.48068
G1 X52.039 Y93.604 E17.52567
G1 X50.726 Y93.102 E17.57249
G1 X49.52 Y92.488 E17.61757
G1 X48.388 Y91.755 E17.66249
G1 X47.29 Y90.869 E17.70949
G1 X46.29 Y89.862 E17.75676
G1 X45.486 Y88.869 E17.79932
G1 X44.719 Y87.693 E17.84609
G1 X44.098 Y86.475 E17.89163
G1 X43.608 Y85.199 E17.93716
G1 X43.25 Y83.863 E17.98323
G1 X43.037 Y82.529 E18.02823
G1 X42.966 Y81.182 E18.07316
G1 X43.036 Y79.777 E18.12002
G1 X43.248 Y78.44 E18.16511
G1 X43.595 Y77.136 E18.21006
G1 X44.099 Y75.818 E18.25707
G1 X44.744 Y74.562 E18.3041
G1 X45.444 Y73.484 E18.34691
G1 X46.33 Y72.386 E18.39391
G1 X47.337 Y71.386 E18.44118
G1 X48.33 Y70.582 E18.48374
G1 X49.508 Y69.814 E18.53059
G1 X50.72 Y69.197 E18.57589
G1 X51.976 Y68.712 E18.62074
G1 X53.326 Y68.349 E18.6673
G1 X54.669 Y68.134 E18.71261
G1 X56.017 Y68.063 E18.75757
G1 X57.422 Y68.133 E18.80443
G0 F2625 X57.669 Y68.172
G0 X57.575 Y68.763
G0 X57.32 Y69.118
;TYPE:SKIN
G1 F900 X58.557 Y69.316 E18.84616
G1 X59.762 Y69.635 E18.88768
G1 X60.964 Y70.096 E18.93057
G1 X62.085 Y70.666 E18.97246
G1 X63.147 Y71.352 E19.01457
G1 X64.142 Y72.156 E19.05718
G1 X65.076 Y73.096 E19.10132
G1 X65.814 Y74.009 E19.14043
G1 X66.524 Y75.095 E19.18365
G1 X67.101 Y76.232 E19.22612
G1 X67.541 Y77.369 E19.26673
G1 X67.879 Y78.625 E19.31006
G1 X68.078 Y79.867 E19.35196
G1 X68.144 Y81.114 E19.39355
G1 X68.081 Y82.409 E19.43674
G1 X67.884 Y83.649 E19.47856
G1 X67.564 Y84.858 E19.52022
G1 X67.103 Y86.061 E19.56314
G1 X66.533 Y87.184 E19.60509
G1 X65.856 Y88.229 E19.64656
