;Generated by Cura LulzBot Edition GCodeWriter Version: 3.6.18
;FLAVOR:Marlin
;TIME:17642
;Filament used: 5.73054m
;Layer height: 0.18
;Generated with Cura_SteamEngine 3.6.18
M82 ;absolute extrusion mode
;This G-Code has been generated specifically for the LulzBot Mini with standard extruder
M73 P0 ; clear GLCD progress bar
M75 ; Start GLCD Timer
G26 ; clear potential 'probe fail' condition
M107 ; disable fans
M420 S0 ; disable leveling matrix
G90 ; absolute positioning
M82 ; set extruder to absolute mode
G92 E0 ; set extruder position to 0
M140 S60.0 ; start bed heating up
G28 ; home all axes
G0 X0 Y187 Z156 F200 ; move away from endstops
M109 R140 ;
G1 E-30 F75 ; retract filament
M109 R140 ; wait for extruder to reach wiping temp
G1 X45 Y173 F11520 ; move above wiper pad
G1 Z0 F1200 ; push nozzle into wiper
G1 X42 Y173 Z-.5 F4000             ; wiping
G1 X52 Y171 Z-.5 F4000             ; wiping
G1 X42 Y173 Z0 F4000               ; wiping
G1 X52 Y171 F4000                  ; wiping
G1 X42 Y173 F4000                  ; wiping
G1 X52 Y171 F4000                  ; wiping
G1 X42 Y173 F4000                  ; wiping
G1 X52 Y171 F4000                  ; wiping
G1 X57 Y173 F4000                  ; wiping
G1 X77 Y171 F4000                  ; wiping
G1 X57 Y173 F4000                  ; wiping
G1 X77 Y171 F4000                  ; wiping
G1 X57 Y173 F4000                  ; wiping
G1 X87 Y171 F4000                  ; wiping
G1 X77 Y173 F4000                  ; wiping
G1 X97 Y171 F4000                  ; wiping
G1 X77 Y173 F4000                  ; wiping
G1 X97 Y171 F4000                  ; wiping
G1 X77 Y173 F4000                  ; wiping
G1 X97 Y171 F4000                  ; wiping
G1 X107 Y173 F4000                 ; wiping
G1 X97 Y171 F4000                  ; wiping
G1 X107 Y173 F4000                 ; wiping
G1 X97 Y171 F4000                  ; wiping
G1 X107 Y173 F4000                 ; wiping
G1 X112 Y171 Z-0.5 F1000           ; wiping
G1 Z10 ; raise extruder
G28 X0 Y0 ; home X and Y
G0 X0 Y187 F200 ; move away from endstops
M109 R140 ; wait for extruder to reach probe temp
M204 S300 ; set probing acceleration
G29       ; start auto-leveling sequence
M420 S1   ; enable leveling matrix
M425 Z	  ; use measured Z backlash for compensation
M425 Z F0 ; turn off measured Z backlash compensation. (if activated in the quality settings, this command will automatically be ignored)
M204 S2000 ; restore standard acceleration
G28 X0 Y0 ; re-home to account for build variance of earlier mini builds
G0 X0 Y187 F200 ; move away from endstops
G0 Y152 F4000 ; move in front of wiper pad
G4 S1 ; pause
M400 ; wait for moves to finish
M117 Heating... ; progress indicator message on LCD
M109 R210  ; wait for extruder to reach printing temp
M190 R60.0 ; wait for bed to reach printing temp
G1 Z2 E0 F75 ; prime tiny bit of filament into the nozzle
M117 Mini Printing... ; progress indicator message on LCD

M221 S100 T0
G92 E0
G1 F600 E-1.75
;LAYER_COUNT:207
;LAYER:0
M107
G0 F2625 X12.719 Y43.329 Z0.425
;TYPE:SKIRT
G1 F600 E0
G1 F900 X13.214 Y43.207 E0.01698
G1 X13.743 Y43.164 E0.03466
G1 X140.251 Y43.16 E4.24869
G1 X140.759 Y43.2 E4.26566
G1 X141.254 Y43.319 E4.28262
G1 X141.725 Y43.514 E4.2996
G1 X142.16 Y43.78 E4.31659
G1 X142.531 Y44.094 E4.33278
G1 X142.788 Y44.347 E4.34479
G1 X143.122 Y44.732 E4.36177
G1 X143.392 Y45.164 E4.37874
G1 X143.591 Y45.633 E4.39571
G1 X143.714 Y46.128 E4.4127
G1 X143.758 Y46.663 E4.43058
G1 X143.76 Y107.328 E6.45135
G1 X143.72 Y107.836 E6.46833
G1 X143.601 Y108.331 E6.48528
G1 X143.406 Y108.802 E6.50226
G1 X143.14 Y109.237 E6.51925
G1 X142.835 Y109.599 E6.53502
G1 X142.579 Y109.861 E6.54722
G1 X142.195 Y110.197 E6.56421
G1 X141.764 Y110.468 E6.58117
G1 X141.295 Y110.669 E6.59817
G1 X140.801 Y110.794 E6.61514
G1 X140.255 Y110.84 E6.6334
G1 X104.208 Y110.85 E7.83414
G1 X104.095 Y110.848 E7.8379
G1 X98.65 Y110.66 E8.01938
G1 X69.213 Y110.65 E8.99994
G1 X62.77 Y110.848 E9.21466
G1 X62.669 Y110.85 E9.21802
G1 X13.748 Y110.84 E10.8476
G1 X13.24 Y110.8 E10.86458
G1 X12.745 Y110.681 E10.88153
G1 X12.274 Y110.486 E10.89851
G1 X11.84 Y110.22 E10.91547
G1 X11.464 Y109.901 E10.9319
G1 X11.205 Y109.645 E10.94403
G1 X10.872 Y109.26 E10.96098
G1 X10.603 Y108.827 E10.97796
G1 X10.405 Y108.358 E10.99492
G1 X10.283 Y107.863 E11.0119
G1 X10.24 Y107.334 E11.02958
G1 X10.24 Y46.67 E13.05032
G1 X10.28 Y46.162 E13.06729
G1 X10.399 Y45.667 E13.08425
G1 X10.594 Y45.196 E13.10123
G1 X10.86 Y44.761 E13.11822
G1 X11.178 Y44.385 E13.13462
G1 X11.431 Y44.129 E13.14661
G1 X11.817 Y43.796 E13.16359
G1 X12.25 Y43.527 E13.18057
G1 X12.719 Y43.329 E13.19753
G1 F600 E11.44753
G1 F480 Z1.425
G0 F2625 X13.847 Y46.65 Z1.425
;TYPE:SUPPORT
G1 F480 Z0.425
G1 F600 E13.19753
G1 F900 X140.153 Y46.65 E17.40483
G1 X140.27 Y46.767 E17.41034
G1 X140.27 Y107.233 E19.42448
G1 X140.153 Y107.35 E19.43
G1 X103.75 Y107.35 E20.64259
G1 X103.75 Y102.45 E20.80581
G1 X134.871 Y102.45 E21.84247
G1 X135.37 Y101.951 E21.86597
G1 X135.37 Y52.049 E23.52823
G1 X134.871 Y51.55 E23.55173
G1 X31.629 Y51.55 E26.99076
G1 X31.13 Y52.049 E27.01427
G1 X31.13 Y101.951 E28.67652
G1 X31.629 Y102.45 E28.70003
G1 X62.75 Y102.45 E29.73668
G1 X62.75 Y107.35 E29.8999
G1 X13.847 Y107.35 E31.52888
G1 X13.73 Y107.233 E31.53439
G1 X13.73 Y46.767 E33.54853
G1 X13.847 Y46.65 E33.55404
G1 F600 E31.80404
G1 F480 Z1.425
G0 F2625 X15 Y46.85 Z1.425
G1 F480 Z0.425
G1 F600 E33.55404
G1 F900 X15 Y107.15 E35.56266
G1 F600 E33.81266
G1 F480 Z1.425
G0 F2625 X13.929 Y105 Z1.425
G1 F480 Z0.425
G1 F600 E35.56266
G1 F900 X62.549 Y105 E37.18221
G1 F600 E35.43221
G1 F480 Z1.425
G0 F2625 X60 Y107.15 Z1.425
G1 F480 Z0.425
G1 F600 E37.18221
G1 F900 X60 Y102.65 E37.33211
G1 F600 E35.58211
G1 F480 Z1.425
G0 F2625 X55 Y102.65 Z1.425
G1 F480 Z0.425
G1 F600 E37.33211
G1 F900 X55 Y107.15 E37.482
G1 F600 E35.732
G1 F480 Z1.425
G0 F2625 X50 Y107.15 Z1.425
G1 F480 Z0.425
G1 F600 E37.482
G1 F900 X50 Y102.65 E37.6319
G1 F600 E35.8819
G1 F480 Z1.425
G0 F2625 X45 Y102.65 Z1.425
G1 F480 Z0.425
G1 F600 E37.6319
G1 F900 X45 Y107.15 E37.7818
G1 F600 E36.0318
G1 F480 Z1.425
G0 F2625 X40 Y107.15 Z1.425
G1 F480 Z0.425
G1 F600 E37.7818
G1 F900 X40 Y102.65 E37.93169
G1 F600 E36.18169
G1 F480 Z1.425
G0 F2625 X35 Y102.65 Z1.425
G1 F480 Z0.425
G1 F600 E37.93169
G1 F900 X35 Y107.15 E38.08159
G1 F600 E36.33159
G1 F480 Z1.425
G0 F2625 X30 Y107.15 Z1.425
G1 F480 Z0.425
G1 F600 E38.08159
G1 F900 X30 Y46.85 E40.0902
G1 F600 E38.3402
G1 F480 Z1.425
G0 F2625 X25 Y46.85 Z1.425
G1 F480 Z0.425
G1 F600 E40.0902
G1 F900 X25 Y107.15 E42.09882
G1 F600 E40.34882
G1 F480 Z1.425
G0 F2625 X20 Y107.15 Z1.425
G1 F480 Z0.425
G1 F600 E42.09882
G1 F900 X20 Y46.85 E44.10743
G1 F600 E42.35743
G1 F480 Z1.425
G0 F2625 X13.929 Y50 Z1.425
G1 F480 Z0.425
G1 F600 E44.10743
G1 F900 X140.07 Y50 E48.30924
G1 F600 E46.55924
G1 F480 Z1.425
G0 F2625 X140 Y46.85 Z1.425
G1 F480 Z0.425
G1 F600 E48.30924
G1 F900 X140 Y107.15 E50.31785
G1 F600 E48.56785
G1 F480 Z1.425
G0 F2625 X140.07 Y105 Z1.425
G1 F480 Z0.425
G1 F600 E50.31785
G1 F900 X103.95 Y105 E51.52102
G1 F600 E49.77102
G1 F480 Z1.425
G0 F2625 X105 Y107.15 Z1.425
G1 F480 Z0.425
G1 F600 E51.52102
G1 F900 X105 Y102.65 E51.67092
G1 F600 E49.92092
G1 F480 Z1.425
G0 F2625 X110 Y102.65 Z1.425
G1 F480 Z0.425
G1 F600 E51.67092
G1 F900 X110 Y107.15 E51.82081
G1 F600 E50.07081
G1 F480 Z1.425
G0 F2625 X115 Y107.15 Z1.425
G1 F480 Z0.425
G1 F600 E51.82081
G1 F900 X115 Y102.65 E51.97071
G1 F600 E50.22071
G1 F480 Z1.425
G0 F2625 X120 Y102.65 Z1.425
G1 F480 Z0.425
G1 F600 E51.97071
G1 F900 X120 Y107.15 E52.12061
G1 F600 E50.37061
G1 F480 Z1.425
G0 F2625 X125 Y107.15 Z1.425
G1 F480 Z0.425
G1 F600 E52.12061
G1 F900 X125 Y102.65 E52.2705
G1 F600 E50.5205
G1 F480 Z1.425
G0 F2625 X130 Y102.65 Z1.425
G1 F480 Z0.425
G1 F600 E52.2705
G1 F900 X130 Y107.15 E52.4204
G1 F600 E50.6704
G1 F480 Z1.425
G0 F2625 X135 Y107.15 Z1.425
G1 F480 Z0.425
G1 F600 E52.4204
G1 F900 X135 Y102.605 E52.5718
G1 F600 E50.8218
G1 F480 Z1.425
G0 F2625 X135.57 Y100 Z1.425
G1 F480 Z0.425
G1 F600 E52.5718
G1 F900 X140.07 Y100 E52.72169
G1 F600 E50.97169
G1 F480 Z1.425
G0 F2625 X140.07 Y95 Z1.425
G1 F480 Z0.425
G1 F600 E52.72169
G1 F900 X135.57 Y95 E52.87159
G1 F600 E51.12159
G1 F480 Z1.425
G0 F2625 X135.57 Y90 Z1.425
G1 F480 Z0.425
G1 F600 E52.87159
G1 F900 X140.07 Y90 E53.02149
G1 F600 E51.27149
G1 F480 Z1.425
G0 F2625 X140.07 Y85 Z1.425
G1 F480 Z0.425
G1 F600 E53.02149
G1 F900 X135.57 Y85 E53.17138
G1 F600 E51.42138
G1 F480 Z1.425
G0 F2625 X135.57 Y80 Z1.425
G1 F480 Z0.425
G1 F600 E53.17138
G1 F900 X140.07 Y80 E53.32128
G1 F600 E51.57128
G1 F480 Z1.425
G0 F2625 X140.07 Y75 Z1.425
G1 F480 Z0.425
G1 F600 E53.32128
G1 F900 X135.57 Y75 E53.47118
G1 F600 E51.72118
G1 F480 Z1.425
G0 F2625 X135.57 Y70 Z1.425
G1 F480 Z0.425
G1 F600 E53.47118
G1 F900 X140.07 Y70 E53.62107
G1 F600 E51.87107
G1 F480 Z1.425
G0 F2625 X140.07 Y65 Z1.425
G1 F480 Z0.425
G1 F600 E53.62107
G1 F900 X135.57 Y65 E53.77097
G1 F600 E52.02097
G1 F480 Z1.425
G0 F2625 X135.57 Y60 Z1.425
G1 F480 Z0.425
G1 F600 E53.77097
G1 F900 X140.07 Y60 E53.92087
G1 F600 E52.17087
G1 F480 Z1.425
G0 F2625 X140.07 Y55 Z1.425
G1 F480 Z0.425
G1 F600 E53.92087
G1 F900 X135.57 Y55 E54.07076
G1 F600 E52.32076
G1 F480 Z1.425
G0 F2625 X135 Y51.395 Z1.425
G1 F480 Z0.425
G1 F600 E54.07076
G1 F900 X135 Y46.85 E54.22216
G1 F600 E52.47216
G1 F480 Z1.425
G0 F2625 X130 Y46.85 Z1.425
G1 F480 Z0.425
G1 F600 E54.22216
G1 F900 X130 Y51.35 E54.37205
G1 F600 E52.62205
G1 F480 Z1.425
G0 F2625 X125 Y51.35 Z1.425
G1 F480 Z0.425
G1 F600 E54.37205
G1 F900 X125 Y46.85 E54.52195
G1 F600 E52.77195
G1 F480 Z1.425
G0 F2625 X120 Y46.85 Z1.425
G1 F480 Z0.425
G1 F600 E54.52195
G1 F900 X120 Y51.35 E54.67185
G1 F600 E52.92185
G1 F480 Z1.425
G0 F2625 X115 Y51.35 Z1.425
G1 F480 Z0.425
G1 F600 E54.67185
G1 F900 X115 Y46.85 E54.82174
G1 F600 E53.07174
G1 F480 Z1.425
G0 F2625 X110 Y46.85 Z1.425
G1 F480 Z0.425
G1 F600 E54.82174
G1 F900 X110 Y51.35 E54.97164
G1 F600 E53.22164
G1 F480 Z1.425
G0 F2625 X105 Y51.35 Z1.425
G1 F480 Z0.425
G1 F600 E54.97164
G1 F900 X105 Y46.85 E55.12154
G1 F600 E53.37154
G1 F480 Z1.425
G0 F2625 X100 Y46.85 Z1.425
G1 F480 Z0.425
G1 F600 E55.12154
G1 F900 X100 Y51.35 E55.27143
G1 F600 E53.52143
G1 F480 Z1.425
G0 F2625 X95 Y51.35 Z1.425
G1 F480 Z0.425
G1 F600 E55.27143
G1 F900 X95 Y46.85 E55.42133
G1 F600 E53.67133
G1 F480 Z1.425
G0 F2625 X90 Y46.85 Z1.425
G1 F480 Z0.425
G1 F600 E55.42133
G1 F900 X90 Y51.35 E55.57123
G1 F600 E53.82123
G1 F480 Z1.425
G0 F2625 X85 Y51.35 Z1.425
G1 F480 Z0.425
G1 F600 E55.57123
G1 F900 X85 Y46.85 E55.72112
G1 F600 E53.97112
G1 F480 Z1.425
G0 F2625 X80 Y46.85 Z1.425
G1 F480 Z0.425
G1 F600 E55.72112
G1 F900 X80 Y51.35 E55.87102
G1 F600 E54.12102
G1 F480 Z1.425
G0 F2625 X75 Y51.35 Z1.425
G1 F480 Z0.425
G1 F600 E55.87102
G1 F900 X75 Y46.85 E56.02092
G1 F600 E54.27092
G1 F480 Z1.425
G0 F2625 X70 Y46.85 Z1.425
G1 F480 Z0.425
G1 F600 E56.02092
G1 F900 X70 Y51.35 E56.17081
G1 F600 E54.42081
G1 F480 Z1.425
G0 F2625 X65 Y51.35 Z1.425
G1 F480 Z0.425
G1 F600 E56.17081
G1 F900 X65 Y46.85 E56.32071
G1 F600 E54.57071
G1 F480 Z1.425
G0 F2625 X60 Y46.85 Z1.425
G1 F480 Z0.425
G1 F600 E56.32071
G1 F900 X60 Y51.35 E56.47061
G1 F600 E54.72061
G1 F480 Z1.425
G0 F2625 X55 Y51.35 Z1.425
G1 F480 Z0.425
G1 F600 E56.47061
G1 F900 X55 Y46.85 E56.6205
G1 F600 E54.8705
G1 F480 Z1.425
G0 F2625 X50 Y46.85 Z1.425
G1 F480 Z0.425
G1 F600 E56.6205
G1 F900 X50 Y51.35 E56.7704
G1 F600 E55.0204
G1 F480 Z1.425
G0 F2625 X45 Y51.35 Z1.425
G1 F480 Z0.425
G1 F600 E56.7704
G1 F900 X45 Y46.85 E56.9203
G1 F600 E55.1703
G1 F480 Z1.425
G0 F2625 X40 Y46.85 Z1.425
G1 F480 Z0.425
G1 F600 E56.9203
G1 F900 X40 Y51.35 E57.07019
G1 F600 E55.32019
G1 F480 Z1.425
G0 F2625 X35 Y51.35 Z1.425
G1 F480 Z0.425
G1 F600 E57.07019
G1 F900 X35 Y46.85 E57.22009
G1 F600 E55.47009
G1 F480 Z1.425
G0 F2625 X30.929 Y55 Z1.425
G1 F480 Z0.425
G1 F600 E57.22009
G1 F900 X13.929 Y55 E57.78637
G1 F600 E56.03637
G1 F480 Z1.425
G0 F2625 X13.929 Y60 Z1.425
G1 F480 Z0.425
G1 F600 E57.78637
G1 F900 X30.929 Y60 E58.35264
G1 F600 E56.60264
G1 F480 Z1.425
G0 F2625 X30.929 Y65 Z1.425
G1 F480 Z0.425
G1 F600 E58.35264
G1 F900 X13.929 Y65 E58.91892
G1 F600 E57.16892
G1 F480 Z1.425
G0 F2625 X13.929 Y70 Z1.425
G1 F480 Z0.425
G1 F600 E58.91892
G1 F900 X30.929 Y70 E59.48519
G1 F600 E57.73519
G1 F480 Z1.425
G0 F2625 X30.929 Y75 Z1.425
G1 F480 Z0.425
G1 F600 E59.48519
G1 F900 X13.929 Y75 E60.05147
G1 F600 E58.30147
G1 F480 Z1.425
G0 F2625 X13.929 Y80 Z1.425
G1 F480 Z0.425
G1 F600 E60.05147
G1 F900 X30.929 Y80 E60.61775
G1 F600 E58.86775
G1 F480 Z1.425
G0 F2625 X30.929 Y85 Z1.425
G1 F480 Z0.425
G1 F600 E60.61775
G1 F900 X13.929 Y85 E61.18402
G1 F600 E59.43402
G1 F480 Z1.425
G0 F2625 X13.929 Y90 Z1.425
G1 F480 Z0.425
G1 F600 E61.18402
G1 F900 X30.929 Y90 E61.7503
G1 F600 E60.0003
G1 F480 Z1.425
G0 F2625 X30.929 Y95 Z1.425
G1 F480 Z0.425
G1 F600 E61.7503
G1 F900 X13.929 Y95 E62.31658
G1 F600 E60.56658
G1 F480 Z1.425
G0 F2625 X13.929 Y100 Z1.425
G1 F480 Z0.425
G1 F600 E62.31658
G1 F900 X30.929 Y100 E62.88285
G1 F600 E61.13285
G1 F480 Z1.425
;MESH:
G0 F2625 X101.25 Y106.65 Z1.425
;TYPE:WALL-INNER
G1 F480 Z0.425
G1 F600 E62.88285
G1 F900 X65.25 Y106.65 E64.08202
G1 X65.25 Y103.15 E64.19861
G1 X101.25 Y103.15 E65.39778
G1 X101.25 Y106.65 E65.51437
G0 F2625 X101.75 Y107.15
;TYPE:WALL-OUTER
G1 F900 X64.75 Y107.15 E66.74685
G1 X64.75 Y102.65 E66.89675
G1 X101.75 Y102.65 E68.12923
G1 X101.75 Y107.15 E68.27913
G0 F2625 X101.5 Y107.15
G0 X101.18 Y106.58
G0 X100.76 Y106.16
;TYPE:SKIN
G1 F900 X65.74 Y106.16 E69.44566
G1 X65.74 Y103.64 E69.5296
G1 X100.76 Y103.64 E70.69613
G1 X100.76 Y106.16 E70.78007
G0 F2625 X100.535 Y104.07
G1 F900 X100.328 Y103.864 E70.7898
G0 F2625 X99.621 Y103.864
G1 F900 X100.535 Y104.777 E70.83283
G0 F2625 X100.535 Y105.484
G1 F900 X98.914 Y103.864 E70.90917
G0 F2625 X98.207 Y103.864
G1 F900 X100.277 Y105.934 E71.00668
G0 F2625 X99.57 Y105.934
G1 F900 X97.5 Y103.864 E71.1042
G0 F2625 X96.793 Y103.864
G1 F900 X98.863 Y105.934 E71.20171
G0 F2625 X98.156 Y105.934
G1 F900 X96.085 Y103.864 E71.29925
G0 F2625 X95.378 Y103.864
G1 F900 X97.449 Y105.934 E71.39679
G0 F2625 X96.742 Y105.934
G1 F900 X94.671 Y103.864 E71.49432
G0 F2625 X93.964 Y103.864
G1 F900 X96.035 Y105.934 E71.59186
G0 F2625 X95.327 Y105.934
G1 F900 X93.257 Y103.864 E71.68937
G0 F2625 X92.55 Y103.864
G1 F900 X94.62 Y105.934 E71.78689
G0 F2625 X93.913 Y105.934
G1 F900 X91.843 Y103.864 E71.8844
G0 F2625 X91.136 Y103.864
G1 F900 X93.206 Y105.934 E71.98191
G0 F2625 X92.499 Y105.934
G1 F900 X90.429 Y103.864 E72.07943
G0 F2625 X89.721 Y103.864
G1 F900 X91.792 Y105.934 E72.17696
G0 F2625 X91.085 Y105.934
G1 F900 X89.014 Y103.864 E72.2745
G0 F2625 X88.307 Y103.864
G1 F900 X90.378 Y105.934 E72.37204
G0 F2625 X89.671 Y105.934
G1 F900 X87.6 Y103.864 E72.46958
G0 F2625 X86.893 Y103.864
G1 F900 X88.963 Y105.934 E72.56709
G0 F2625 X88.256 Y105.934
G1 F900 X86.186 Y103.864 E72.6646
G0 F2625 X85.479 Y103.864
G1 F900 X87.549 Y105.934 E72.76212
G0 F2625 X86.842 Y105.934
G1 F900 X84.772 Y103.864 E72.85963
G0 F2625 X84.065 Y103.864
G1 F900 X86.135 Y105.934 E72.95714
G0 F2625 X85.428 Y105.934
G1 F900 X83.357 Y103.864 E73.05468
G0 F2625 X82.65 Y103.864
G1 F900 X84.721 Y105.934 E73.15222
G0 F2625 X84.014 Y105.934
G1 F900 X81.943 Y103.864 E73.24975
G0 F2625 X81.236 Y103.864
G1 F900 X83.307 Y105.934 E73.34729
G0 F2625 X82.599 Y105.934
G1 F900 X80.529 Y103.864 E73.4448
G0 F2625 X79.822 Y103.864
G1 F900 X81.892 Y105.934 E73.54232
G0 F2625 X81.185 Y105.934
G1 F900 X79.115 Y103.864 E73.63983
G0 F2625 X78.408 Y103.864
G1 F900 X80.478 Y105.934 E73.73734
G0 F2625 X79.771 Y105.934
G1 F900 X77.701 Y103.864 E73.83486
G0 F2625 X76.994 Y103.864
G1 F900 X79.064 Y105.934 E73.93237
G0 F2625 X78.357 Y105.934
G1 F900 X76.286 Y103.864 E74.02991
G0 F2625 X75.579 Y103.864
G1 F900 X77.65 Y105.934 E74.12745
G0 F2625 X76.943 Y105.934
G1 F900 X74.872 Y103.864 E74.22498
G0 F2625 X74.165 Y103.864
G1 F900 X76.236 Y105.934 E74.32252
G0 F2625 X75.528 Y105.934
G1 F900 X73.458 Y103.864 E74.42003
G0 F2625 X72.751 Y103.864
G1 F900 X74.821 Y105.934 E74.51755
G0 F2625 X74.114 Y105.934
