;Generated by Cura LulzBot Edition GCodeWriter Version: 3.6.18
;FLAVOR:Marlin
;TIME:11389
;Filament used: 5.78592m
;Layer height: 0.25
;Generated with Cura_SteamEngine 3.6.18
M82 ;absolute extrusion mode
;This G-Code has been generated specifically for the LulzBot TAZ 6 with standard extruder
M73 P0 ; clear GLCD progress bar
M75 ; start GLCD timer
G26 ; clear potential 'probe fail' condition
M107 ; disable fans
M420 S0 ; disable previous leveling matrix
G90 ; absolute positioning
M82 ; set extruder to absolute mode
G92 E0 ; set extruder position to 0
M140 S60.0 ; start bed heating up
M109 R140 ; soften filament before homing Z
G28 ; Home all axis
G1 E-30 F100 ; retract filament
M109 R140 ; wait for extruder to reach wiping temp
G1 X-15 Y100 F3000 ; move above wiper pad
G1 Z1 ; push nozzle into wiper
G1 X-17 Y95 F1000 ; slow wipe
G1 X-17 Y90 F1000 ; slow wipe
G1 X-17 Y85 F1000 ; slow wipe
G1 X-15 Y90 F1000 ; slow wipe
G1 X-17 Y80 F1000 ; slow wipe
G1 X-15 Y95 F1000 ; slow wipe
G1 X-17 Y75 F2000 ; fast wipe
G1 X-15 Y65 F2000 ; fast wipe
G1 X-17 Y70 F2000 ; fast wipe
G1 X-15 Y60 F2000 ; fast wipe
G1 X-17 Y55 F2000 ; fast wipe
G1 X-15 Y50 F2000 ; fast wipe
G1 X-17 Y40 F2000 ; fast wipe
G1 X-15 Y45 F2000 ; fast wipe
G1 X-17 Y35 F2000 ; fast wipe
G1 X-15 Y40 F2000 ; fast wipe
G1 X-17 Y70 F2000 ; fast wipe
G1 X-15 Y30 Z2 F2000 ; fast wipe
G1 X-17 Y35 F2000 ; fast wipe
G1 X-15 Y25 F2000 ; fast wipe
G1 X-17 Y30 F2000 ; fast wipe
G1 X-15 Y25 Z1.5 F1000 ; slow wipe
G1 X-17 Y23 F1000 ; slow wipe
G1 Z10 ; raise extruder
M109 R140 ; wait for extruder to reach probe temp
G1 X-9 Y-9 ; move above first probe point
M204 S100 ; set probing acceleration
G29 ; start auto-leveling sequence
M420 S1 ; activate bed level matrix
M425 Z			     ; use measured Z backlash for compensation
M425 Z F0		     ; turn off measured Z backlash compensation. (if activated in the quality settings, this command will automatically be ignored)
M204 S500 ; restore standard acceleration
G1 X0 Y0 Z15 F5000 ; move up off last probe point
G4 S1 ; pause
M400 ; wait for moves to finish
M117 Heating... ; progress indicator message on LCD
M109 R210 ; wait for extruder to reach printing temp
M190 R60.0 ; wait for bed to reach printing temp
G1 Z2 E0 F75 ; prime tiny bit of filament into the nozzle
M117 TAZ 6 Printing... ; progress indicator message on LCD

M221 S100 T0
G92 E0
G1 F600 E-1.75
;LAYER_COUNT:150
;LAYER:0
M107
G0 F2625 X74.817 Y106.796 Z0.425
;TYPE:SKIRT
G1 F600 E0
G1 F900 X75.25 Y106.527 E0.01698
G1 X75.719 Y106.329 E0.03394
G1 X76.214 Y106.207 E0.05092
G1 X76.743 Y106.164 E0.0686
G1 X203.251 Y106.16 E4.28263
G1 X203.759 Y106.2 E4.2996
G1 X204.254 Y106.319 E4.31656
G1 X204.725 Y106.514 E4.33354
G1 X205.16 Y106.78 E4.35052
G1 X205.531 Y107.094 E4.36671
G1 X205.788 Y107.347 E4.37873
G1 X206.122 Y107.732 E4.3957
G1 X206.392 Y108.164 E4.41267
G1 X206.591 Y108.633 E4.42964
G1 X206.714 Y109.128 E4.44663
G1 X206.758 Y109.663 E4.46452
G1 X206.76 Y170.328 E6.48529
G1 X206.72 Y170.836 E6.50226
G1 X206.601 Y171.331 E6.51922
G1 X206.406 Y171.802 E6.5362
G1 X206.14 Y172.237 E6.55319
G1 X205.835 Y172.599 E6.56895
G1 X205.579 Y172.861 E6.58116
G1 X205.195 Y173.197 E6.59815
G1 X204.764 Y173.468 E6.61511
G1 X204.295 Y173.669 E6.63211
G1 X203.801 Y173.794 E6.64908
G1 X203.255 Y173.84 E6.66733
G1 X167.208 Y173.85 E7.86807
G1 X167.095 Y173.848 E7.87184
G1 X161.65 Y173.66 E8.05332
G1 X132.213 Y173.65 E9.03388
G1 X125.77 Y173.848 E9.2486
G1 X125.669 Y173.85 E9.25196
G1 X76.748 Y173.84 E10.88154
G1 X76.24 Y173.8 E10.89851
G1 X75.745 Y173.681 E10.91547
G1 X75.274 Y173.486 E10.93245
G1 X74.84 Y173.22 E10.94941
G1 X74.464 Y172.901 E10.96583
G1 X74.205 Y172.645 E10.97796
G1 X73.872 Y172.26 E10.99492
G1 X73.603 Y171.827 E11.0119
G1 X73.405 Y171.358 E11.02886
G1 X73.283 Y170.863 E11.04584
G1 X73.24 Y170.334 E11.06352
G1 X73.24 Y109.67 E13.08426
G1 X73.28 Y109.162 E13.10123
G1 X73.399 Y108.667 E13.11819
G1 X73.594 Y108.196 E13.13517
G1 X73.86 Y107.761 E13.15216
G1 X74.178 Y107.385 E13.16856
G1 X74.431 Y107.129 E13.18055
G1 X74.817 Y106.796 E13.19753
G1 F600 E11.44753
G0 F2625 X76.847 Y109.65
;TYPE:SUPPORT
G1 F600 E13.19753
G1 F900 X203.153 Y109.65 E17.40483
G1 X203.27 Y109.767 E17.41034
G1 X203.27 Y170.233 E19.42448
G1 X203.153 Y170.35 E19.43
G1 X166.75 Y170.35 E20.64259
G1 X166.75 Y165.45 E20.80581
G1 X197.871 Y165.45 E21.84247
G1 X198.37 Y164.951 E21.86597
G1 X198.37 Y115.049 E23.52823
G1 X197.871 Y114.55 E23.55173
G1 X94.629 Y114.55 E26.99076
G1 X94.13 Y115.049 E27.01427
G1 X94.13 Y164.951 E28.67652
G1 X94.629 Y165.45 E28.70003
G1 X125.75 Y165.45 E29.73668
G1 X125.75 Y170.35 E29.8999
G1 X76.847 Y170.35 E31.52888
G1 X76.73 Y170.233 E31.53439
G1 X76.73 Y109.767 E33.54853
G1 X76.847 Y109.65 E33.55404
G0 F2625 X76.93 Y110
G1 F900 X203.07 Y110 E37.75581
G1 F600 E36.00581
G0 F2625 X200 Y109.85
G1 F600 E37.75581
G1 F900 X200 Y170.15 E39.76443
G1 F600 E38.01443
G0 F2625 X203.07 Y170
G1 F600 E39.76443
G1 F900 X166.95 Y170 E40.9676
G1 F600 E39.2176
G0 F2625 X170 Y170.15
G1 F600 E40.9676
G1 F900 X170 Y165.65 E41.1175
G1 F600 E39.3675
G0 F2625 X175 Y165.65
G1 F600 E41.1175
G1 F900 X175 Y170.15 E41.26739
G1 F600 E39.51739
G0 F2625 X180 Y170.15
G1 F600 E41.26739
G1 F900 X180 Y165.65 E41.41729
G1 F600 E39.66729
G0 F2625 X185 Y165.65
G1 F600 E41.41729
G1 F900 X185 Y170.15 E41.56719
G1 F600 E39.81719
G0 F2625 X190 Y170.15
G1 F600 E41.56719
G1 F900 X190 Y165.65 E41.71708
G1 F600 E39.96708
G0 F2625 X195 Y165.65
G1 F600 E41.71708
G1 F900 X195 Y170.15 E41.86698
G1 F600 E40.11698
G0 F2625 X198.57 Y165
G1 F600 E41.86698
G1 F900 X203.07 Y165 E42.01688
G1 F600 E40.26688
G0 F2625 X203.07 Y160
G1 F600 E42.01688
G1 F900 X198.57 Y160 E42.16677
G1 F600 E40.41677
G0 F2625 X198.57 Y155
G1 F600 E42.16677
G1 F900 X203.07 Y155 E42.31667
G1 F600 E40.56667
G0 F2625 X203.07 Y150
G1 F600 E42.31667
G1 F900 X198.57 Y150 E42.46656
G1 F600 E40.71656
G0 F2625 X198.57 Y145
G1 F600 E42.46656
G1 F900 X203.07 Y145 E42.61646
G1 F600 E40.86646
G0 F2625 X203.07 Y140
G1 F600 E42.61646
G1 F900 X198.57 Y140 E42.76636
G1 F600 E41.01636
G0 F2625 X198.57 Y135
G1 F600 E42.76636
G1 F900 X203.07 Y135 E42.91625
G1 F600 E41.16625
G0 F2625 X203.07 Y130
G1 F600 E42.91625
G1 F900 X198.57 Y130 E43.06615
G1 F600 E41.31615
G0 F2625 X198.57 Y125
G1 F600 E43.06615
G1 F900 X203.07 Y125 E43.21605
G1 F600 E41.46605
G0 F2625 X203.07 Y120
G1 F600 E43.21605
G1 F900 X198.57 Y120 E43.36594
G1 F600 E41.61594
G0 F2625 X198.57 Y115
G1 F600 E43.36594
G1 F900 X203.07 Y115 E43.51584
G1 F600 E41.76584
G0 F2625 X195 Y114.35
G1 F600 E43.51584
G1 F900 X195 Y109.85 E43.66574
G1 F600 E41.91574
G0 F2625 X190 Y109.85
G1 F600 E43.66574
G1 F900 X190 Y114.35 E43.81563
G1 F600 E42.06563
G0 F2625 X185 Y114.35
G1 F600 E43.81563
G1 F900 X185 Y109.85 E43.96553
G1 F600 E42.21553
G0 F2625 X180 Y109.85
G1 F600 E43.96553
G1 F900 X180 Y114.35 E44.11543
G1 F600 E42.36543
G0 F2625 X175 Y114.35
G1 F600 E44.11543
G1 F900 X175 Y109.85 E44.26532
G1 F600 E42.51532
G0 F2625 X170 Y109.85
G1 F600 E44.26532
G1 F900 X170 Y114.35 E44.41522
G1 F600 E42.66522
G0 F2625 X165 Y114.35
G1 F600 E44.41522
G1 F900 X165 Y109.85 E44.56512
G1 F600 E42.81512
G0 F2625 X160 Y109.85
G1 F600 E44.56512
G1 F900 X160 Y114.35 E44.71501
G1 F600 E42.96501
G0 F2625 X155 Y114.35
G1 F600 E44.71501
G1 F900 X155 Y109.85 E44.86491
G1 F600 E43.11491
G0 F2625 X150 Y109.85
G1 F600 E44.86491
G1 F900 X150 Y114.35 E45.01481
G1 F600 E43.26481
G0 F2625 X145 Y114.35
G1 F600 E45.01481
G1 F900 X145 Y109.85 E45.1647
G1 F600 E43.4147
G0 F2625 X140 Y109.85
G1 F600 E45.1647
G1 F900 X140 Y114.35 E45.3146
G1 F600 E43.5646
G0 F2625 X135 Y114.35
G1 F600 E45.3146
G1 F900 X135 Y109.85 E45.4645
G1 F600 E43.7145
G0 F2625 X130 Y109.85
G1 F600 E45.4645
G1 F900 X130 Y114.35 E45.61439
G1 F600 E43.86439
G0 F2625 X125 Y114.35
G1 F600 E45.61439
G1 F900 X125 Y109.85 E45.76429
G1 F600 E44.01429
G0 F2625 X120 Y109.85
G1 F600 E45.76429
G1 F900 X120 Y114.35 E45.91419
G1 F600 E44.16419
G0 F2625 X115 Y114.35
G1 F600 E45.91419
G1 F900 X115 Y109.85 E46.06408
G1 F600 E44.31408
G0 F2625 X110 Y109.85
G1 F600 E46.06408
G1 F900 X110 Y114.35 E46.21398
G1 F600 E44.46398
G0 F2625 X105 Y114.35
G1 F600 E46.21398
G1 F900 X105 Y109.85 E46.36388
G1 F600 E44.61388
G0 F2625 X100 Y109.85
G1 F600 E46.36388
G1 F900 X100 Y114.35 E46.51377
G1 F600 E44.76377
G0 F2625 X95 Y114.35
G1 F600 E46.51377
G1 F900 X95 Y109.85 E46.66367
G1 F600 E44.91367
G0 F2625 X90 Y109.85
G1 F600 E46.66367
G1 F900 X90 Y170.15 E48.67229
G1 F600 E46.92229
G0 F2625 X95 Y170.15
G1 F600 E48.67229
G1 F900 X95 Y165.65 E48.82218
G1 F600 E47.07218
G0 F2625 X93.929 Y165
G1 F600 E48.82218
G1 F900 X76.929 Y165 E49.38846
G1 F600 E47.63846
G0 F2625 X76.929 Y160
G1 F600 E49.38846
G1 F900 X93.929 Y160 E49.95473
G1 F600 E48.20473
G0 F2625 X93.929 Y155
G1 F600 E49.95473
G1 F900 X76.929 Y155 E50.52101
G1 F600 E48.77101
G0 F2625 X76.929 Y150
G1 F600 E50.52101
G1 F900 X93.929 Y150 E51.08729
G1 F600 E49.33729
G0 F2625 X93.929 Y145
G1 F600 E51.08729
G1 F900 X76.929 Y145 E51.65356
G1 F600 E49.90356
G0 F2625 X76.929 Y140
G1 F600 E51.65356
G1 F900 X93.929 Y140 E52.21984
G1 F600 E50.46984
G0 F2625 X93.929 Y135
G1 F600 E52.21984
G1 F900 X76.929 Y135 E52.78611
G1 F600 E51.03611
G0 F2625 X76.929 Y130
G1 F600 E52.78611
G1 F900 X93.929 Y130 E53.35239
G1 F600 E51.60239
G0 F2625 X93.929 Y125
G1 F600 E53.35239
G1 F900 X76.929 Y125 E53.91867
G1 F600 E52.16867
G0 F2625 X76.929 Y120
G1 F600 E53.91867
G1 F900 X93.929 Y120 E54.48494
G1 F600 E52.73494
G0 F2625 X93.93 Y115
G1 F600 E54.48494
G1 F900 X76.93 Y115 E55.05122
G1 F600 E53.30122
G0 F2625 X80 Y109.85
G1 F600 E55.05122
G1 F900 X80 Y170.15 E57.05983
G1 F600 E55.30983
G0 F2625 X76.929 Y170
G1 F600 E57.05983
G1 F900 X125.549 Y170 E58.67938
G0 F2625 X125 Y170.15
G1 F900 X125 Y165.65 E58.82928
G1 F600 E57.07928
G0 F2625 X120 Y165.65
G1 F600 E58.82928
G1 F900 X120 Y170.15 E58.97918
G1 F600 E57.22918
G0 F2625 X115 Y170.15
G1 F600 E58.97918
G1 F900 X115 Y165.65 E59.12907
G1 F600 E57.37907
G0 F2625 X110 Y165.65
G1 F600 E59.12907
G1 F900 X110 Y170.15 E59.27897
G1 F600 E57.52897
G0 F2625 X105 Y170.15
G1 F600 E59.27897
G1 F900 X105 Y165.65 E59.42887
G1 F600 E57.67887
G0 F2625 X100 Y165.65
G1 F600 E59.42887
G1 F900 X100 Y170.15 E59.57876
G1 F600 E57.82876
G0 F2625 X85 Y170.15
G1 F600 E59.57876
G1 F900 X85 Y109.85 E61.58738
G1 F600 E59.83738
;MESH:
G0 F2625 X128.264 Y164.735
G0 X128.264 Y166.164
G0 X164.18 Y169.58
G0 X164.25 Y169.65
;TYPE:WALL-INNER
G1 F600 E61.58738
G1 F900 X128.25 Y169.65 E62.78655
G1 X128.25 Y166.15 E62.90314
G1 X164.25 Y166.15 E64.10231
G1 X164.25 Y169.65 E64.2189
G0 F2625 X164.75 Y170.15
;TYPE:WALL-OUTER
G1 F900 X127.75 Y170.15 E65.45138
G1 X127.75 Y165.65 E65.60128
G1 X164.75 Y165.65 E66.83376
G1 X164.75 Y170.15 E66.98366
G0 F2625 X164.5 Y170.15
G0 X164.18 Y169.58
G0 X163.76 Y169.16
;TYPE:SKIN
G1 F900 X128.74 Y169.16 E68.15019
G1 X128.74 Y166.64 E68.23413
G1 X163.76 Y166.64 E69.40066
G1 X163.76 Y169.16 E69.4846
G0 F2625 X163.535 Y167.07
G1 F900 X163.328 Y166.864 E69.49433
G0 F2625 X162.621 Y166.864
G1 F900 X163.535 Y167.778 E69.53738
G0 F2625 X163.535 Y168.485
G1 F900 X161.914 Y166.864 E69.61374
G0 F2625 X161.207 Y166.864
G1 F900 X163.277 Y168.934 E69.71126
G0 F2625 X162.57 Y168.934
G1 F900 X160.5 Y166.864 E69.80877
G0 F2625 X159.793 Y166.864
G1 F900 X161.863 Y168.934 E69.90629
G0 F2625 X161.155 Y168.934
G1 F900 X159.086 Y166.864 E70.00378
G0 F2625 X158.379 Y166.864
G1 F900 X160.448 Y168.934 E70.10127
G0 F2625 X159.741 Y168.934
G1 F900 X157.672 Y166.864 E70.19876
G0 F2625 X156.964 Y166.864
G1 F900 X159.034 Y168.934 E70.29627
G0 F2625 X158.327 Y168.934
G1 F900 X156.257 Y166.864 E70.39378
G0 F2625 X155.55 Y166.864
G1 F900 X157.62 Y168.934 E70.4913
G0 F2625 X156.913 Y168.934
G1 F900 X154.843 Y166.864 E70.58881
G0 F2625 X154.136 Y166.864
G1 F900 X156.206 Y168.934 E70.68632
G0 F2625 X155.499 Y168.934
G1 F900 X153.429 Y166.864 E70.78384
G0 F2625 X152.722 Y166.864
G1 F900 X154.792 Y168.934 E70.88135
G0 F2625 X154.084 Y168.934
G1 F900 X152.015 Y166.864 E70.97884
G0 F2625 X151.308 Y166.864
G1 F900 X153.377 Y168.934 E71.07633
G0 F2625 X152.67 Y168.934
G1 F900 X150.601 Y166.864 E71.17382
G0 F2625 X149.893 Y166.864
G1 F900 X151.963 Y168.934 E71.27133
G0 F2625 X151.256 Y168.934
G1 F900 X149.186 Y166.864 E71.36885
G0 F2625 X148.479 Y166.864
G1 F900 X150.549 Y168.934 E71.46636
G0 F2625 X149.842 Y168.934
G1 F900 X147.772 Y166.864 E71.56387
G0 F2625 X147.065 Y166.864
G1 F900 X149.135 Y168.934 E71.66139
G0 F2625 X148.428 Y168.934
G1 F900 X146.358 Y166.864 E71.7589
G0 F2625 X145.651 Y166.864
G1 F900 X147.72 Y168.934 E71.85639
G0 F2625 X147.013 Y168.934
G1 F900 X144.944 Y166.864 E71.95388
G0 F2625 X144.237 Y166.864
G1 F900 X146.306 Y168.934 E72.05137
G0 F2625 X145.599 Y168.934
G1 F900 X143.529 Y166.864 E72.14888
G0 F2625 X142.822 Y166.864
G1 F900 X144.892 Y168.934 E72.2464
G0 F2625 X144.185 Y168.934
G1 F900 X142.115 Y166.864 E72.34391
G0 F2625 X141.408 Y166.864
G1 F900 X143.478 Y168.934 E72.44142
G0 F2625 X142.771 Y168.934
G1 F900 X140.701 Y166.864 E72.53894
G0 F2625 X139.994 Y166.864
G1 F900 X142.064 Y168.934 E72.63645
G0 F2625 X141.357 Y168.934
G1 F900 X139.287 Y166.864 E72.73396
G0 F2625 X138.58 Y166.864
G1 F900 X140.649 Y168.934 E72.83145
G0 F2625 X139.942 Y168.934
G1 F900 X137.873 Y166.864 E72.92894
G0 F2625 X137.165 Y166.864
G1 F900 X139.235 Y168.934 E73.02646
G0 F2625 X138.528 Y168.934
G1 F900 X136.458 Y166.864 E73.12397
G0 F2625 X135.751 Y166.864
G1 F900 X137.821 Y168.934 E73.22148
G0 F2625 X137.114 Y168.934
G1 F900 X135.044 Y166.864 E73.319
G0 F2625 X134.337 Y166.864
G1 F900 X136.407 Y168.934 E73.41651
G0 F2625 X135.7 Y168.934
G1 F900 X133.63 Y166.864 E73.51403
G0 F2625 X132.923 Y166.864
G1 F900 X134.993 Y168.934 E73.61154
G0 F2625 X134.285 Y168.934
G1 F900 X132.216 Y166.864 E73.70903
G0 F2625 X131.509 Y166.864
G1 F900 X133.578 Y168.934 E73.80652
G0 F2625 X132.871 Y168.934
M104 S205
G1 F900 X130.802 Y166.864 E73.90401
G0 F2625 X130.094 Y166.864
G1 F900 X132.164 Y168.934 E74.00152
G0 F2625 X131.457 Y168.934
G1 F900 X129.387 Y166.864 E74.09904
G0 F2625 X128.964 Y167.148
G1 F900 X130.75 Y168.934 E74.18317
G0 F2625 X130.043 Y168.934
G1 F900 X128.964 Y167.855 E74.234
G0 F2625 X128.964 Y168.562
G1 F900 X129.336 Y168.934 E74.25152
G1 F600 E72.50152
;MESH:NONMESH
G0 F2625 X128.264 Y166.164
G0 X128.264 Y164.735
G0 X80 Y109.65
;TIME_ELAPSED:198.878081
;LAYER:1
M140 S60
M221 S100 T0
M106 S36.4
G0 F6562.5 X80 Y109.65 Z0.675
;TYPE:SUPPORT
G1 F600 E74.25152
G1 F2250 X76.847 Y109.65 E74.3133
G1 X76.73 Y109.767 E74.31655
G1 X76.73 Y170.233 E75.50134
G1 X76.847 Y170.35 E75.50458
G1 X80 Y170.35 E75.56636
G1 X80 Y109.65 E76.75574
G1 X85 Y109.65 E76.85371
G1 X85 Y170.35 E78.04308
G1 X90 Y170.35 E78.14106
G1 X90 Y109.65 E79.33043
G1 X95 Y109.65 E79.4284
G1 X95 Y114.55 E79.52442
G1 X94.629 Y114.55 E79.53168
G1 X94.13 Y115.049 E79.54551
G1 X94.13 Y164.951 E80.52331
G1 X94.629 Y165.45 E80.53714
G1 X95 Y165.45 E80.54441
G1 X95 Y170.35 E80.64042
G1 X100 Y170.35 E80.73839
G1 X100 Y165.45 E80.8344
G1 X105 Y165.45 E80.93237
G1 X105 Y170.35 E81.02839
G1 X110 Y170.35 E81.12636
G1 X110 Y165.45 E81.22237
G1 X115 Y165.45 E81.32034
G1 X115 Y170.35 E81.41635
G1 X120 Y170.35 E81.51433
G1 X120 Y165.45 E81.61034
G1 X125 Y165.45 E81.70831
G1 X125 Y170.35 E81.80432
G1 X125.75 Y170.35 E81.81902
G1 X125.75 Y165.45 E81.91503
G1 X125 Y165.45 E81.92972
G1 F600 E80.17972
G0 F6562.5 X127.372 Y164.739
G0 X165.128 Y164.739
G0 X170 Y165.45
G1 F600 E81.92972
G1 F2250 X166.75 Y165.45 E81.99341
G1 X166.75 Y170.35 E82.08942
G1 X170 Y170.35 E82.1531
G1 X170 Y165.45 E82.24911
G1 X175 Y165.45 E82.34708
G1 X175 Y170.35 E82.4431
G1 X180 Y170.35 E82.54107
G1 X180 Y165.45 E82.63708
G1 X185 Y165.45 E82.73505
G1 X185 Y170.35 E82.83106
G1 X190 Y170.35 E82.92904
G1 X190 Y165.45 E83.02505
G1 X195 Y165.45 E83.12302
G1 X195 Y170.35 E83.21903
G1 X200 Y170.35 E83.317
G1 X200 Y109.65 E84.50638
G1 X203.153 Y109.65 E84.56816
G1 X203.27 Y109.767 E84.5714
G1 X203.27 Y170.233 E85.75619
G1 X203.153 Y170.35 E85.75944
G1 X200 Y170.35 E85.82122
G1 F600 E84.07122
G0 F6562.5 X195 Y165.45
G1 F600 E85.82122
G1 F2250 X197.871 Y165.45 E85.87747
