;Generated by Cura LulzBot Edition GCodeWriter Version: 3.6.18
;FLAVOR:Marlin
;TIME:17144
;Filament used: 10.152m
;Layer height: 0.25
;Generated with Cura_SteamEngine 3.6.18
M82 ;absolute extrusion mode
;This G-Code has been generated specifically for the LulzBot TAZ 6 with standard extruder
M73 P0 ; clear GLCD progress bar
M75 ; start GLCD timer
G26 ; clear potential 'probe fail' condition
M107 ; disable fans
M420 S0 ; disable previous leveling matrix
G90 ; absolute positioning
M82 ; set extruder to absolute mode
G92 E0 ; set extruder position to 0
M140 S60.0 ; start bed heating up
M109 R140 ; soften filament before homing Z
G28 ; Home all axis
G1 E-30 F100 ; retract filament
M109 R140 ; wait for extruder to reach wiping temp
G1 X-15 Y100 F3000 ; move above wiper pad
G1 Z1 ; push nozzle into wiper
G1 X-17 Y95 F1000 ; slow wipe
G1 X-17 Y90 F1000 ; slow wipe
G1 X-17 Y85 F1000 ; slow wipe
G1 X-15 Y90 F1000 ; slow wipe
G1 X-17 Y80 F1000 ; slow wipe
G1 X-15 Y95 F1000 ; slow wipe
G1 X-17 Y75 F2000 ; fast wipe
G1 X-15 Y65 F2000 ; fast wipe
G1 X-17 Y70 F2000 ; fast wipe
G1 X-15 Y60 F2000 ; fast wipe
G1 X-17 Y55 F2000 ; fast wipe
G1 X-15 Y50 F2000 ; fast wipe
G1 X-17 Y40 F2000 ; fast wipe
G1 X-15 Y45 F2000 ; fast wipe
G1 X-17 Y35 F2000 ; fast wipe
G1 X-15 Y40 F2000 ; fast wipe
G1 X-17 Y70 F2000 ; fast wipe
G1 X-15 Y30 Z2 F2000 ; fast wipe
G1 X-17 Y35 F2000 ; fast wipe
G1 X-15 Y25 F2000 ; fast wipe
G1 X-17 Y30 F2000 ; fast wipe
G1 X-15 Y25 Z1.5 F1000 ; slow wipe
G1 X-17 Y23 F1000 ; slow wipe
G1 Z10 ; raise extruder
M109 R140 ; wait for extruder to reach probe temp
G1 X-9 Y-9 ; move above first probe point
M204 S100 ; set probing acceleration
G29 ; start auto-leveling sequence
M420 S1 ; activate bed level matrix
M425 Z			     ; use measured Z backlash for compensation
M425 Z F0		     ; turn off measured Z backlash compensation. (if activated in the quality settings, this command will automatically be ignored)
M204 S500 ; restore standard acceleration
G1 X0 Y0 Z15 F5000 ; move up off last probe point
G4 S1 ; pause
M400 ; wait for moves to finish
M117 Heating... ; progress indicator message on LCD
M109 R210 ; wait for extruder to reach printing temp
M190 R60.0 ; wait for bed to reach printing temp
G1 Z2 E0 F75 ; prime tiny bit of filament into the nozzle
M117 TAZ 6 Printing... ; progress indicator message on LCD

M221 S100 T0
G92 E0
G1 F600 E-1.75
;LAYER_COUNT:326
;LAYER:0
M107
G0 F2625 X64.33 Y125.433 Z0.425
;TYPE:SKIRT
G1 F600 E0
G1 F900 X64.799 Y125.233 E0.01698
G1 X65.293 Y125.109 E0.03395
G1 X65.834 Y125.064 E0.05203
G1 X122.706 Y125.05 E1.94646
G1 X128.245 Y124.893 E2.13104
G1 X133.686 Y124.431 E2.31293
G1 X139.087 Y123.661 E2.49466
G1 X144.471 Y122.582 E2.67757
G1 X147.108 Y121.936 E2.76801
G1 X152.376 Y120.405 E2.95075
G1 X157.552 Y118.578 E3.13359
G1 X162.582 Y116.475 E3.31519
G1 X167.878 Y113.89 E3.5115
G1 X168.352 Y113.703 E3.52847
G1 X168.849 Y113.593 E3.54543
G1 X169.303 Y113.561 E3.56059
G1 X214.156 Y113.56 E5.05466
G1 X214.664 Y113.6 E5.07163
G1 X215.159 Y113.719 E5.08859
G1 X215.63 Y113.914 E5.10557
G1 X216.065 Y114.18 E5.12255
G1 X216.436 Y114.494 E5.13874
G1 X216.698 Y114.752 E5.15099
G1 X217.032 Y115.137 E5.16797
G1 X217.302 Y115.569 E5.18494
G1 X217.501 Y116.039 E5.20194
G1 X217.624 Y116.533 E5.2189
G1 X217.668 Y117.068 E5.23678
G1 X217.668 Y162.928 E6.76439
G1 X217.628 Y163.436 E6.78137
G1 X217.509 Y163.931 E6.79833
G1 X217.314 Y164.402 E6.81531
G1 X217.048 Y164.837 E6.83229
G1 X216.743 Y165.199 E6.84806
G1 X216.487 Y165.461 E6.86026
G1 X216.103 Y165.797 E6.87726
G1 X215.672 Y166.068 E6.89422
G1 X215.203 Y166.269 E6.91121
G1 X214.709 Y166.394 E6.92819
G1 X214.162 Y166.44 E6.94647
G1 X169.306 Y166.44 E8.44064
G1 X168.798 Y166.4 E8.45762
G1 X168.303 Y166.281 E8.47457
G1 X167.863 Y166.102 E8.4904
G1 X163.867 Y164.121 E8.63896
G1 X158.806 Y161.918 E8.82283
G1 X156.285 Y160.946 E8.91283
G1 X153.708 Y160.036 E9.00386
G1 X148.475 Y158.433 E9.18617
G1 X143.137 Y157.122 E9.36927
G1 X140.442 Y156.579 E9.46084
G1 X137.824 Y156.131 E9.54932
G1 X132.344 Y155.428 E9.73335
G1 X126.873 Y155.039 E9.91605
G1 X122.729 Y154.95 E10.05412
G1 X65.84 Y154.94 E11.94912
G1 X65.332 Y154.9 E11.96609
G1 X64.837 Y154.781 E11.98305
G1 X64.366 Y154.586 E12.00003
G1 X63.932 Y154.32 E12.01699
G1 X63.556 Y154.001 E12.03341
G1 X63.297 Y153.745 E12.04554
G1 X62.964 Y153.36 E12.0625
G1 X62.695 Y152.927 E12.07948
G1 X62.497 Y152.458 E12.09644
G1 X62.375 Y151.963 E12.11342
G1 X62.332 Y151.434 E12.1311
G1 X62.332 Y128.572 E12.89264
G1 X62.372 Y128.064 E12.90961
G1 X62.491 Y127.569 E12.92657
G1 X62.686 Y127.098 E12.94355
G1 X62.952 Y126.663 E12.96054
G1 X63.262 Y126.296 E12.97654
G1 X63.515 Y126.038 E12.98857
G1 X63.899 Y125.704 E13.00553
G1 X64.33 Y125.433 E13.02249
G1 F600 E11.27249
G0 F2625 X65.939 Y128.55
;TYPE:SUPPORT
G1 F600 E13.02249
G1 F900 X168.791 Y128.55 E16.44852
G1 X169.29 Y128.051 E16.47203
G1 X169.29 Y117.167 E16.83458
G1 X169.407 Y117.05 E16.84009
G1 X214.061 Y117.05 E18.32753
G1 X214.178 Y117.167 E18.33304
G1 X214.178 Y162.833 E19.8542
G1 X214.061 Y162.95 E19.85971
G1 X169.407 Y162.95 E21.34715
G1 X169.29 Y162.833 E21.35266
G1 X169.29 Y151.949 E21.71521
G1 X168.791 Y151.45 E21.73872
G1 X65.939 Y151.45 E25.16475
G1 X65.822 Y151.333 E25.17027
G1 X65.822 Y128.667 E25.92528
G1 X65.939 Y128.55 E25.93079
G1 F600 E24.18079
G0 F2625 X73.522 Y136.414
G1 F600 E25.93079
G1 F900 X72.969 Y136.908 E25.95549
G1 X72.498 Y137.48 E25.98017
G1 X72.119 Y138.156 E26.00599
G1 X71.881 Y138.842 E26.03017
G1 X71.738 Y139.645 E26.05734
G1 X71.739 Y140.41 E26.08283
G1 X71.856 Y141.094 E26.10594
G1 X72.119 Y141.842 E26.13235
G1 X72.456 Y142.427 E26.15484
G1 X72.631 Y142.685 E26.16523
G1 X72.982 Y143.11 E26.18359
G1 X73.837 Y143.855 E26.22136
G1 X74.923 Y144.294 E26.26038
G1 X76.464 Y144.582 E26.3126
G1 X78.656 Y143.901 E26.38906
G1 X79.696 Y142.786 E26.43985
G1 X80.14 Y142.134 E26.46612
G1 X80.324 Y141.687 E26.48223
G1 X80.463 Y141.313 E26.49552
G1 X80.566 Y140.93 E26.50873
G1 X80.631 Y140.561 E26.52121
G1 X80.662 Y139.871 E26.54422
G1 X80.598 Y139.184 E26.5672
G1 X80.482 Y138.75 E26.58216
G1 X80.378 Y138.413 E26.59391
G1 X79.867 Y137.287 E26.6351
G1 X79.449 Y136.959 E26.6528
G1 X79.122 Y136.613 E26.66866
G1 X78.558 Y136.206 E26.69183
G1 X77.811 Y135.825 E26.71976
G1 X77.105 Y135.615 E26.74429
G1 X76.439 Y135.534 E26.76664
G1 X75.59 Y135.561 E26.79494
G1 X74.871 Y135.736 E26.81959
G1 X74.197 Y135.993 E26.84361
G1 X73.522 Y136.414 E26.87011
G1 F600 E25.12011
G0 F2625 X167.059 Y138.061
G1 F600 E26.87011
G1 F900 X166.979 Y139.956 E26.93329
G1 X167.058 Y141.919 E26.99873
G1 X167.686 Y145.594 E27.12292
G1 X168.943 Y149.158 E27.24881
G1 X170.78 Y152.449 E27.37436
G1 X173.153 Y155.392 E27.50029
G1 X175.986 Y157.887 E27.62603
G1 X179.199 Y159.867 E27.75175
G1 X182.701 Y161.277 E27.8775
G1 X186.387 Y162.074 E28.00312
G1 X190.162 Y162.236 E28.12899
G1 X193.905 Y161.759 E28.25467
G1 X197.514 Y160.655 E28.38039
G1 X200.884 Y158.957 E28.50609
G1 X203.925 Y156.713 E28.63198
G1 X206.535 Y153.992 E28.75757
G1 X208.65 Y150.865 E28.88332
G1 X210.208 Y147.425 E29.00912
G1 X211.162 Y143.773 E29.13485
G1 X211.483 Y140.012 E29.26058
G1 X211.165 Y136.25 E29.38634
G1 X210.216 Y132.598 E29.51203
G1 X208.661 Y129.155 E29.63788
G1 X206.549 Y126.026 E29.76363
G1 X203.942 Y123.302 E29.88922
G1 X200.905 Y121.054 E30.01508
G1 X197.536 Y119.353 E30.1408
G1 X193.928 Y118.247 E30.2665
G1 X190.185 Y117.765 E30.39221
G1 X186.41 Y117.924 E30.51807
G1 X182.724 Y118.716 E30.64366
G1 X179.219 Y120.122 E30.76945
G1 X176.005 Y122.1 E30.89516
G1 X173.169 Y124.591 E31.0209
G1 X170.793 Y127.53 E31.14679
G1 X168.952 Y130.82 E31.27237
G1 X167.692 Y134.385 E31.39832
G1 X167.059 Y138.061 E31.52257
G1 F600 E29.77257
G0 F2625 X166.781 Y140
G1 F600 E31.52257
G1 F900 X80.856 Y140 E34.38476
G1 F600 E32.63476
G0 F2625 X80 Y142.695
G1 F600 E34.38476
G1 F900 X80 Y151.25 E34.66973
G1 F600 E32.91973
G0 F2625 X75 Y151.25
G1 F600 E34.66973
G1 F900 X75 Y144.513 E34.89414
G1 F600 E33.14414
G0 F2625 X71.538 Y140
G1 F600 E34.89414
G1 F900 X66.021 Y140 E35.07792
G1 F600 E33.32792
G0 F2625 X66.021 Y135
G1 F600 E35.07792
G1 F900 X167.382 Y135 E38.45429
G1 F600 E36.70429
G0 F2625 X169.18 Y130
G1 F600 E38.45429
G1 F900 X66.021 Y130 E41.89055
G1 F600 E40.14055
G0 F2625 X70 Y128.75
G1 F600 E41.89055
G1 F900 X70 Y151.25 E42.64004
G1 F600 E40.89004
G0 F2625 X66.021 Y150
G1 F600 E42.64004
G1 F900 X169.184 Y150 E46.07643
G1 F600 E44.32643
G0 F2625 X170 Y151.462
G1 F600 E46.07643
G1 F900 X170 Y162.75 E46.45244
G1 F600 E44.70244
G0 F2625 X169.49 Y160
G1 F600 E46.45244
G1 F900 X179.035 Y160 E46.77039
G1 F600 E45.02039
G0 F2625 X180 Y160.406
G1 F600 E46.77039
G1 F900 X180 Y162.75 E46.84847
G1 F600 E45.09847
G0 F2625 X175 Y162.75
G1 F600 E46.84847
G1 F900 X175 Y157.286 E47.03047
G1 F600 E45.28047
G0 F2625 X172.58 Y155
G1 F600 E47.03047
G1 F900 X169.49 Y155 E47.1334
G1 F600 E45.3834
G0 F2625 X165 Y151.25
G1 F600 E47.1334
G1 F900 X165 Y128.75 E47.88289
G1 F600 E46.13289
G0 F2625 X160 Y128.75
G1 F600 E47.88289
G1 F900 X160 Y151.25 E48.63237
G1 F600 E46.88237
G0 F2625 X155 Y151.25
G1 F600 E48.63237
G1 F900 X155 Y128.75 E49.38185
G1 F600 E47.63185
G0 F2625 X150 Y128.75
G1 F600 E49.38185
G1 F900 X150 Y151.25 E50.13134
G1 F600 E48.38134
G0 F2625 X145 Y151.25
G1 F600 E50.13134
G1 F900 X145 Y128.75 E50.88082
G1 F600 E49.13082
G0 F2625 X140 Y128.75
G1 F600 E50.88082
G1 F900 X140 Y151.25 E51.6303
G1 F600 E49.8803
G0 F2625 X135 Y151.25
G1 F600 E51.6303
G1 F900 X135 Y128.75 E52.37979
G1 F600 E50.62979
G0 F2625 X130 Y128.75
G1 F600 E52.37979
G1 F900 X130 Y151.25 E53.12927
G1 F600 E51.37927
G0 F2625 X125 Y151.25
G1 F600 E53.12927
G1 F900 X125 Y128.75 E53.87875
G1 F600 E52.12875
G0 F2625 X120 Y128.75
G1 F600 E53.87875
G1 F900 X120 Y151.25 E54.62824
G1 F600 E52.87824
G0 F2625 X115 Y151.25
G1 F600 E54.62824
G1 F900 X115 Y128.75 E55.37772
G1 F600 E53.62772
G0 F2625 X110 Y128.75
G1 F600 E55.37772
G1 F900 X110 Y151.25 E56.1272
G1 F600 E54.3772
G0 F2625 X105 Y151.25
G1 F600 E56.1272
G1 F900 X105 Y128.75 E56.87668
G1 F600 E55.12668
G0 F2625 X100 Y128.75
G1 F600 E56.87668
G1 F900 X100 Y151.25 E57.62617
G1 F600 E55.87617
G0 F2625 X95 Y151.25
G1 F600 E57.62617
G1 F900 X95 Y128.75 E58.37565
G1 F600 E56.62565
G0 F2625 X90 Y128.75
G1 F600 E58.37565
G1 F900 X90 Y151.25 E59.12513
G1 F600 E57.37513
G0 F2625 X85 Y151.25
G1 F600 E59.12513
G1 F900 X85 Y128.75 E59.87462
G1 F600 E58.12462
G0 F2625 X80 Y128.75
G1 F600 E59.87462
G1 F900 X80 Y137.137 E60.15399
G1 F600 E58.40399
G0 F2625 X75 Y135.5
G1 F600 E60.15399
G1 F900 X75 Y128.75 E60.37884
G1 F600 E58.62884
G0 F2625 X66.021 Y145
G1 F600 E60.37884
G1 F900 X167.381 Y145 E63.75517
G1 F600 E62.00517
G0 F2625 X168.141 Y138.177
G0 X168.483 Y136.184
G0 X170 Y128.538
G1 F600 E63.75517
G1 F900 X170 Y117.25 E64.13118
G1 F600 E62.38118
G0 F2625 X169.49 Y120
G1 F600 E64.13118
G1 F900 X179.034 Y120 E64.4491
G1 F600 E62.6991
G0 F2625 X180 Y119.593
G1 F600 E64.4491
G1 F900 X180 Y117.25 E64.52714
G1 F600 E62.77714
G0 F2625 X175 Y117.25
G1 F600 E64.52714
G1 F900 X175 Y122.717 E64.70925
G1 F600 E62.95925
G0 F2625 X172.579 Y125
G1 F600 E64.70925
G1 F900 X169.49 Y125 E64.81214
G1 F600 E63.06214
G0 F2625 X185 Y118.023
G1 F600 E64.81214
G1 F900 X185 Y117.25 E64.83789
G1 F600 E63.08789
G0 F2625 X190 Y117.25
G1 F600 E64.83789
G1 F900 X190 Y117.573 E64.84865
G1 F600 E63.09865
G0 F2625 X195 Y117.25
G1 F600 E64.84865
G1 F900 X195 Y118.366 E64.88583
G1 F600 E63.13583
G0 F2625 X199.263 Y120
G1 F600 E64.88583
G1 F900 X213.978 Y120 E65.37599
G1 F600 E63.62599
G0 F2625 X210 Y117.25
G1 F600 E65.37599
G1 F900 X210 Y131.635 E65.85516
G1 F600 E64.10516
G0 F2625 X209.261 Y130
G1 F600 E65.85516
G1 F900 X213.978 Y130 E66.01228
G1 F600 E64.26228
G0 F2625 X213.978 Y125
G1 F600 E66.01228
G1 F900 X205.844 Y125 E66.28323
G1 F600 E64.53323
G0 F2625 X205 Y124.118
G1 F600 E66.28323
G1 F900 X205 Y117.25 E66.51201
G1 F600 E64.76201
G0 F2625 X200 Y117.25
G1 F600 E66.51201
G1 F900 X200 Y120.372 E66.616
G1 F600 E64.866
G0 F2625 X205.701 Y126.709
G0 X207.327 Y129.119
G0 X211.047 Y135
G1 F600 E66.616
G1 F900 X213.978 Y135 E66.71363
G1 F600 E64.96363
G0 F2625 X213.978 Y140
G1 F600 E66.71363
G1 F900 X211.682 Y140 E66.79011
G1 F600 E65.04011
G0 F2625 X211.049 Y145
G1 F600 E66.79011
G1 F900 X213.978 Y145 E66.88768
G1 F600 E65.13768
G0 F2625 X213.978 Y150
G1 F600 E66.88768
G1 F900 X209.261 Y150 E67.04481
G1 F600 E65.29481
G0 F2625 X210 Y148.368
G1 F600 E67.04481
G1 F900 X210 Y162.75 E67.52387
G1 F600 E65.77387
G0 F2625 X213.978 Y160
G1 F600 E67.52387
G1 F900 X199.259 Y160 E68.01417
G0 F2625 X200 Y159.626
G1 F900 X200 Y162.75 E68.11823
G1 F600 E66.36823
G0 F2625 X195 Y162.75
G1 F600 E68.11823
G1 F900 X195 Y161.633 E68.15544
G1 F600 E66.40544
G0 F2625 X190 Y162.43
G1 F600 E68.15544
G1 F900 X190 Y162.75 E68.1661
G1 F600 E66.4161
G0 F2625 X185 Y162.75
G1 F600 E68.1661
G1 F900 X185 Y161.979 E68.19178
G1 F600 E66.44178
G0 F2625 X205 Y162.75
G1 F600 E68.19178
G1 F900 X205 Y155.88 E68.42062
G1 F600 E66.67062
G0 F2625 X205.846 Y155
G1 F600 E68.42062
G1 F900 X213.978 Y155 E68.6915
G1 F600 E66.9415
G0 F2625 X207.029 Y151.259
G0 X206.99 Y151.239
G0 X202.468 Y148.805
G0 X202.43 Y148.785
G0 X201.445 Y148.255
G1 F600 E68.6915
G1 F900 X199.874 Y150.199 E68.77476
G1 X198.452 Y151.45 E68.83785
G1 X180.004 Y151.45 E69.45236
G1 X179.481 Y151.064 E69.47401
G1 X177.759 Y149.267 E69.55692
G1 X176.357 Y147.19 E69.64039
G1 X175.325 Y144.914 E69.72363
G1 X174.696 Y142.492 E69.80699
G1 X174.485 Y140 E69.89029
G1 X174.696 Y137.508 E69.9736
G1 X175.325 Y135.086 E70.05695
G1 X176.357 Y132.81 E70.1402
G1 X177.759 Y130.733 E70.22367
G1 X179.481 Y128.936 E70.30657
G1 X180.004 Y128.55 E70.32823
G1 X198.452 Y128.55 E70.94274
G1 X199.874 Y129.801 E71.00582
G1 X201.445 Y131.745 E71.08908
G1 X202.659 Y133.92 E71.17205
G1 X203.498 Y136.297 E71.25602
G1 X203.918 Y138.743 E71.33869
G1 X203.918 Y141.257 E71.42243
G1 X203.498 Y143.703 E71.5051
G1 X202.659 Y146.08 E71.58907
G1 X201.445 Y148.255 E71.67204
G1 F600 E69.92204
G0 F2625 X191.806 Y141.765
G1 F600 E71.67204
G1 F900 X192.123 Y141.125 E71.69583
G1 X192.315 Y140.376 E71.72159
G1 X192.315 Y140.123 E71.73001
G1 X192.326 Y139.869 E71.73848
G1 X192.159 Y138.697 E71.77792
G1 X191.06 Y137.351 E71.8358
G1 X189.707 Y136.919 E71.88311
G1 X188.388 Y136.932 E71.92705
G1 X187.086 Y137.64 E71.97642
G1 X186.441 Y138.641 E72.01608
G1 X186.254 Y139.089 E72.03225
G1 X186.086 Y140.021 E72.0638
G1 X186.292 Y141.011 E72.09748
G1 X186.745 Y141.894 E72.13054
G1 X187.513 Y142.626 E72.16588
G1 X188.539 Y143.087 E72.20335
G1 X189.638 Y143.096 E72.23996
G1 X190.25 Y142.932 E72.26106
G1 X191.006 Y142.61 E72.28843
G1 X191.806 Y141.765 E72.3272
G1 F600 E70.5772
G0 F2625 X192.521 Y140
G1 F600 E72.3272
G1 F900 X203.718 Y140 E72.70017
G1 F600 E70.95017
G0 F2625 X202.829 Y135
G1 F600 E72.70017
G1 F900 X175.584 Y135 E73.60771
G1 F600 E71.85771
G0 F2625 X175 Y137.134
G1 F600 E73.60771
G1 F900 X175 Y142.865 E73.79861
G1 F600 E72.04861
G0 F2625 X175.583 Y145
G1 F600 E73.79861
G1 F900 X202.828 Y145 E74.70615
G1 F600 E72.95615
G0 F2625 X200 Y149.726
G1 F600 E74.70615
G1 F900 X200 Y130.275 E75.35407
G0 F2625 X199.779 Y130
G1 F900 X178.738 Y130 E76.05496
G1 F600 E74.30496
G0 F2625 X180 Y128.801
G1 F600 E76.05496
G1 F900 X180 Y151.198 E76.80101
G1 F600 E75.05101
G0 F2625 X178.738 Y150
G1 F600 E76.80101
G1 F900 X199.777 Y150 E77.50183
G1 F600 E75.75183
G0 F2625 X195 Y151.25
G1 F600 E77.50183
G1 F900 X195 Y128.75 E78.25131
G1 F600 E76.50131
G0 F2625 X190 Y128.75
G1 F600 E78.25131
G1 F900 X190 Y136.802 E78.51952
G1 F600 E76.76952
G0 F2625 X185.886 Y140
G1 F600 E78.51952
G1 F900 X174.686 Y140 E78.8926
G1 F600 E77.1426
G0 F2625 X185 Y128.75
G1 F600 E78.8926
G1 F900 X185 Y151.25 E79.64208
G1 F600 E77.89208
G0 F2625 X190 Y151.25
G1 F600 E79.64208
G1 F900 X190 Y143.206 E79.91003
G1 F600 E78.16003
;MESH:
G0 F2625 X175.404 Y147.721
G0 X174.166 Y148.414
G0 X172.866 Y145.781
G0 X172.96 Y145.748
;TYPE:WALL-INNER
G1 F600 E79.91003
G1 F900 X174.166 Y148.414 E80.0075
G1 X175.805 Y150.839 E80.105
G1 X177.828 Y152.951 E80.20242
G1 X180.181 Y154.691 E80.2999
G1 X182.794 Y156.009 E80.39738
